P3
9 12
255
1 23 0  1 23 0  0 12 0  0 12 0  0 12 0  0 12 0  1 23 0  1 23 0  1 23 0
2 12 0  1 23 0  0 12 0  0 12 0  0 12 0  0 12 0  1 23 0  10 44 0  1 23 0
2 12 0  0 12 0  0 12 0  1 12 0  1 12 0  1 12 0  1 20 0  1 23 0  1 23 0
1 12 0  0 12 0  0 12 0  0 12 0  0 12 0  0 12 0  0 12 0  0 12 0  0 12 0
0 12 0  0 12 0  1 12 0  0 12 0  0 12 0  0 12 0  1 12 0  1 12 0  0 12 0
11 12 0  9 12 0  3 12 0  12 12 0  12 12 0  11 12 0  3 12 0  8 12 0  6 12 0
1 23 0  1 23 0  1 20 0  0 20 0  0 20 0  0 20 0  0 20 0  1 23 0  1 23 0
2 23 0  2 23 0  1 20 0  1 20 0  0 20 0  1 23 0  2 23 0  1 23 0  1 23 0
4 23 0  3 20 0  2 23 0  1 20 0  1 23 0  3 23 0  2 23 0  2 23 0  1 23 0
13 44 0  4 23 0  2 23 0  1 20 0  2 23 0  3 23 0  1 23 0  1 23 0  1 23 0
4 20 0  4 23 0  2 23 0  1 20 0  2 23 0  12 44 0  1 23 0  1 23 0  1 23 0
3 23 0  2 23 0  1 23 0  1 20 0  1 23 0  2 20 0  0 23 0  1 23 0  1 20 0
