P3
# R: nearest whole height (h); G: tile_palette.txt; B: 0
# One pixel per tile. Highest stored surface; half heights round up.
# Source: https://fftcompanion.app/maps/storyBattle/monasteryVaultsSecondLevel
# Original FFHacktics page could not be inspected.
10 12
32
0 4 0	0 4 0	0 4 0	0 4 0	0 4 0	0 4 0	0 4 0	0 4 0	0 4 0	0 4 0
2 4 0	1 4 0	6 4 0	6 4 0	6 4 0	6 4 0	6 4 0	6 4 0	1 4 0	2 4 0
3 4 0	5 4 0	6 4 0	6 4 0	8 20 0	8 19 0	6 4 0	6 4 0	5 4 0	3 4 0
6 4 0	6 4 0	6 4 0	6 4 0	6 4 0	6 4 0	6 4 0	6 4 0	6 4 0	6 4 0
12 4 0	12 4 0	12 4 0	6 4 0	7 4 0	9 4 0	11 4 0	12 4 0	12 4 0	12 4 0
12 4 0	12 4 0	12 4 0	12 4 0	12 4 0	12 4 0	12 4 0	12 4 0	12 4 0	12 4 0
12 4 0	12 4 0	12 4 0	12 4 0	12 4 0	12 4 0	12 4 0	12 4 0	12 4 0	12 4 0
12 4 0	12 4 0	18 20 0	18 20 0	12 4 0	12 4 0	18 20 0	18 20 0	12 4 0	12 4 0
12 4 0	12 4 0	12 4 0	12 4 0	12 4 0	12 4 0	12 4 0	12 4 0	12 4 0	12 4 0
12 4 0	12 4 0	12 4 0	12 4 0	12 4 0	12 4 0	12 4 0	12 4 0	12 4 0	12 4 0
18 20 0	18 20 0	18 20 0	18 20 0	12 4 0	12 4 0	18 20 0	18 20 0	18 20 0	18 20 0
18 20 0	18 20 0	18 20 0	18 20 0	18 20 0	18 20 0	18 20 0	18 20 0	18 20 0	18 20 0
