P3
# R: nearest whole height (h); G: tile_palette.txt; B: 0
# One pixel per tile. Highest stored surface; half heights round up.
# Source: https://fftcompanion.app/maps/storyBattle/monasteryVaultsFourthLevel
# Original FFHacktics page could not be inspected.
16 8
255
5 19 0	7 19 0	9 19 0	11 4 0	11 4 0	9 19 0	7 19 0	5 19 0	3 4 0	3 4 0	3 4 0	1 4 0	1 4 0	4 4 0	4 4 0	4 4 0
3 4 0	3 4 0	3 4 0	12 23 0	12 23 0	4 4 0	4 4 0	4 4 0	4 4 0	3 4 0	3 4 0	1 4 0	1 4 0	0 4 0	0 4 0	6 4 0
3 4 0	3 4 0	3 4 0	12 23 0	12 23 0	4 4 0	4 4 0	4 4 0	4 4 0	4 4 0	3 4 0	3 4 0	1 4 0	0 4 0	0 4 0	6 4 0
3 4 0	3 4 0	3 4 0	12 23 0	12 23 0	3 4 0	4 4 0	9 4 0	8 4 0	7 4 0	6 4 0	5 4 0	4 4 0	10 19 0	8 19 0	8 19 0
3 4 0	3 4 0	5 4 0	11 4 0	11 4 0	11 4 0	11 4 0	11 19 0	10 19 0	10 19 0	10 19 0	9 19 0	11 20 0	11 20 0	8 19 0	8 19 0
2 4 0	3 4 0	5 4 0	11 4 0	11 4 0	11 4 0	11 4 0	6 4 0	7 19 0	8 19 0	8 19 0	8 19 0	11 20 0	11 20 0	11 19 0	9 19 0
2 4 0	3 4 0	9 4 0	11 4 0	11 4 0	11 4 0	11 4 0	6 4 0	6 4 0	5 19 0	5 19 0	5 19 0	4 4 0	4 4 0	7 4 0	9 19 0
1 4 0	1 4 0	8 4 0	11 4 0	11 4 0	11 4 0	11 4 0	6 4 0	6 4 0	5 19 0	4 4 0	4 4 0	4 4 0	4 4 0	7 4 0	7 19 0
