P3
28 18
255
7 23 0  7 23 0  7 23 0  7 23 0  7 23 0  7 23 0  7 23 0  7 23 0  7 23 0  6 23 0  6 23 0  6 23 0  6 23 0  6 23 0  6 23 0  6 23 0  7 23 0  7 23 0  7 23 0  7 23 0  7 23 0  7 23 0  7 23 0  7 23 0  7 23 0  7 23 0  7 23 0  7 23 0
7 23 0  7 23 0  7 23 0  7 23 0  7 23 0  7 23 0  7 23 0  7 23 0  6 23 0  6 23 0  6 23 0  6 23 0  6 23 0  6 23 0  6 23 0  6 23 0  6 23 0  7 23 0  7 23 0  7 23 0  7 23 0  7 23 0  7 23 38  7 23 0  7 23 0  7 23 43  7 23 0  7 23 0
7 23 0  7 23 0  7 23 0  7 23 0  7 23 0  7 23 38  7 23 0  7 23 0  6 23 0  6 23 0  5 23 0  5 23 0  5 23 0  5 23 0  5 23 0  6 23 0  6 23 0  7 23 0  7 23 0  7 23 0  7 23 38  7 23 0  7 23 0  7 23 0  7 23 0  7 23 0  7 23 38  6 23 0
7 23 0  7 23 0  7 23 0  7 23 0  7 23 39  7 23 0  6 23 0  6 23 0  6 23 0  5 23 0  5 23 0  5 23 0  5 23 0  5 23 0  5 23 0  5 23 0  6 23 0  6 23 0  7 23 0  7 23 0  7 23 0  7 23 0  7 23 39  7 23 0  7 23 38  7 23 0  7 23 0  6 23 0
6 23 0  6 23 0  7 23 0  7 23 38  7 23 0  6 23 0  6 23 0  6 23 0  5 23 38  5 23 0  5 23 0  5 23 0  4 23 0  4 23 0  5 23 0  5 23 0  5 23 0  6 23 0  7 23 0  7 23 38  7 23 39  7 23 0  7 23 0  7 23 0  7 23 0  7 23 0  6 23 0  5 23 0
6 23 0  6 23 0  6 23 0  6 23 0  6 23 0  6 23 0  5 23 0  5 23 0  5 23 0  4 23 0  4 23 0  4 23 0  4 23 0  4 23 0  4 23 0  4 23 0  5 23 0  6 23 0  6 23 0  7 23 0  7 23 0  7 23 38  7 23 0  7 23 38  7 23 39  6 23 0  6 23 0  5 23 0
5 23 0  5 23 0  5 23 0  6 23 0  6 23 0  5 23 0  5 23 0  5 23 0  4 23 0  4 23 0  4 23 0  4 23 0  4 23 0  4 23 0  4 23 0  4 23 0  4 23 38  5 23 0  5 23 0  6 23 0  7 23 0  7 23 0  7 23 0  7 23 0  6 23 0  5 23 0  5 23 0  4 23 0
5 23 0  5 23 0  5 23 0  5 23 0  5 23 0  5 23 0  4 23 0  4 23 0  4 23 0  4 21 0  3 21 0  3 21 0  3 21 0  3 21 0  3 23 0  4 23 0  4 23 0  4 23 0  5 23 0  5 23 0  6 23 0  6 23 0  6 23 0  6 23 0  5 23 0  5 23 0  4 23 0  4 23 0
4 23 0  4 23 0  4 23 0  4 23 0  4 23 0  4 23 0  4 21 0  4 21 0  3 21 0  3 24 0  3 23 0  3 24 0  3 24 0  3 21 0  3 24 0  3 24 0  3 23 0  4 23 0  4 23 0  5 23 0  5 23 0  5 23 0  5 23 0  5 23 0  4 23 0  4 23 0  3 24 0  3 24 0
4 23 0  4 23 0  4 21 0  4 21 0  4 21 0  3 21 0  3 23 0  3 23 0  3 24 0  1 31 0  1 31 0  1 31 0  1 31 0  1 31 0  1 31 0  1 31 0  3 24 0  3 23 0  4 23 0  4 23 0  4 23 0  4 23 0  4 23 0  4 23 0  3 23 0  3 24 0  1 31 0  1 31 0
3 21 108  3 21 0  3 23 0  3 23 0  3 23 0  3 23 0  3 24 0  3 24 0  1 31 0  1 31 0  1 31 0  1 31 0  3 24 0  1 31 0  1 31 0  1 31 0  1 31 0  2 25 0  2 25 0  3 23 0  4 23 0  3 23 0  3 23 0  3 23 0  1 31 0  1 31 0  1 31 0  3 24 0
3 23 0  3 23 0  3 24 0  3 24 0  3 23 0  2 31 0  1 31 0  1 31 0  1 31 0  3 24 0  3 23 0  3 24 0  3 24 0  3 21 0  3 24 0  3 24 0  1 31 0  1 31 0  2 25 0  2 25 0  3 24 0  3 24 0  3 23 0  1 31 0  1 31 0  3 23 0  3 24 0  3 23 0
2 31 0  2 31 0  2 31 0  2 31 0  2 31 0  3 4 0  1 31 0  3 4 0  3 24 0  3 23 0  3 23 0  3 23 0  3 23 0  3 21 0  3 23 42  3 23 0  3 24 0  1 31 0  1 31 0  1 31 0  1 31 0  1 31 0  1 31 0  1 31 0  3 23 0  3 23 0  3 23 0  3 23 0
2 31 0  2 31 0  2 31 0  2 31 0  2 31 0  2 31 0  3 24 0  3 24 0  3 23 0  4 23 0  4 23 0  4 23 0  4 23 0  4 23 0  4 21 0  4 23 0  3 23 0  3 23 0  3 24 0  1 31 0  1 31 0  1 31 0  3 24 0  3 23 0  3 23 0  3 23 0  4 23 0  4 23 0
2 31 0  2 31 0  3 24 0  3 24 0  3 23 0  3 23 0  3 4 0  3 23 0  4 23 0  4 23 38  4 23 0  4 23 0  4 23 0  4 23 0  4 21 0  4 21 33  4 21 37  3 23 0  3 23 0  3 23 0  3 24 0  3 24 0  3 23 0  3 23 0  4 23 0  4 23 38  4 23 0  4 23 0
5 7 0  3 23 0  3 23 0  3 23 0  3 23 0  3 23 0  4 23 0  4 23 0  4 23 0  4 23 0  4 23 43  5 23 38  5 23 0  5 23 0  4 23 0  4 23 0  4 23 0  4 23 0  4 23 0  3 23 0  3 23 0  3 23 0  3 23 0  4 23 0  4 23 0  4 23 0  4 23 0  5 23 0
6 7 0  6 7 0  4 23 0  4 23 0  4 23 0  5 23 0  5 23 0  5 23 0  5 23 0  6 23 0  6 23 0  6 23 0  6 23 0  6 23 0  6 23 0  6 23 0  5 23 0  5 23 0  5 23 0  5 23 0  5 23 0  5 23 0  5 23 0  5 23 0  5 23 0  6 23 0  6 23 0  6 23 0
8 7 0  8 7 0  8 7 0  6 23 0  6 23 0  6 23 0  6 23 0  6 23 0  7 23 0  7 23 0  7 23 0  7 23 0  7 23 0  7 23 0  7 23 0  7 23 0  7 23 0  6 23 0  6 23 0  6 23 0  6 23 0  6 23 0  6 23 0  6 23 0  7 23 0  7 23 0  7 23 0  7 23 0
