P3
15 15
255
0 11 0  0 11 0  0 11 0  1 4 0  3 4 0  1 11 0  1 11 0  1 11 0  2 11 0  2 11 0  3 11 0  3 11 0  3 11 0  3 11 0  3 11 0
0 11 0  0 11 0  0 11 0  0 11 0  0 11 0  1 11 0  2 4 0  4 4 0  2 11 0  14 18 0  3 11 0  3 11 0  4 4 0  6 4 0  3 11 0
0 11 0  0 11 0  1 4 0  2 4 0  0 11 0  1 11 0  1 11 0  1 11 0  2 11 0  2 11 0  3 11 0  3 11 0  3 11 0  3 11 0  3 11 0
0 11 0  0 11 0  0 11 0  0 11 0  1 11 0  1 11 0  1 11 0  1 11 0  1 11 0  2 4 0  2 4 0  2 4 0  3 4 0  3 4 0  3 4 0
0 4 0  0 4 0  0 4 0  0 4 0  1 4 0  1 4 0  1 11 0  1 11 0  1 4 0  2 4 0  2 4 0  2 4 0  3 4 0  3 4 0  3 11 0
0 4 0  0 4 0  0 4 0  0 11 0  1 11 0  1 4 0  1 11 0  1 11 0  1 11 0  2 11 0  3 11 0  3 11 0  3 11 0  3 11 0  3 4 0
0 11 0  0 11 0  0 11 0  0 11 0  1 11 0  1 4 0  1 4 0  3 26 0  6 4 0  1 11 0  3 11 0  3 11 0  3 11 0  3 11 0  3 11 0
0 11 0  0 11 0  1 4 0  3 4 0  1 11 0  1 11 0  1 11 0  1 11 0  1 11 0  1 11 0  3 11 0  3 11 0  3 11 0  15 18 0  3 11 0
0 11 0  0 11 0  0 11 0  1 11 0  1 11 0  1 11 0  1 11 0  1 11 0  1 11 0  3 11 0  3 11 0  3 11 0  4 11 0  4 11 0  4 11 0
0 11 0  0 11 0  0 11 0  1 11 0  1 11 0  1 11 0  1 11 0  1 11 0  1 11 0  3 11 0  4 4 0  6 4 0  4 11 0  4 11 0  4 11 0
0 11 0  1 4 0  3 4 0  1 11 0  1 11 0  1 11 0  1 11 0  1 11 0  3 11 0  3 11 0  3 11 0  4 11 0  4 11 0  4 11 0  4 11 0
0 11 0  0 11 0  0 11 0  1 11 0  1 11 0  2 4 0  3 4 0  1 11 0  3 11 0  4 4 0  6 4 0  4 11 0  4 11 0  4 11 0  4 11 0
0 11 0  0 11 0  0 11 0  0 11 0  1 11 0  1 11 0  1 11 0  1 11 0  3 11 0  3 11 0  3 11 0  4 11 0  4 11 0  5 4 0  6 4 0
0 11 0  1 4 0  3 4 0  0 11 0  1 11 0  1 11 0  13 18 0  1 11 0  3 11 0  3 11 0  3 11 0  4 11 0  4 11 0  4 11 0  4 11 0
0 11 0  0 11 0  0 11 0  0 11 0  1 11 0  1 11 0  1 11 0  1 11 0  3 11 0  3 11 0  3 11 0  4 11 0  4 11 0  4 11 0  4 11 0
