P3
# R: nearest whole height (h); G: tile_palette.txt; B: 0
# One pixel per tile. Highest stored surface; half heights round up.
# Source: https://ffhacktics.com/wiki/MAP095_Church
# Extracted from the user-supplied saved HTML tile table.
# Columns increase x; rows increase numbered wiki y.
9 12
255
0 4 0	0 4 0	0 4 0	0 4 0	0 25 0	0 4 0	0 4 0	0 4 0	0 4 0
0 4 0	0 4 0	0 4 0	0 4 0	0 25 0	0 4 0	0 4 0	0 4 0	0 4 0
1 20 0	1 20 0	0 4 0	0 4 0	0 25 0	0 4 0	0 4 0	1 20 0	1 20 0
0 4 0	0 4 0	0 4 0	0 4 0	0 25 0	0 4 0	0 4 0	0 4 0	0 4 0
1 20 0	1 20 0	0 4 0	0 4 0	0 25 0	0 4 0	0 4 0	1 20 0	1 20 0
0 4 0	0 4 0	0 4 0	0 4 0	0 25 0	0 4 0	0 4 0	0 4 0	0 4 0
1 20 0	1 20 0	0 4 0	0 4 0	0 25 0	0 4 0	0 4 0	1 20 0	1 20 0
0 4 0	0 4 0	0 4 0	0 4 0	0 25 0	0 4 0	0 4 0	0 4 0	0 4 0
0 4 0	2 4 0	2 4 0	2 4 0	2 4 0	2 4 0	2 4 0	2 4 0	0 4 0
1 4 0	2 4 0	2 4 0	4 20 0	6 20 0	4 20 0	2 4 0	2 4 0	1 4 0
2 4 0	2 4 0	2 4 0	2 4 0	2 4 0	2 4 0	2 4 0	2 4 0	2 4 0
2 4 0	2 4 0	2 4 0	2 4 0	4 20 0	2 4 0	2 4 0	2 4 0	2 4 0
