P3
60 38
25
0 25 0  0 20 0  0 25 0  0 20 0  0 25 0  0 20 0  0 25 0  0 25 0  0 25 0  0 25 0  0 25 0  0 25 0  0 25 0  0 25 0  0 20 0  0 25 0  0 25 0  0 25 0  0 25 0  0 25 0  0 20 0  0 20 0  0 20 0  0 25 0  0 25 0  0 25 0  0 25 0  0 20 0  0 20 0  0 25 0  0 25 0  0 25 0  0 25 0  0 25 0  0 25 0  0 25 0  0 25 0  0 25 0  0 25 0  0 20 0  0 25 0  0 25 0  0 25 0  0 25 0  0 25 0  0 25 0  0 25 0  0 25 0  0 20 0  0 20 0  0 25 0  0 25 0  0 25 0  0 25 0  0 25 0  0 20 0  0 25 0  0 25 0  0 25 0  0 25 0
0 25 0  0 25 0  0 20 0  0 25 0  0 25 0  0 20 0  0 20 0  0 25 0  0 25 0  0 25 0  0 20 0  0 25 0  0 25 0  0 25 0  0 25 0  0 25 0  0 25 0  0 25 0  0 20 0  0 25 0  0 20 0  0 20 0  0 25 0  0 25 0  0 25 0  0 25 0  0 20 0  0 20 0  0 20 0  0 25 0  0 25 0  0 25 0  0 25 0  0 25 0  0 25 0  0 25 0  0 25 0  0 20 0  0 25 0  0 20 0  0 25 0  0 25 0  0 25 0  0 20 0  0 20 0  0 25 0  0 25 0  0 20 0  0 20 0  0 25 0  0 25 0  0 25 0  0 25 0  0 25 0  0 25 0  0 25 0  0 25 0  0 25 0  0 25 0  0 25 0
0 25 0  0 25 0  0 25 0  0 25 0  0 25 0  0 20 0  0 25 0  0 25 0  0 25 0  0 25 0  0 25 0  0 25 0  0 25 0  0 25 0  0 25 0  0 25 0  0 25 0  0 25 0  0 25 0  0 20 0  0 20 0  0 20 0  0 25 0  0 25 0  0 25 0  0 25 0  0 20 0  0 20 0  0 25 0  0 25 0  0 25 0  0 25 0  0 25 0  0 25 0  0 25 0  0 25 0  0 25 0  0 25 0  0 25 0  0 25 0  0 25 0  0 25 0  0 25 0  0 20 0  0 20 0  0 20 0  0 25 0  0 25 0  0 25 0  0 20 0  0 25 0  0 25 0  0 25 0  0 25 0  0 25 0  0 25 0  0 25 0  0 25 0  0 25 0  0 20 0
0 25 0  0 25 0  0 25 0  0 25 0  0 25 0  0 20 0  0 20 0  0 20 0  0 25 0  0 25 0  0 25 0  0 25 0  0 25 0  0 25 0  0 25 0  0 25 0  0 25 0  0 20 0  0 25 0  0 20 0  0 20 0  0 20 0  0 20 0  0 25 0  0 25 0  0 20 0  0 20 0  0 25 0  0 25 0  0 25 0  0 25 0  0 25 0  0 25 0  0 25 0  0 25 0  0 25 0  0 25 0  0 25 0  0 25 0  0 25 0  0 25 0  0 25 0  0 25 0  0 25 0  0 20 0  0 25 0  0 25 0  0 25 0  0 25 0  0 25 0  0 25 0  0 25 0  0 25 0  0 25 0  0 25 0  0 25 0  0 25 0  0 25 0  0 20 0  0 20 0
0 25 0  0 25 0  0 25 0  0 25 0  0 20 0  0 20 0  0 20 0  0 25 0  0 25 0  0 25 0  0 25 0  0 25 0  0 25 0  0 25 0  0 25 0  0 25 0  0 25 0  0 25 0  0 20 0  0 25 0  0 20 0  0 25 0  0 25 0  0 25 0  0 25 0  0 20 0  0 25 0  0 25 0  0 20 0  0 21 0  0 21 0  0 25 0  0 20 0  0 20 0  0 25 0  0 20 0  0 25 0  0 25 0  0 25 0  0 25 0  0 25 0  0 25 0  0 25 0  0 25 0  0 25 0  0 25 0  0 25 0  0 25 0  0 25 0  0 25 0  0 25 0  0 25 0  0 25 0  0 25 0  0 25 0  0 25 0  0 25 0  0 20 0  0 20 0  0 25 0
0 25 0  0 25 0  0 25 0  0 25 0  0 20 0  0 20 0  0 25 0  0 25 0  0 25 0  0 25 0  0 25 0  0 25 0  0 25 0  0 25 0  0 25 0  0 25 0  0 25 0  0 20 0  0 20 0  0 20 0  0 25 0  0 25 0  0 25 0  0 25 0  0 25 0  0 25 0  0 25 0  0 21 0  0 21 0  0 21 0  0 21 0  0 21 0  0 21 0  0 21 0  0 21 0  0 25 0  0 25 0  0 25 0  0 25 0  0 25 0  0 25 0  0 25 0  0 25 0  0 25 0  0 25 0  0 25 0  0 25 0  0 25 0  0 25 0  0 25 0  0 25 0  0 25 0  0 25 0  0 25 0  0 25 0  0 20 0  0 25 0  0 25 0  0 20 0  0 25 0
0 25 0  0 25 0  0 20 0  0 25 0  0 20 0  0 20 0  0 25 0  0 25 0  0 25 0  0 25 0  0 25 0  0 25 0  0 25 0  0 25 0  0 25 0  0 25 0  0 25 0  0 20 0  0 20 0  0 20 0  0 20 0  0 20 0  0 20 0  0 25 0  0 20 0  0 21 0  0 21 0  0 21 0  0 21 0  0 25 0  0 25 0  0 21 0  0 21 0  0 21 0  0 21 0  0 21 0  0 25 0  0 25 0  0 25 0  0 25 0  0 25 0  0 25 0  0 25 0  0 25 0  0 25 0  0 25 0  0 25 0  0 25 0  0 25 0  0 25 0  0 25 0  0 25 0  0 25 0  0 25 0  0 25 0  0 25 0  0 25 0  0 25 0  0 25 0  0 25 0
0 20 0  0 20 0  0 25 0  0 25 0  0 25 0  0 20 0  0 25 0  0 25 0  0 25 0  0 25 0  0 25 0  0 25 0  0 25 0  0 25 0  0 25 0  0 25 0  0 25 0  0 25 0  0 20 0  0 20 0  0 20 0  0 25 0  0 20 0  0 21 0  0 21 0  0 21 0  0 21 0  0 25 0  0 25 0  0 25 0  0 25 0  0 25 0  0 25 0  0 25 0  0 21 0  0 21 0  0 25 0  0 25 0  0 25 0  0 25 0  0 25 0  0 25 0  0 25 0  0 25 0  0 25 0  0 25 0  0 25 0  0 25 0  0 25 0  0 25 0  0 25 0  0 25 0  0 25 0  0 25 0  0 25 0  0 25 0  0 25 0  0 25 0  0 25 0  0 25 0
0 25 0  0 20 0  0 25 0  0 25 0  0 25 0  0 25 0  0 25 0  0 25 0  0 25 0  0 25 0  0 25 0  0 25 0  0 25 0  0 25 0  0 25 0  0 20 0  0 25 0  0 25 0  0 25 0  0 25 0  0 25 0  0 21 0  0 21 0  0 21 0  0 21 0  0 25 0  0 25 0  0 25 0  0 25 0  0 25 0  0 25 0  0 25 0  0 25 0  0 25 0  0 25 0  0 21 0  0 21 0  0 25 0  0 25 0  0 25 0  0 25 0  0 25 0  0 25 0  0 25 0  0 25 0  0 25 0  0 25 0  0 25 0  0 25 0  0 25 0  0 25 0  0 25 0  0 25 0  0 25 0  0 25 0  0 25 0  0 25 0  0 25 0  0 25 0  0 25 0
0 25 0  0 25 0  0 20 0  0 20 0  0 20 0  0 25 0  0 25 0  0 25 0  0 25 0  0 20 0  0 25 0  0 25 0  0 25 0  0 25 0  0 20 0  0 20 0  0 20 0  0 25 0  0 25 0  0 25 0  0 21 0  0 21 0  0 21 0  0 25 0  0 25 0  0 25 0  0 25 0  0 20 0  0 25 0  0 25 0  0 25 0  0 25 0  0 25 0  0 25 0  0 25 0  0 25 0  0 21 0  0 21 0  0 25 0  0 25 0  0 25 0  0 25 0  0 25 0  0 25 0  0 25 0  0 25 0  0 25 0  0 25 0  0 25 0  0 25 0  0 25 0  0 25 0  0 25 0  0 25 0  0 25 0  0 20 0  0 25 0  0 25 0  0 25 0  0 25 0
0 20 0  0 25 0  0 20 0  0 25 0  0 20 0  0 25 0  0 25 0  0 25 0  0 20 0  0 25 0  0 25 0  0 25 0  0 25 0  0 25 0  0 20 0  0 20 0  0 20 0  0 25 0  0 21 0  0 21 0  0 21 0  0 21 0  0 25 0  0 25 0  0 20 0  0 25 0  0 20 0  0 25 0  0 25 0  0 25 0  0 25 0  0 25 0  0 25 0  7 5 0  6 5 0  0 25 0  0 21 0  0 21 0  0 21 0  0 25 0  0 25 0  0 25 0  0 25 0  0 25 0  0 25 0  0 25 0  0 25 0  0 25 0  0 25 0  0 25 0  0 25 0  0 25 0  0 25 0  0 25 0  0 25 0  0 25 0  0 25 0  0 25 0  0 25 0  0 25 0
0 25 0  0 25 0  0 25 0  0 25 0  0 20 0  0 25 0  0 20 0  0 25 0  0 25 0  0 25 0  0 20 0  0 25 0  0 25 0  0 20 0  0 20 0  0 20 0  0 25 0  0 21 0  0 21 0  0 21 0  0 20 0  0 25 0  0 25 0  8 5 0  0 25 0  0 25 0  0 25 0  0 25 0  0 25 0  0 25 0  0 25 0  0 25 0  5 5 0  7 5 0  4 5 0  7 5 0  0 25 0  0 21 0  0 21 0  0 21 0  0 25 0  0 25 0  0 25 0  0 25 0  0 25 0  0 25 0  0 25 0  0 25 0  0 25 0  0 25 0  0 25 0  0 25 0  0 25 0  0 25 0  0 25 0  0 25 0  0 20 0  0 25 0  0 20 0  0 25 0
0 25 0  0 25 0  0 25 0  0 25 0  0 25 0  0 25 0  0 25 0  0 20 0  0 25 0  0 25 0  0 25 0  0 25 0  0 20 0  0 20 0  0 25 0  0 21 0  0 21 0  0 21 0  0 21 0  0 25 0  0 20 0  10 5 0  6 5 0  8 5 0  5 5 0  0 25 0  9 5 0  4 5 0  0 25 0  0 20 0  4 5 0  0 25 0  7 5 0  5 5 0  4 5 0  6 5 0  8 5 0  6 5 0  0 21 0  0 21 0  0 21 0  0 25 0  0 25 0  0 25 0  0 25 0  0 25 0  0 25 0  0 25 0  0 25 0  0 25 0  0 25 0  0 25 0  0 25 0  0 25 0  0 25 0  0 25 0  0 20 0  0 25 0  0 25 0  0 25 0
0 25 0  0 25 0  0 20 0  0 25 0  0 25 0  0 25 0  0 25 0  0 20 0  0 25 0  0 20 0  0 25 0  0 25 0  0 20 0  0 21 0  0 21 0  0 21 0  0 21 0  0 25 0  0 25 0  9 5 0  12 5 0  7 5 0  0 25 0  7 5 0  7 5 0  5 5 0  6 5 0  4 5 0  11 5 0  0 25 0  7 5 0  5 5 0  5 5 0  10 5 0  7 5 0  5 5 0  9 5 0  9 5 0  10 5 0  0 21 0  0 21 0  0 21 0  0 25 0  0 25 0  0 25 0  0 25 0  0 25 0  0 25 0  0 25 0  0 20 0  0 25 0  0 25 0  0 25 0  0 25 0  0 25 0  0 25 0  0 25 0  0 25 0  0 25 0  0 25 0
0 25 0  0 25 0  0 25 0  0 20 0  0 25 0  0 25 0  0 25 0  0 20 0  0 25 0  0 20 0  0 25 0  0 25 0  0 21 0  0 21 0  0 21 0  0 21 0  0 25 0  0 25 0  12 5 0  5 5 0  12 5 0  11 5 0  8 5 0  9 5 0  11 5 0  5 5 0  6 5 0  5 5 0  12 5 0  0 25 0  0 25 0  8 5 0  5 5 0  6 5 0  6 5 0  6 5 0  9 5 0  8 5 0  7 5 0  7 5 0  0 21 0  0 21 0  0 25 0  0 25 0  0 25 0  0 25 0  0 25 0  0 25 0  0 25 0  0 20 0  0 25 0  0 25 0  0 25 0  0 25 0  0 25 0  0 25 0  0 20 0  0 25 0  0 25 0  0 25 0
0 25 0  0 25 0  0 25 0  0 20 0  0 25 0  0 20 0  0 25 0  0 25 0  0 20 0  0 25 0  0 21 0  0 21 0  0 21 0  0 21 0  0 25 0  0 25 0  4 5 0  0 25 0  10 5 0  11 5 0  10 5 0  9 5 0  7 5 0  7 5 0  11 5 0  8 5 0  6 5 0  12 5 0  12 5 0  0 25 0  0 25 0  0 25 0  0 25 0  4 5 0  5 5 0  6 5 0  7 5 0  12 5 0  6 5 0  6 5 0  7 5 0  0 21 0  0 21 0  0 25 0  0 25 0  0 25 0  0 25 0  0 25 0  0 25 0  0 25 0  0 25 0  0 25 0  0 25 0  0 25 0  0 25 0  0 20 0  0 20 0  0 25 0  0 20 0  0 20 0
0 25 0  0 20 0  0 25 0  0 25 0  0 25 0  0 20 0  9 5 0  9 5 0  5 5 0  0 21 0  0 21 0  0 21 0  0 25 0  0 25 0  0 25 0  0 25 0  0 25 0  0 25 0  10 5 0  12 5 0  7 5 0  0 25 0  0 25 0  12 5 0  0 25 0  12 5 0  9 5 0  8 5 0  12 5 0  7 5 0  0 25 0  0 25 0  5 5 0  6 5 0  8 5 0  0 25 0  6 5 0  11 5 0  11 5 0  10 5 0  12 5 0  6 5 0  0 21 0  0 21 0  0 25 0  0 25 0  0 25 0  0 20 0  0 25 0  0 25 0  0 25 0  0 25 0  0 25 0  0 25 0  0 25 0  0 25 0  0 25 0  0 20 0  0 20 0  0 20 0
0 25 0  0 25 0  0 25 0  0 25 0  0 25 0  0 20 0  4 5 0  0 21 0  0 21 0  0 21 0  0 21 0  4 5 0  0 25 0  5 5 0  0 25 0  0 25 0  9 5 0  8 5 0  12 5 0  12 5 0  12 5 0  6 5 0  5 5 0  11 5 0  0 25 0  12 5 0  5 5 0  0 25 0  11 5 0  7 5 0  10 5 0  0 25 0  0 25 0  7 5 0  10 5 0  5 5 0  7 5 0  12 5 0  0 25 0  5 5 0  10 5 0  6 5 0  7 5 0  0 21 0  0 21 0  0 25 0  0 25 0  0 25 0  0 25 0  0 25 0  0 25 0  0 25 0  0 25 0  0 25 0  0 20 0  0 25 0  0 20 0  0 20 0  0 25 0  0 20 0
0 25 0  0 20 0  0 25 0  0 25 0  0 25 0  0 20 0  0 21 0  0 21 0  0 21 0  9 5 0  8 5 0  11 5 0  7 5 0  5 5 0  11 5 0  11 5 0  9 5 0  10 5 0  0 25 0  10 5 0  12 5 0  0 25 0  11 5 0  6 5 0  6 5 0  0 25 0  7 5 0  12 5 0  0 25 0  9 5 0  9 5 0  4 5 0  8 5 0  5 5 0  7 5 0  6 5 0  7 5 0  10 5 0  9 5 0  6 5 0  6 5 0  10 5 0  5 5 0  0 21 0  0 21 0  0 21 0  0 25 0  0 25 0  0 25 0  5 5 0  0 20 0  0 25 0  0 25 0  0 20 0  0 20 0  0 25 0  0 25 0  0 20 0  0 25 0  0 20 0
0 25 0  0 25 0  0 25 0  0 25 0  0 20 0  0 21 0  0 21 0  12 5 0  9 5 0  11 5 0  6 5 0  7 5 0  4 5 0  12 5 0  10 5 0  10 5 0  0 25 0  9 5 0  10 5 0  0 25 0  0 25 0  5 5 0  4 5 0  9 5 0  9 5 0  9 5 0  10 5 0  0 25 0  0 25 0  11 5 0  6 5 0  11 5 0  10 5 0  5 5 0  5 5 0  10 5 0  12 5 0  12 5 0  12 5 0  6 5 0  5 5 0  12 5 0  11 5 0  5 5 0  0 21 0  0 21 0  0 25 0  0 25 0  12 5 0  5 5 0  5 5 0  0 25 0  0 25 0  11 5 0  12 5 0  12 5 0  12 5 0  11 5 0  0 20 0  0 25 0
0 25 0  0 25 0  0 25 0  0 25 0  0 21 0  0 21 0  8 5 0  12 5 0  8 5 0  7 5 0  5 5 0  10 5 0  11 5 0  11 5 0  12 5 0  6 5 0  0 25 0  5 5 0  12 5 0  4 5 0  0 25 0  0 25 0  10 5 0  9 5 0  12 5 0  7 5 0  6 5 0  4 5 0  6 5 0  9 5 0  5 5 0  12 5 0  7 5 0  0 25 0  5 5 0  9 5 0  11 5 0  7 5 0  5 5 0  4 5 0  0 25 0  4 5 0  12 5 0  12 5 0  6 5 0  0 21 0  0 21 0  0 25 0  0 25 0  10 5 0  7 5 0  7 5 0  0 25 0  0 25 0  6 5 0  11 5 0  12 5 0  12 5 0  0 25 0  0 25 0
0 25 0  0 20 0  0 20 0  0 21 0  0 21 0  0 21 0  7 5 0  10 5 0  6 5 0  0 25 0  0 25 0  10 5 0  10 5 0  0 25 0  12 5 0  7 5 0  0 25 0  0 25 0  7 5 0  0 25 0  0 25 0  4 5 0  10 5 0  10 5 0  0 25 0  8 5 0  9 5 0  6 5 0  0 25 0  12 5 0  6 5 0  5 5 0  0 25 0  0 25 0  4 5 0  0 25 0  7 5 0  9 5 0  7 5 0  7 5 0  6 5 0  5 5 0  7 5 0  9 5 0  12 5 0  0 21 0  0 21 0  0 20 0  7 5 0  9 5 0  7 5 0  12 5 0  0 25 0  11 5 0  5 5 0  12 5 0  9 5 0  9 5 0  0 20 0  0 20 0
0 20 0  0 20 0  0 20 0  0 21 0  0 21 0  0 25 0  8 5 0  5 5 0  5 5 0  0 25 0  0 25 0  5 5 0  9 5 0  5 5 0  7 5 0  4 5 0  5 5 0  5 5 0  0 25 0  0 25 0  0 25 0  9 5 0  0 25 0  0 25 0  7 5 0  7 5 0  0 20 0  6 5 0  11 5 0  12 5 0  9 5 0  0 25 0  5 5 0  5 5 0  0 25 0  5 5 0  12 5 0  12 5 0  12 5 0  12 5 0  7 5 0  5 5 0  8 5 0  5 5 0  12 5 0  0 21 0  0 21 0  0 25 0  0 25 0  5 5 0  5 5 0  9 5 0  6 5 0  11 5 0  7 5 0  12 5 0  10 5 0  7 5 0  0 25 0  0 25 0
0 20 0  0 20 0  0 20 0  0 21 0  0 21 0  0 25 0  0 25 0  0 20 0  0 25 0  9 5 0  4 5 0  10 5 0  0 25 0  0 25 0  0 21 0  0 21 0  0 21 0  0 21 0  0 21 0  0 21 0  0 25 0  11 5 0  0 20 0  0 20 0  0 25 0  0 20 0  0 25 0  0 25 0  11 5 0  11 5 0  6 5 0  7 5 0  8 5 0  5 5 0  0 25 0  4 5 0  8 5 0  12 5 0  10 5 0  5 5 0  4 5 0  5 5 0  4 5 0  4 5 0  0 25 0  0 21 0  0 21 0  0 21 0  0 21 0  0 21 0  5 5 0  12 5 0  8 5 0  12 5 0  0 25 0  12 5 0  6 5 0  6 5 0  0 25 0  0 25 0
0 20 0  0 20 0  0 25 0  0 21 0  0 21 0  0 25 0  0 25 0  0 25 0  0 25 0  0 25 0  0 25 0  0 25 0  0 21 0  0 21 0  0 21 0  0 21 0  0 21 0  0 21 0  0 21 0  0 21 0  0 21 0  0 21 0  0 21 0  0 21 0  0 25 0  0 20 0  0 25 0  0 25 0  0 25 0  0 25 0  0 25 0  0 21 0  0 21 0  0 21 0  4 5 0  0 25 0  11 5 0  12 5 0  9 5 0  8 5 0  4 5 0  9 5 0  11 5 0  0 21 0  0 21 0  0 21 0  0 21 0  0 21 0  0 21 0  0 21 0  0 21 0  0 21 0  9 5 0  8 5 0  6 5 0  11 5 0  6 5 0  8 5 0  0 25 0  0 25 0
0 25 0  0 25 0  0 25 0  0 21 0  0 21 0  0 20 0  0 25 0  0 25 0  0 25 0  0 25 0  0 25 0  0 21 0  0 21 0  0 21 0  0 25 0  0 25 0  0 20 0  0 20 0  0 20 0  0 21 0  0 21 0  0 21 0  0 21 0  0 21 0  0 21 0  0 21 0  0 21 0  0 25 0  0 25 0  0 25 0  0 21 0  0 21 0  0 21 0  11 5 0  5 5 0  0 25 0  12 5 0  10 5 0  12 5 0  9 5 0  9 5 0  0 21 0  0 21 0  0 21 0  0 21 0  0 21 0  0 21 0  0 25 0  0 25 0  9 5 0  0 21 0  0 21 0  0 21 0  0 21 0  7 5 0  11 5 0  8 5 0  4 5 0  5 5 0  0 25 0
0 25 0  0 20 0  0 20 0  0 21 0  0 21 0  0 21 0  0 25 0  0 25 0  0 25 0  0 25 0  0 21 0  0 21 0  0 25 0  0 25 0  0 25 0  0 25 0  0 20 0  0 25 0  0 25 0  0 25 0  0 25 0  0 25 0  0 20 0  0 21 0  0 21 0  0 21 0  0 21 0  0 21 0  0 21 0  0 21 0  0 21 0  0 21 0  0 25 0  0 25 0  0 25 0  5 5 0  9 5 0  12 5 0  12 5 0  0 21 0  0 21 0  0 21 0  0 21 0  0 21 0  0 25 0  0 25 0  0 25 0  0 25 0  0 25 0  4 5 0  10 5 0  4 5 0  10 5 0  0 21 0  0 21 0  0 21 0  9 5 0  7 5 0  5 5 0  0 25 0
0 25 0  0 25 0  0 25 0  0 25 0  0 21 0  0 21 0  0 25 0  0 25 0  0 25 0  0 21 0  0 21 0  0 25 0  0 25 0  0 25 0  0 25 0  0 25 0  0 25 0  0 25 0  0 25 0  0 25 0  0 25 0  0 25 0  0 20 0  0 20 0  0 25 0  0 25 0  0 21 0  0 21 0  0 21 0  0 21 0  0 21 0  0 21 0  0 21 0  0 21 0  0 21 0  0 21 0  0 21 0  0 21 0  0 21 0  0 21 0  0 21 0  0 25 0  0 25 0  0 25 0  0 25 0  0 25 0  0 25 0  0 25 0  0 25 0  0 25 0  6 5 0  5 5 0  6 5 0  10 5 0  0 21 0  0 21 0  0 21 0  0 21 0  5 5 0  0 25 0
0 25 0  0 25 0  0 20 0  0 25 0  0 21 0  0 21 0  0 21 0  0 25 0  0 21 0  0 21 0  0 21 0  0 25 0  0 25 0  0 25 0  0 25 0  0 25 0  0 25 0  0 25 0  0 25 0  0 25 0  0 25 0  5 5 0  5 5 0  12 5 0  11 5 0  12 5 0  11 5 0  0 21 0  0 21 0  0 21 0  0 21 0  0 21 0  0 21 0  0 21 0  0 21 0  0 21 0  0 21 0  0 21 0  0 21 0  0 25 0  0 25 0  0 25 0  0 25 0  0 25 0  0 25 0  0 25 0  0 25 0  0 20 0  0 20 0  0 20 0  0 20 0  12 5 0  8 5 0  4 5 0  6 5 0  8 5 0  0 21 0  0 25 0  0 25 0  0 25 0
0 20 0  0 25 0  0 25 0  0 25 0  0 20 0  0 21 0  0 21 0  0 25 0  0 21 0  0 21 0  0 25 0  0 25 0  0 25 0  0 25 0  0 25 0  0 25 0  0 25 0  0 25 0  0 25 0  0 25 0  0 25 0  6 5 0  6 5 0  9 5 0  12 5 0  12 5 0  0 21 0  0 21 0  7 5 0  0 25 0  0 20 0  0 25 0  0 25 0  0 25 0  0 20 0  0 25 0  0 25 0  0 20 0  0 20 0  0 25 0  0 25 0  0 20 0  0 25 0  0 25 0  0 25 0  0 25 0  0 25 0  0 25 0  0 25 0  0 20 0  0 20 0  12 5 0  8 5 0  12 5 0  0 25 0  0 25 0  0 25 0  0 25 0  0 25 0  0 25 0
0 25 0  0 25 0  0 20 0  0 20 0  0 25 0  0 21 0  0 21 0  0 21 0  0 21 0  0 21 0  0 21 0  0 25 0  0 25 0  0 25 0  0 25 0  0 25 0  0 25 0  0 25 0  0 25 0  0 25 0  0 25 0  6 5 0  4 5 0  8 5 0  10 5 0  0 21 0  0 21 0  8 5 0  5 5 0  0 25 0  0 25 0  0 25 0  0 25 0  0 25 0  0 25 0  0 20 0  0 20 0  0 25 0  0 20 0  0 20 0  0 25 0  0 25 0  0 25 0  0 25 0  0 25 0  0 20 0  0 25 0  0 25 0  0 25 0  0 20 0  0 20 0  0 20 0  0 20 0  0 20 0  0 25 0  0 25 0  0 25 0  0 25 0  0 25 0  0 25 0
0 25 0  0 20 0  0 20 0  0 20 0  0 20 0  0 25 0  0 21 0  0 21 0  0 25 0  0 21 0  0 21 0  0 25 0  0 25 0  0 25 0  0 25 0  0 25 0  0 25 0  0 25 0  0 25 0  0 25 0  5 5 0  5 5 0  9 5 0  11 5 0  0 21 0  0 21 0  12 5 0  12 5 0  5 5 0  0 25 0  0 25 0  0 25 0  0 25 0  0 25 0  0 20 0  0 20 0  0 20 0  0 25 0  0 20 0  0 20 0  0 25 0  0 25 0  0 25 0  0 25 0  0 25 0  0 25 0  0 25 0  0 25 0  0 25 0  0 25 0  0 25 0  0 25 0  0 20 0  0 25 0  0 20 0  0 25 0  0 25 0  0 25 0  0 25 0  0 20 0
0 25 0  0 20 0  0 20 0  0 20 0  0 20 0  0 20 0  0 21 0  0 21 0  0 25 0  0 21 0  0 21 0  0 20 0  0 25 0  0 25 0  0 25 0  0 25 0  0 25 0  0 25 0  0 20 0  0 25 0  5 5 0  7 5 0  12 5 0  0 21 0  0 21 0  12 5 0  10 5 0  12 5 0  9 5 0  0 25 0  4 5 0  0 25 0  0 25 0  0 25 0  0 20 0  0 25 0  0 25 0  0 20 0  0 25 0  0 25 0  0 25 0  0 25 0  0 25 0  0 25 0  0 25 0  0 20 0  0 25 0  0 25 0  0 25 0  0 25 0  0 25 0  0 20 0  0 20 0  0 20 0  0 25 0  0 25 0  0 25 0  0 25 0  0 20 0  0 20 0
0 20 0  0 20 0  0 20 0  0 20 0  0 25 0  0 25 0  0 21 0  0 21 0  0 25 0  0 25 0  0 21 0  0 21 0  0 25 0  0 25 0  0 25 0  0 25 0  0 25 0  0 25 0  0 20 0  0 25 0  8 5 0  8 5 0  0 21 0  0 21 0  0 21 0  8 5 0  6 5 0  11 5 0  12 5 0  0 25 0  0 25 0  0 25 0  0 25 0  0 25 0  0 20 0  0 20 0  0 25 0  0 25 0  0 25 0  0 20 0  0 25 0  0 25 0  0 25 0  0 25 0  0 25 0  0 25 0  0 25 0  0 20 0  0 25 0  0 25 0  0 25 0  0 20 0  0 25 0  0 20 0  0 25 0  0 20 0  0 20 0  0 20 0  0 25 0  0 20 0
0 25 0  0 20 0  0 20 0  0 20 0  0 25 0  0 21 0  0 21 0  0 25 0  0 25 0  0 25 0  0 21 0  0 21 0  0 25 0  0 25 0  0 25 0  0 25 0  0 25 0  0 25 0  0 25 0  0 25 0  7 5 0  0 21 0  0 21 0  0 21 0  6 5 0  8 5 0  11 5 0  8 5 0  7 5 0  10 5 0  12 5 0  0 25 0  0 25 0  0 20 0  0 20 0  0 25 0  0 25 0  0 25 0  0 25 0  0 20 0  0 25 0  0 25 0  0 25 0  0 25 0  0 25 0  0 25 0  0 25 0  0 25 0  0 25 0  0 25 0  0 25 0  0 25 0  0 25 0  0 25 0  0 25 0  0 20 0  0 20 0  0 20 0  0 25 0  0 20 0
0 25 0  0 20 0  0 20 0  0 25 0  0 25 0  0 21 0  0 21 0  0 25 0  0 25 0  0 25 0  0 21 0  0 21 0  0 25 0  0 25 0  0 25 0  0 25 0  0 25 0  0 25 0  0 25 0  7 5 0  7 5 0  0 21 0  0 21 0  8 5 0  11 5 0  9 5 0  6 5 0  6 5 0  8 5 0  12 5 0  12 5 0  10 5 0  0 25 0  0 20 0  0 25 0  0 25 0  0 25 0  0 25 0  0 25 0  0 25 0  0 25 0  0 25 0  0 25 0  0 25 0  0 25 0  0 25 0  0 20 0  0 25 0  0 25 0  0 25 0  0 25 0  0 25 0  0 25 0  0 25 0  0 25 0  0 25 0  0 20 0  0 20 0  0 20 0  0 20 0
0 25 0  0 25 0  0 20 0  0 20 0  0 20 0  0 21 0  0 21 0  0 25 0  0 25 0  0 25 0  0 21 0  0 21 0  0 21 0  0 25 0  0 25 0  0 25 0  0 25 0  0 25 0  0 20 0  0 21 0  0 21 0  0 21 0  0 25 0  4 5 0  8 5 0  12 5 0  12 5 0  12 5 0  11 5 0  12 5 0  0 20 0  0 20 0  0 25 0  0 25 0  0 25 0  0 20 0  0 25 0  0 25 0  0 25 0  0 25 0  0 25 0  0 25 0  0 25 0  0 25 0  0 25 0  0 25 0  0 25 0  0 25 0  0 25 0  0 25 0  0 25 0  0 25 0  0 25 0  0 25 0  0 25 0  0 25 0  0 20 0  0 20 0  0 20 0  0 20 0
0 20 0  0 20 0  0 20 0  0 20 0  0 20 0  0 21 0  0 21 0  0 25 0  0 25 0  0 25 0  0 25 0  0 21 0  0 21 0  0 25 0  0 25 0  0 25 0  0 20 0  0 25 0  0 25 0  0 21 0  0 21 0  5 5 0  0 25 0  0 25 0  7 5 0  6 5 0  12 5 0  12 5 0  0 20 0  0 20 0  0 20 0  0 20 0  0 20 0  0 20 0  0 25 0  0 25 0  0 20 0  0 20 0  0 25 0  0 25 0  0 25 0  0 25 0  0 25 0  0 25 0  0 25 0  0 20 0  0 25 0  0 25 0  0 25 0  0 25 0  0 25 0  0 25 0  0 25 0  0 25 0  0 25 0  0 25 0  0 25 0  0 25 0  0 25 0  0 25 0
