P3
21 14
255
12 7 0  12 7 0  12 7 0  12 7 0  12 7 0  12 7 0  11 7 0  11 7 0  11 7 0  11 7 0  12 7 0  12 7 0  12 7 0  12 7 0  12 7 0  11 7 0  11 7 0  11 7 0  11 7 0  11 7 0  11 7 0
12 7 0  12 7 0  12 7 0  12 7 0  12 7 0  12 7 0  12 7 0  12 7 0  12 7 0  12 7 0  12 7 0  12 7 0  12 7 0  12 7 0  12 7 0  12 7 0  12 7 0  12 7 0  12 7 0  12 7 0  12 7 0
12 7 0  12 7 0  12 7 0  12 7 0  12 7 0  12 7 0  12 7 0  12 7 0  12 7 0  12 7 0  12 7 0  12 7 0  12 7 0  12 7 0  12 7 0  12 7 0  12 7 0  12 7 0  12 7 0  12 7 0  12 7 0
12 7 0  12 7 0  12 7 0  12 7 0  12 7 0  12 7 0  12 7 0  12 7 0  12 7 0  12 7 0  12 7 0  12 7 0  12 7 0  12 7 0  12 7 0  12 7 0  12 7 0  12 7 0  12 7 0  12 7 0  12 7 0
11 7 0  11 7 0  11 7 0  11 7 0  11 7 0  11 7 0  11 7 0  11 7 0  11 7 0  11 7 0  11 7 0  11 7 0  11 7 0  11 7 0  11 7 0  11 7 0  10 7 0  11 7 0  11 7 0  11 7 0  11 7 0
11 7 0  11 7 0  11 7 0  11 7 0  11 7 0  11 7 0  11 7 0  11 7 0  11 7 0  11 7 0  11 7 0  11 7 0  11 7 0  11 7 0  11 7 0  11 7 0  11 7 0  11 7 0  11 7 0  11 7 0  11 7 0
10 7 0  10 7 0  10 7 0  10 7 0  10 7 0  10 7 0  10 7 0  10 7 0  10 7 0  10 7 0  10 7 0  10 7 0  10 7 0  10 7 0  10 7 0  10 7 0  10 7 0  10 7 0  10 7 0  10 7 0  10 7 0
10 7 0  10 7 0  8 7 0  9 7 0  10 7 0  10 7 0  10 7 0  10 7 0  10 7 0  9 7 0  10 7 0  10 7 0  10 7 0  10 7 0  10 7 0  10 7 0  10 7 0  10 7 0  10 7 0  10 7 0  10 7 0
11 7 0  11 7 0  11 7 0  9 4 0  9 4 0  9 4 0  9 4 0  11 4 0  11 4 0  11 7 0  9 4 0  9 4 0  9 4 0  9 4 0  9 4 0  9 7 0  9 4 0  8 4 0  9 4 0  9 4 0  9 4 0
9 4 0  9 4 0  9 4 0  7 4 0  9 4 0  9 4 0  7 4 0  9 4 0  9 4 0  9 4 0  7 4 0  7 4 0  6 4 0  7 4 0  7 4 0  9 4 0  9 4 0  9 4 0  6 4 0  7 4 0  7 4 0
5 4 0  5 4 0  5 4 0  5 4 0  7 4 0  7 4 0  5 4 0  5 4 0  5 4 0  5 4 0  5 4 0  7 4 0  7 4 0  7 4 0  5 4 0  7 7 0  7 4 0  6 4 0  5 4 0  7 4 0  7 4 0
3 4 0  3 4 0  3 4 0  3 4 0  3 4 0  3 4 0  3 4 0  3 4 0  3 4 0  3 4 0  3 4 0  5 4 0  5 4 0  5 4 0  3 4 0  3 4 0  3 4 0  2 4 0  3 4 0  5 4 0  5 4 0
1 4 0  1 4 0  1 4 0  1 4 0  1 4 0  1 4 0  1 4 0  0 30 0  0 30 0  2 4 0  0 30 0  0 30 0  0 30 0  0 30 0  0 30 0  0 30 0  0 30 0  0 30 0  0 30 0  0 30 0  0 30 0
0 30 0  0 30 0  0 30 0  0 30 0  0 30 0  0 30 0  0 30 0  0 30 0  0 30 0  0 30 0  0 30 0  0 30 0  0 30 0  0 30 0  0 30 0  0 30 0  0 30 0  0 30 0  0 30 0  0 30 0  0 30 0
