P3
12 11
32
6 12 0  5 12 0  4 12 0  4 12 0  6 12 0  4 12 0  4 12 0  8 12 0  2 12 0  2 12 0  2 12 0  2 12 0
6 12 0  8 12 0  4 12 0  4 12 0  8 12 0  4 12 0  4 12 0  8 12 0  8 12 0  8 12 0  8 12 0  2 12 0
4 12 0  4 12 0  4 12 0  4 12 0  8 12 0  4 12 0  4 12 0  4 12 0  4 12 0  4 12 0  9 12 0  3 12 0
4 12 0  4 12 0  4 12 0  4 12 0  8 12 0  4 12 0  4 12 0  4 12 0  4 12 0  4 12 0  9 12 0  4 12 0
4 12 0  8 12 0  4 12 0  4 12 0  8 12 0  9 12 0  9 12 0  8 12 0  4 12 0  4 12 0  8 12 0  4 12 0
4 12 0  9 12 0  4 12 0  4 12 0  9 12 0  4 12 0  4 12 0  4 12 0  4 12 0  4 12 0  4 12 0  4 12 0
4 12 0  9 12 0  4 12 0  4 12 0  9 12 0  4 12 0  4 12 0  4 12 0  4 12 0  4 12 0  4 12 0  4 12 0
4 12 0  8 12 0  9 12 0  9 12 0  8 12 0  9 12 0  9 12 0  8 12 0  8 12 0  8 12 0  6 12 0  5 12 0
4 12 0  4 12 0  4 12 0  4 12 0  8 12 0  4 12 0  4 12 0  4 12 0  4 12 0  4 12 0  4 12 0  4 12 0
4 12 0  4 12 0  4 12 0  4 12 0  8 12 0  4 12 0  4 12 0  4 12 0  4 12 0  4 12 0  6 12 0  5 12 0
5 12 0  7 12 0  9 12 0  9 12 0  8 12 0  6 12 0  6 12 0  8 12 0  9 12 0  9 12 0  8 12 0  6 12 0
