P3
10 18
44
1 25 0  1 25 0  0 25 0  1 4 0  1 25 0  1 25 0  0 25 0  0 25 0  1 4 0  1 4 0
1 4 0  1 25 0  0 25 0  0 25 0  1 4 0  1 25 0  3 44 0  0 25 0  1 25 0  1 4 0
1 4 0  1 4 0  2 25 0  2 25 0  2 25 0  0 25 0  0 25 0  1 25 0  1 25 0  1 4 0
2 25 0  1 4 0  2 25 0  2 25 0  2 25 0  2 25 0  1 4 0  1 4 0  1 4 0  1 4 0
2 4 0  2 4 0  2 4 0  3 25 0  3 25 0  2 4 0  2 25 0  2 25 0  2 4 0  2 4 0
3 4 0  2 4 0  3 25 0  3 25 0  3 4 0  3 4 0  3 25 0  3 25 0  3 25 0  1 25 0
0 25 0  0 25 0  0 25 0  4 4 0  4 4 0  3 4 0  3 4 0  3 4 0  3 25 0  1 25 0
0 25 0  0 25 0  0 25 0  0 25 0  1 25 0  1 25 0  1 25 0  1 25 0  0 25 0  0 25 0
1 25 0  1 25 0  0 25 0  1 25 0  1 25 0  0 25 0  0 25 0  0 25 0  1 25 0  1 25 0
3 4 0  3 4 0  4 4 0  4 4 0  1 25 0  1 25 0  0 25 0  4 4 0  4 4 0  3 4 0
3 25 0  3 25 0  3 25 0  4 4 0  3 4 0  3 4 0  3 4 0  4 4 0  4 4 0  3 4 0
2 4 0  2 4 0  3 25 0  3 25 0  3 25 0  3 4 0  3 4 0  3 25 0  3 25 0  3 25 0
2 4 0  2 4 0  1 25 0  1 4 0  2 25 0  5 44 0  2 4 0  3 25 0  3 25 0  1 25 0
1 25 0  1 4 0  1 4 0  1 4 0  2 25 0  2 25 0  2 25 0  1 4 0  1 4 0  1 25 0
1 25 0  1 25 0  0 25 0  1 4 0  1 4 0  1 4 0  4 44 0  1 25 0  1 25 0  1 25 0
1 25 0  1 25 0  1 25 0  0 25 0  3 44 0  1 25 0  1 25 0  1 25 0  1 25 0  1 25 0
1 25 0  1 25 0  1 25 0  1 25 0  1 25 0  0 25 0  0 4 0  1 25 0  1 25 0  0 25 0
1 25 0  1 25 0  1 25 0  1 25 0  1 25 0  0 4 0  0 4 0  1 25 0  1 4 0  1 4 0
