P3
10 12
33
1 25 0  1 25 0  2 33 0  3 12 0  1 25 0  1 25 0  1 25 0  1 25 0  2 25 0  2 25 0
1 12 0  2 12 0  3 12 0  3 12 0  1 25 0  1 25 0  1 25 0  1 25 0  2 25 0  2 25 0
1 25 0  1 25 0  2 12 0  1 25 0  1 25 0  2 12 0  1 25 0  1 25 0  1 25 0  1 12 0
1 25 0  1 25 0  2 12 0  1 25 0  1 25 0  2 12 0  1 25 0  1 25 0  1 25 0  1 25 0
1 25 0  2 12 0  2 12 0  2 12 0  2 12 0  2 12 0  1 25 0  1 25 0  1 25 0  4 12 0
1 25 0  1 25 0  1 25 0  1 25 0  1 25 0  3 12 0  1 25 0  5 12 0  10 12 0  4 12 0
1 25 0  1 25 0  1 25 0  1 25 0  6 12 0  5 12 0  7 12 0  8 12 0  9 12 0  4 12 0
1 25 0  1 25 0  1 25 0  1 25 0  7 12 0  4 12 0  4 12 0  3 25 0  3 25 0  3 25 0
4 12 0  4 12 0  2 12 0  6 12 0  8 33 0  7 12 0  4 12 0  3 25 0  3 25 0  3 25 0
5 12 0  4 33 0  3 12 0  5 12 0  8 33 0  8 12 0  4 12 0  4 25 0  3 25 0  4 12 0
2 25 0  4 33 0  3 12 0  5 12 0  7 33 0  7 33 0  7 33 0  6 12 0  5 33 0  5 33 0
2 25 0  3 25 0  3 25 0  4 12 0  4 12 0  4 12 0  5 12 0  5 12 0  5 12 0  4 33 0
