P3
32 32
255
1 11 0  0 14 0  0 14 0  1 11 0  1 11 0  1 11 0  1 11 0  1 11 0  1 11 0  1 11 0  1 11 0  2 0 0  1 11 0  1 11 0  1 11 0  1 11 0  1 11 0  1 11 0  1 11 0  1 11 0  1 11 0  0 14 0  1 11 0  1 11 0  1 11 0  1 11 0  1 11 0  1 11 0  0 14 0  0 11 0  0 11 0  0 11 0
1 11 0  0 14 0  0 14 0  1 11 0  1 11 0  1 11 0  1 11 0  1 11 0  1 11 0  1 11 0  1 11 0  1 11 0  2 4 0  1 11 0  2 4 0  1 11 0  1 11 0  1 11 0  1 11 0  1 11 0  1 11 0  0 14 0  0 14 0  1 11 0  1 11 0  1 11 0  1 11 0  1 11 0  0 14 0  1 11 0  0 11 0  0 11 0
1 11 0  0 14 0  0 14 0  1 11 0  1 11 0  1 11 0  1 11 0  1 11 0  1 11 0  1 11 0  1 11 0  1 11 0  1 11 0  1 11 0  1 11 0  1 11 0  1 11 0  1 11 0  2 4 0  2 4 0  2 4 0  1 11 0  0 14 0  1 11 0  1 11 0  1 11 0  1 11 0  1 11 0  0 14 0  0 14 0  0 11 0  0 11 0
1 11 0  0 14 0  0 14 0  1 11 0  1 11 0  1 11 0  1 11 0  1 11 0  1 11 0  3 4 0  3 4 0  3 4 0  3 4 0  3 4 0  3 4 0  3 4 0  1 11 0  1 11 0  1 11 0  1 11 0  1 11 0  1 11 0  0 14 0  2 4 0  2 4 0  2 4 0  2 4 0  2 4 0  2 4 0  0 14 0  0 11 0  0 11 0
1 11 0  0 14 0  0 14 0  1 11 0  1 11 0  2 0 0  1 11 0  1 11 0  1 11 0  1 11 0  1 11 0  1 11 0  3 4 0  1 11 0  1 11 0  1 11 0  1 11 0  1 11 0  1 11 0  1 11 0  1 11 0  1 11 0  0 14 0  0 14 0  1 11 0  1 11 0  1 11 0  1 11 0  1 11 0  0 14 0  0 11 0  0 11 0
1 11 0  1 11 0  0 14 0  0 14 0  1 11 0  1 11 0  1 11 0  1 11 0  8 18 0  8 18 0  8 18 0  1 8 0  3 4 0  3 4 0  1 11 0  2 0 0  2 0 0  1 11 0  1 11 0  1 11 0  1 11 0  1 11 0  0 14 0  0 14 0  1 4 0  1 4 0  1 4 0  1 11 0  0 14 0  0 14 0  1 11 0  1 11 0
1 11 0  1 11 0  1 11 0  0 14 0  1 11 0  1 11 0  1 11 0  1 18 0  8 18 0  8 18 0  8 18 0  1 8 0  1 8 0  3 4 0  1 11 0  4 17 0  4 17 0  4 17 0  4 17 0  1 11 0  1 11 0  1 11 0  1 11 0  0 14 0  1 4 0  2 4 0  1 4 0  1 11 0  0 14 0  1 11 0  1 11 0  1 11 0
1 11 0  1 11 0  1 11 0  0 14 0  2 4 0  2 4 0  1 11 0  8 18 0  11 18 0  11 18 0  8 18 0  1 8 0  1 8 0  3 4 0  1 11 0  1 4 0  3 4 0  1 4 0  4 17 0  1 11 0  1 11 0  1 11 0  1 11 0  0 14 0  1 4 0  1 4 0  1 4 0  1 11 0  2 0 0  0 14 0  2 0 0  1 11 0
1 11 0  1 11 0  1 11 0  0 14 0  0 14 0  1 11 0  1 11 0  8 18 0  11 18 0  11 18 0  8 18 0  1 8 0  1 8 0  3 4 0  1 11 0  1 4 0  1 4 0  1 4 0  4 17 0  1 11 0  1 11 0  1 11 0  1 11 0  0 14 0  1 11 0  1 11 0  1 11 0  1 11 0  0 14 0  0 14 0  1 11 0  1 11 0
1 11 0  1 11 0  1 11 0  1 11 0  0 14 0  1 11 0  1 11 0  1 11 0  8 18 0  8 18 0  8 18 0  1 8 0  1 8 0  3 4 0  1 11 0  1 11 0  1 11 0  1 11 0  1 11 0  1 11 0  1 11 0  1 11 0  1 11 0  0 14 0  0 14 0  1 11 0  1 11 0  1 11 0  0 14 0  1 11 0  1 11 0  1 11 0
1 11 0  1 11 0  1 11 0  1 11 0  0 14 0  1 11 0  1 11 0  1 11 0  1 9 0  6 18 0  1 11 0  1 11 0  1 11 0  3 4 0  1 11 0  1 11 0  1 11 0  1 11 0  1 11 0  1 11 0  1 11 0  1 11 0  1 11 0  0 14 0  1 11 0  1 11 0  1 11 0  1 11 0  0 14 0  1 11 0  1 11 0  1 11 0
1 11 0  1 11 0  1 11 0  0 14 0  1 11 0  1 11 0  1 11 0  1 11 0  1 9 0  1 11 0  1 11 0  2 0 0  3 4 0  1 11 0  1 11 0  1 11 0  1 11 0  1 11 0  1 11 0  3 0 0  1 11 0  1 11 0  1 11 0  0 14 0  1 11 0  1 11 0  1 11 0  2 0 0  0 14 0  0 14 0  1 11 0  1 11 0
1 11 0  1 11 0  2 11 0  0 14 0  1 11 0  3 4 0  3 4 0  3 4 0  3 4 0  1 11 0  3 4 0  3 4 0  1 11 0  1 11 0  1 11 0  1 11 0  1 11 0  1 11 0  1 11 0  1 11 0  1 11 0  1 11 0  1 11 0  1 11 0  0 14 0  1 11 0  1 11 0  2 0 0  1 11 0  0 14 0  1 11 0  1 11 0
1 11 0  1 11 0  3 4 0  1 11 0  0 14 0  1 11 0  1 11 0  1 11 0  1 9 0  1 11 0  2 0 0  1 11 0  1 11 0  1 11 0  1 11 0  1 11 0  1 11 0  1 11 0  1 11 0  1 9 0  1 11 0  1 11 0  1 11 0  1 11 0  0 14 0  1 11 0  1 11 0  1 11 0  1 11 0  0 14 0  1 11 0  1 11 0
1 11 0  1 11 0  3 4 0  1 11 0  0 14 0  1 11 0  1 11 0  1 11 0  1 9 0  1 9 0  1 9 0  1 9 0  1 9 0  1 9 0  1 9 0  6 16 0  6 16 0  6 16 0  6 4 0  1 9 0  1 11 0  1 11 0  1 11 0  1 11 0  0 14 0  1 11 0  1 11 0  1 11 0  0 14 0  0 14 0  1 11 0  1 11 0
1 11 0  3 4 0  3 4 0  1 11 0  1 11 0  0 14 0  1 11 0  1 11 0  1 11 0  1 9 0  1 11 0  1 11 0  1 11 0  1 11 0  1 9 0  1 11 0  6 16 0  6 16 0  6 16 0  1 9 0  1 11 0  1 11 0  1 11 0  1 11 0  1 11 0  0 14 0  1 11 0  2 0 0  0 14 0  1 11 0  1 11 0  1 11 0
1 11 0  3 4 0  1 11 0  1 11 0  1 11 0  2 0 0  0 14 0  1 11 0  1 11 0  6 16 0  6 16 0  5 4 0  1 11 0  1 11 0  1 9 0  1 9 0  1 9 0  1 9 0  1 9 0  1 9 0  1 9 0  1 11 0  1 11 0  1 11 0  1 11 0  0 14 0  1 11 0  2 0 0  0 14 0  1 11 0  1 11 0  1 11 0
1 11 0  3 4 0  1 11 0  1 11 0  1 11 0  1 11 0  0 14 0  1 11 0  1 11 0  6 16 0  6 16 0  1 11 0  1 11 0  1 11 0  1 11 0  1 11 0  1 11 0  1 11 0  1 11 0  1 11 0  1 9 0  1 11 0  1 11 0  1 11 0  1 11 0  0 14 0  0 14 0  0 14 0  0 14 0  1 11 0  1 9 0  1 9 0
1 11 0  3 4 0  1 11 0  1 11 0  1 11 0  1 11 0  2 0 0  0 14 0  1 11 0  1 11 0  1 9 0  1 11 0  1 11 0  1 11 0  1 11 0  1 11 0  6 4 0  1 11 0  1 11 0  1 11 0  1 9 0  1 11 0  1 11 0  1 11 0  1 11 0  2 0 0  0 14 0  0 14 0  1 11 0  1 9 0  1 9 0  1 11 0
1 11 0  3 4 0  1 11 0  1 11 0  1 11 0  1 11 0  1 11 0  0 14 0  1 11 0  1 11 0  1 9 0  1 11 0  1 11 0  1 11 0  1 11 0  1 11 0  6 16 0  6 16 0  6 16 0  1 11 0  1 11 0  6 16 0  6 16 0  6 16 0  6 16 0  1 11 0  0 14 0  0 14 0  1 9 0  1 9 0  1 11 0  1 11 0
1 11 0  1 11 0  3 4 0  1 11 0  1 11 0  1 11 0  1 11 0  1 11 0  0 14 0  1 11 0  1 9 0  1 11 0  1 11 0  1 9 0  1 9 0  1 9 0  6 16 0  6 16 0  6 16 0  1 11 0  6 16 0  6 16 0  6 16 0  6 16 0  6 16 0  2 0 0  2 0 0  0 14 0  1 11 0  1 11 0  1 11 0  1 11 0
1 11 0  1 11 0  3 4 0  1 11 0  1 11 0  1 11 0  1 11 0  1 11 0  0 14 0  1 11 0  1 11 0  1 11 0  1 11 0  6 4 0  6 16 0  1 11 0  1 9 0  1 9 0  1 9 0  1 9 0  1 9 0  6 16 0  1 9 0  1 9 0  1 11 0  1 11 0  1 11 0  0 14 0  1 11 0  1 11 0  1 11 0  1 11 0
1 11 0  1 11 0  1 11 0  3 4 0  1 11 0  1 11 0  1 11 0  2 0 0  0 14 0  0 14 0  2 0 0  1 11 0  1 11 0  6 16 0  6 16 0  1 11 0  1 9 0  1 11 0  1 9 0  1 9 0  1 9 0  1 9 0  1 11 0  6 16 0  6 16 0  6 16 0  1 11 0  0 14 0  1 11 0  1 11 0  1 11 0  1 11 0
1 11 0  1 11 0  1 11 0  1 11 0  3 4 0  1 11 0  1 11 0  2 0 0  2 0 0  0 14 0  2 0 0  1 11 0  1 11 0  6 16 0  6 16 0  1 9 0  1 11 0  1 9 0  1 9 0  1 9 0  3 4 0  1 9 0  1 9 0  1 11 0  6 16 0  6 16 0  1 11 0  1 11 0  0 14 0  1 11 0  1 11 0  1 11 0
1 11 0  1 11 0  1 11 0  1 11 0  1 11 0  3 4 0  1 11 0  1 11 0  1 11 0  0 14 0  2 0 0  2 0 0  1 11 0  1 11 0  1 11 0  1 11 0  1 11 0  6 16 0  1 9 0  1 9 0  1 9 0  1 9 0  1 9 0  1 11 0  6 16 0  1 9 0  1 11 0  1 11 0  0 14 0  1 11 0  1 11 0  1 11 0
1 11 0  1 11 0  1 11 0  1 11 0  1 11 0  1 11 0  3 4 0  1 11 0  1 11 0  1 11 0  0 14 0  2 0 0  1 11 0  1 11 0  1 11 0  1 11 0  6 16 0  6 16 0  6 16 0  1 9 0  1 9 0  1 9 0  1 9 0  1 9 0  1 11 0  1 9 0  1 11 0  1 11 0  0 14 0  1 11 0  1 11 0  1 11 0
1 11 0  1 11 0  1 11 0  1 11 0  1 11 0  1 11 0  1 11 0  3 4 0  1 11 0  1 11 0  0 14 0  1 11 0  1 11 0  1 11 0  1 11 0  1 11 0  1 11 0  6 16 0  6 16 0  1 9 0  1 11 0  1 11 0  1 11 0  6 16 0  6 16 0  1 11 0  1 11 0  1 11 0  0 14 0  1 11 0  1 11 0  1 11 0
1 11 0  1 11 0  1 11 0  1 11 0  1 11 0  1 11 0  1 11 0  1 11 0  3 4 0  1 11 0  1 11 0  0 14 0  1 11 0  1 11 0  1 11 0  1 11 0  1 11 0  1 11 0  1 11 0  1 11 0  1 11 0  2 0 0  1 11 0  6 16 0  6 16 0  1 11 0  1 11 0  0 14 0  0 14 0  1 11 0  1 11 0  1 11 0
1 11 0  1 11 0  1 11 0  1 11 0  1 11 0  1 11 0  1 11 0  1 11 0  1 11 0  3 4 0  3 4 0  0 14 0  3 4 0  3 4 0  1 11 0  1 11 0  1 11 0  1 11 0  1 11 0  1 11 0  1 11 0  1 11 0  1 11 0  1 11 0  1 11 0  1 11 0  1 11 0  1 14 0  1 11 0  1 11 0  1 11 0  1 11 0
1 11 0  1 11 0  1 11 0  1 11 0  1 11 0  1 11 0  1 11 0  1 11 0  1 11 0  1 11 0  1 11 0  0 14 0  2 0 0  3 4 0  3 4 0  1 11 0  1 11 0  1 11 0  1 11 0  1 11 0  1 11 0  1 11 0  1 11 0  1 11 0  1 11 0  1 11 0  1 11 0  0 14 0  2 11 0  2 11 0  1 11 0  1 11 0
1 11 0  1 11 0  1 11 0  1 11 0  1 11 0  1 11 0  1 11 0  1 11 0  1 11 0  1 11 0  1 11 0  0 14 0  1 11 0  1 11 0  3 4 0  3 4 0  3 4 0  3 4 0  3 4 0  3 4 0  3 4 0  3 4 0  3 4 0  3 4 0  3 4 0  3 4 0  3 4 0  0 14 0  2 4 0  2 4 0  1 11 0  1 11 0
1 11 0  1 11 0  1 11 0  1 11 0  1 11 0  1 11 0  1 11 0  1 11 0  1 11 0  1 11 0  1 11 0  1 11 0  0 14 0  1 11 0  1 11 0  1 11 0  1 11 0  1 11 0  1 11 0  1 11 0  1 11 0  1 11 0  1 11 0  1 11 0  1 11 0  1 11 0  1 11 0  0 14 0  1 11 0  1 11 0  1 11 0  1 11 0
