P3
# R: nearest whole height (h); G: tile_palette.txt; B: 0
# One pixel per tile. Highest stored surface; half heights round up.
# Source: https://fftcompanion.app/maps/location/siedgeWeald
# Original FFHacktics page could not be inspected.
11 12
32
4 11 0	3 11 0	3 11 0	2 11 0	1 22 0	2 8 0	2 11 0	4 11 0	3 11 0	3 11 0	3 11 0
4 11 0	18 18 0	3 11 0	2 11 0	2 11 0	17 18 0	2 11 0	2 11 0	3 11 0	3 11 0	4 11 0
3 11 0	3 11 0	3 11 0	2 11 0	2 11 0	2 11 0	2 11 0	3 11 0	3 11 0	18 18 0	4 11 0
2 11 0	3 8 0	3 8 0	3 11 0	3 11 0	2 11 0	1 22 0	3 11 0	3 11 0	3 11 0	4 11 0
2 11 0	3 11 0	3 8 0	3 11 0	3 11 0	2 23 0	2 23 0	2 23 0	3 11 0	3 11 0	3 11 0
2 11 0	3 11 0	3 11 0	3 11 0	3 11 0	1 22 0	1 22 0	1 22 0	3 11 0	3 11 0	1 22 0
2 11 0	2 11 0	3 11 0	3 11 0	3 11 0	1 22 0	2 11 0	1 22 0	1 22 0	1 22 0	2 11 0
1 22 0	1 22 0	1 22 0	1 22 0	1 22 0	1 22 0	1 22 0	1 22 0	1 22 0	3 11 0	3 11 0
3 11 0	2 11 0	1 22 0	1 22 0	2 0 0	1 22 0	1 22 0	1 22 0	5 11 0	5 11 0	5 11 0
4 11 0	4 11 0	17 18 0	1 22 0	1 22 0	1 22 0	2 11 0	2 11 0	5 11 0	5 11 0	5 11 0
5 11 0	4 11 0	3 11 0	2 23 0	2 23 0	2 23 0	2 23 0	3 11 0	5 11 0	20 18 0	5 11 0
5 11 0	4 11 0	2 11 0	2 11 0	1 22 0	2 11 0	3 11 0	4 11 0	5 11 0	5 11 0	5 8 0
