P3
12 12
61
8 23 0  8 23 0  7 23 0  7 23 0  6 30 0  8 23 0  11 23 0  8 23 0  6 30 0  6 30 0  11 23 0  12 23 0
9 23 0  9 23 0  7 23 0  7 23 0  6 30 0  10 23 0  11 23 0  9 23 0  6 30 0  6 30 0  10 23 0  12 23 0
11 23 38  10 23 0  9 23 0  5 30 0  6 30 0  9 23 0  11 23 0  7 23 0  6 30 0  7 23 0  10 23 0  11 23 0
11 12 0  11 23 0  10 12 0  5 30 0  5 30 0  9 23 0  10 23 0  4 30 0  4 30 0  7 23 0  8 23 0  9 23 0
11 12 0  11 23 0  8 23 0  5 30 0  5 30 0  4 30 0  8 23 0  4 30 0  4 30 0  6 23 0  8 23 0  8 23 0
12 12 0  11 23 0  9 23 0  8 12 0  4 30 0  4 30 0  4 30 0  4 30 0  4 30 0  4 30 0  6 23 0  7 23 0
9 23 0  9 23 0  8 23 0  8 12 0  8 12 0  4 30 0  4 30 0  4 30 0  4 30 0  4 30 0  7 23 0  7 23 0
9 21 0  9 23 0  8 23 0  8 12 0  8 12 0  7 23 0  4 30 0  4 30 0  4 30 0  6 23 0  8 23 38  8 23 0
9 21 0  9 23 0  9 23 0  9 23 0  8 12 0  6 23 0  4 30 0  6 12 0  4 30 0  6 23 0  8 12 0  8 23 0
11 12 0  10 23 0  9 23 0  10 23 38  10 23 0  7 23 0  4 30 0  4 30 0  4 30 0  7 23 0  8 12 0  9 23 0
12 23 0  15 23 0  13 23 0  12 23 0  11 23 0  7 23 0  3 30 0  3 30 0  6 23 0  8 23 0  8 12 0  10 23 38
16 23 0  15 23 0  11 23 0  10 23 0  10 23 61  2 30 0  2 30 0  3 30 0  6 23 0  8 23 0  8 12 0  9 23 0
