P3
25 17
255
9 5 0  9 5 0  9 5 0  9 5 0  8 20 0  8 20 0  8 30 0  8 30 0  8 30 0  9 7 0  8 20 0  9 20 0  8 5 0  9 5 0  9 5 0  9 5 0  8 5 0  8 5 0  9 5 0  9 5 0  9 5 0  9 5 0  8 5 0  9 5 0  8 5 0
9 5 0  9 5 0  9 5 0  9 5 0  8 20 0  8 20 0  9 20 0  8 30 0  8 30 0  8 30 0  7 30 0  9 20 0  8 5 0  9 5 0  9 5 0  9 5 0  8 5 0  6 5 0  9 5 0  9 5 0  9 5 0  9 5 0  8 5 0  9 5 0  9 5 0
7 5 0  9 5 0  9 5 0  9 5 0  9 5 0  8 20 0  8 20 0  7 30 0  7 30 0  7 30 0  7 30 0  9 20 0  8 20 0  9 5 0  9 5 0  9 5 0  8 5 0  7 5 0  7 5 0  9 5 0  9 5 0  9 5 0  7 5 0  9 5 0  7 5 0
6 5 0  7 5 0  8 5 0  9 5 0  9 5 0  9 5 0  7 20 0  9 20 0  7 30 0  7 30 0  7 30 0  6 30 0  9 20 0  8 20 0  9 5 0  9 5 0  8 5 0  6 5 0  8 5 0  8 5 0  9 5 0  9 5 0  8 5 0  8 5 0  9 5 0
6 30 0  7 5 0  7 5 0  9 5 0  9 5 0  9 5 0  7 20 0  7 20 0  7 20 0  6 30 0  6 30 0  6 30 0  8 20 0  9 20 0  9 5 0  8 5 0  5 5 0  5 5 0  8 5 0  8 5 0  9 5 0  9 5 0  8 5 0  9 5 0  9 5 0
6 5 0  6 30 0  7 5 0  8 5 0  9 5 0  9 5 0  9 5 0  8 20 0  8 20 0  6 30 0  6 30 0  6 30 0  4 30 0  6 20 0  5 20 0  5 5 0  5 5 0  6 5 0  8 5 0  9 5 0  9 5 0  8 5 0  7 5 0  9 5 0  9 5 0
6 5 0  6 30 0  6 30 0  7 5 0  9 5 0  9 5 0  9 5 0  7 5 0  5 20 0  5 20 0  4 30 0  4 30 0  4 30 0  5 20 0  5 20 0  7 20 0  5 5 0  8 5 0  8 5 0  7 5 0  8 5 0  9 5 0  8 5 0  8 5 0  8 5 0
8 5 0  6 5 0  6 30 0  6 30 0  7 5 0  9 5 0  9 5 0  8 5 0  6 20 0  5 20 0  6 30 0  4 30 0  4 30 0  3 30 0  5 20 0  5 20 0  8 5 0  8 5 0  8 5 0  8 5 0  9 5 0  9 5 0  8 5 0  9 5 0  9 5 0
8 5 0  8 5 0  6 5 0  6 30 0  6 30 0  7 5 0  9 5 0  7 5 0  7 5 0  5 20 0  3 30 0  3 30 0  3 30 0  3 30 0  3 30 0  5 20 0  4 20 0  6 5 0  8 5 0  9 5 0  9 5 0  9 5 0  8 5 0  9 5 0  9 5 0
9 5 0  8 5 0  8 5 0  6 5 0  6 30 0  6 30 0  9 5 0  8 5 0  8 5 0  6 5 0  5 20 0  4 30 0  3 30 0  3 30 0  3 30 0  4 20 0  5 20 0  4 20 0  8 5 0  8 5 0  9 5 0  9 5 0  8 5 0  9 5 0  9 5 0
9 5 0  9 5 0  8 5 0  8 5 0  6 5 0  6 30 0  6 5 0  6 5 0  7 5 0  6 5 0  4 20 0  3 30 0  5 30 0  1 30 0  1 30 0  1 30 0  5 20 0  4 7 0  6 5 0  7 5 0  7 5 0  8 5 0  8 5 0  9 5 0  9 5 0
9 5 0  9 5 0  9 5 0  9 5 0  8 5 0  6 30 0  6 30 0  7 30 0  7 5 0  7 5 0  6 5 0  5 30 0  3 30 0  3 30 0  1 30 0  1 30 0  4 7 0  4 7 0  5 7 0  4 7 0  7 5 0  8 5 0  8 5 0  9 5 0  9 5 0
9 5 0  9 5 0  9 5 0  9 5 0  9 5 0  8 5 0  7 5 0  6 30 0  7 30 0  6 30 0  5 30 0  5 30 0  5 30 0  3 4 0  0 30 0  0 30 0  0 30 0  5 23 0  4 23 0  5 5 0  5 5 0  3 7 0  6 5 0  8 5 0  9 5 0
8 5 0  8 5 0  9 5 0  9 5 0  9 5 0  9 5 0  9 5 0  7 5 0  6 30 0  7 30 0  6 30 0  5 4 0  3 30 0  22 30 0  3 4 0  0 30 0  0 30 0  0 30 0  4 7 0  3 23 0  4 5 0  2 7 0  2 7 0  2 7 0  2 5 0
8 5 0  8 5 0  8 5 0  9 5 0  9 5 0  9 5 0  9 5 0  8 5 0  8 5 0  7 5 0  5 30 0  5 30 0  3 30 0  3 30 0  4 30 0  0 30 0  0 30 0  0 30 0  4 20 0  3 20 0  4 20 0  2 7 0  2 7 0  2 5 0  2 5 0
8 5 0  8 5 0  8 5 0  9 5 0  9 5 0  9 5 0  9 5 0  8 5 0  9 5 0  7 5 0  7 5 0  5 30 0  4 30 0  4 30 0  4 30 0  4 30 0  0 30 0  0 30 0  0 30 0  4 20 0  4 20 0  2 5 0  2 5 0  2 5 0  2 30 0
8 5 0  8 5 0  8 5 0  9 5 0  9 5 0  9 5 0  9 5 0  8 5 0  9 5 0  8 5 0  7 5 0  6 5 0  3 30 0  3 30 0  3 30 0  4 30 0  0 30 0  0 30 0  0 30 0  0 30 0  4 30 0  2 30 0  2 30 0  2 30 0  2 30 0
