P3
19 15
255
11 7 0  11 12 0  11 12 0  9 7 0  9 12 0  9 12 0  9 12 0  9 12 0  8 12 0  8 12 0  5 12 0  5 12 0  4 12 0  3 12 0  4 12 0  5 12 0  0 30 0  0 30 0  0 30 0
11 7 0  9 12 0  8 12 0  8 12 0  8 12 0  9 12 0  6 12 0  6 12 0  6 12 0  6 12 0  8 12 0  5 12 0  5 12 0  5 12 0  4 12 0  5 12 0  0 30 0  0 30 0  0 30 0
11 12 0  8 7 0  8 12 0  8 12 0  8 12 0  8 12 0  6 12 0  6 12 0  6 12 0  5 12 0  6 12 0  5 12 0  5 12 0  3 12 0  3 7 0  5 12 0  0 30 0  0 30 0  0 30 0
9 12 0  8 12 0  8 12 0  6 12 0  6 12 0  8 12 0  6 12 0  6 12 0  5 12 0  5 12 0  6 12 0  5 12 0  3 12 0  3 7 0  3 12 0  5 12 0  0 30 0  0 30 0  0 30 0
9 12 0  9 12 0  8 12 0  8 12 0  8 12 0  8 12 0  6 12 0  6 12 0  6 12 0  6 12 0  5 12 0  5 12 0  5 7 0  5 12 0  5 12 0  3 12 0  0 30 0  0 30 0  0 30 0
8 12 0  6 12 0  6 12 0  6 12 0  6 12 0  6 12 0  5 12 0  5 12 0  5 12 0  3 12 0  5 12 0  3 12 0  3 12 0  2 12 0  2 12 0  3 12 0  0 30 0  0 30 0  0 30 0
8 12 0  6 12 0  6 12 0  5 12 0  5 12 0  6 12 0  5 12 0  3 12 0  3 12 0  3 12 0  5 12 0  3 12 0  2 12 0  2 12 0  2 12 0  3 7 0  0 30 0  0 30 0  0 30 0
8 12 0  6 12 0  5 12 0  5 12 0  5 12 0  6 12 0  3 12 0  3 12 0  3 12 0  3 12 0  3 12 0  2 12 0  2 12 0  0 30 0  2 12 0  0 12 0  0 30 0  0 30 0  0 30 0
6 12 0  6 12 0  6 12 0  6 12 0  6 12 0  5 12 0  5 12 0  5 12 0  5 12 0  3 12 0  3 12 0  3 12 0  3 12 0  2 30 0  2 30 0  2 30 0  0 30 0  0 30 0  0 30 0
5 12 0  5 12 0  5 12 0  3 12 0  3 12 0  5 12 0  3 12 0  2 12 0  2 12 0  2 12 0  3 12 0  2 12 0  0 30 0  2 30 0  0 30 0  2 30 0  0 30 0  0 30 0  0 30 0
6 12 0  5 12 0  3 12 0  3 12 0  3 12 0  5 12 0  2 12 0  2 12 0  2 12 0  2 12 0  0 12 0  0 30 0  0 30 0  0 30 0  0 12 0  0 23 0  0 30 0  0 30 0  0 30 0
5 12 0  1 15 0  1 15 0  1 15 0  1 15 0  3 12 0  2 7 0  1 15 0  1 15 0  1 15 0  0 30 0  0 30 0  0 30 0  0 30 0  0 12 0  0 12 0  0 30 0  0 30 0  0 30 0
0 30 0  1 15 0  1 15 0  1 15 0  1 15 0  0 30 0  0 30 0  1 15 0  1 15 0  1 15 0  0 30 0  0 30 0  0 30 0  0 30 0  1 15 0  1 15 0  1 15 0  0 30 0  0 30 0
0 30 0  0 30 0  0 30 0  0 30 0  0 30 0  0 30 0  0 30 0  0 30 0  0 30 0  0 30 0  0 30 0  0 30 0  0 30 0  0 30 0  1 15 0  1 23 0  1 23 0  0 30 0  0 30 0
0 30 0  0 30 0  0 30 0  0 30 0  0 30 0  0 30 0  0 30 0  0 30 0  0 30 0  0 30 0  0 30 0  0 30 0  0 30 0  0 30 0  1 23 0  1 15 0  1 15 0  0 30 0  0 30 0
