P3
11 14
255
1 30 0  1 30 0  1 30 0  1 30 0  1 30 0  1 30 0  1 30 0  1 30 0  1 30 0  1 30 0  1 30 0
1 30 0  1 30 0  1 30 0  1 30 0  1 30 0  1 30 0  1 30 0  1 30 0  1 30 0  6 40 0  6 40 0
1 30 0  2 12 0  2 12 0  2 12 0  2 12 0  2 12 0  2 12 0  3 33 0  3 33 0  6 40 0  6 40 0
8 40 0  8 40 0  2 23 0  2 12 0  2 23 0  2 23 0  5 12 0  5 12 0  5 12 0  5 12 0  5 12 0
8 40 0  8 40 0  3 12 0  3 12 0  3 23 0  3 12 0  5 12 0  5 12 0  9 40 0  9 40 0  9 40 0
8 40 0  8 40 0  4 23 0  4 12 0  4 23 0  4 12 0  5 12 0  5 12 0  9 40 0  9 40 0  9 40 0
7 52 0  5 12 0  5 23 0  5 12 0  5 23 0  5 12 0  5 12 0  5 12 0  5 12 0  5 12 0  5 12 0
5 12 0  5 12 0  12 40 0  13 40 0  12 40 0  5 12 0  5 23 0  5 12 0  12 40 0  12 40 0  5 12 0
12 40 0  12 40 0  12 40 0  13 40 0  12 40 0  5 12 0  5 12 0  5 12 0  12 40 0  12 40 0  10 40 0
12 40 0  12 12 0  14 12 0  13 40 0  12 40 0  5 12 0  5 12 0  9 40 0  12 40 0  13 12 0  11 40 0
12 40 0  12 40 0  10 52 0  8 40 0  5 12 0  5 12 0  5 12 0  9 40 0  10 40 0  9 40 0  10 40 0
10 52 0  8 52 0  8 40 0  8 40 0  5 12 0  5 12 0  5 12 0  5 12 0  8 40 0  9 40 0  7 40 0
5 52 0  7 52 0  8 40 0  8 40 0  5 12 0  5 12 0  5 12 0  5 12 0  8 40 0  9 40 0  5 12 0
4 12 0  4 12 0  5 12 0  5 23 0  5 12 0  5 12 0  5 12 0  4 12 0  4 12 0  4 23 0  5 12 0
