P3
30 30
255
8 15 0  7 30 0  7 30 0  7 15 0  7 7 0  6 15 0  6 15 0  6 7 0  6 7 0  5 15 0  5 15 0  5 15 0  5 15 0  5 15 0  4 7 0  4 7 0  4 15 0  4 15 0  0 30 0  0 30 0  0 30 0  0 30 0  0 30 0  0 30 0  0 30 0  0 30 0  0 30 0  0 30 0  0 30 0  0 30 0
7 7 0  7 30 0  7 7 0  7 15 0  6 7 0  6 15 0  6 7 0  6 15 0  6 15 0  5 15 0  5 15 0  5 15 0  5 15 0  7 40 0  7 40 0  6 40 0  4 15 0  3 15 0  0 30 0  0 30 0  0 30 0  0 30 0  0 30 0  0 30 0  0 30 0  0 30 0  0 30 0  0 30 0  0 30 0  0 30 0
7 15 0  7 15 0  7 15 0  7 15 0  6 7 0  6 15 0  6 15 0  6 15 0  5 15 0  5 15 0  5 7 0  5 15 0  3 15 0  7 40 0  7 40 0  7 40 0  4 15 0  3 7 0  0 30 0  0 30 0  0 30 0  0 30 0  0 30 0  0 30 0  0 30 0  0 30 0  0 30 0  0 30 0  0 30 0  0 30 0
7 7 0  7 7 0  7 7 0  6 15 0  6 15 0  6 15 0  6 15 0  5 15 0  5 15 0  5 15 0  5 15 0  5 15 0  4 15 0  7 40 0  7 40 0  7 40 0  3 7 0  3 7 0  0 30 0  0 30 0  0 30 0  0 30 0  0 30 0  0 30 0  0 30 0  0 30 0  0 30 0  0 30 0  0 30 0  0 30 0
7 7 0  7 7 0  6 15 0  6 15 0  6 15 0  6 15 0  5 15 0  5 15 0  5 15 0  5 15 0  5 7 0  4 15 0  4 15 0  7 40 0  7 40 0  7 40 0  7 40 0  3 15 0  0 30 0  0 30 0  0 30 0  0 30 0  0 30 0  0 30 0  0 30 0  0 30 0  0 30 0  0 30 0  0 30 0  0 30 0
7 7 0  6 15 0  6 15 0  6 15 0  6 15 0  6 15 0  5 15 0  5 15 0  5 15 0  5 15 0  4 7 0  4 15 0  4 15 0  4 15 0  3 15 0  3 15 0  3 15 0  0 30 0  0 30 0  0 30 0  0 30 0  0 30 0  0 30 0  0 30 0  0 30 0  0 30 0  0 30 0  0 30 0  0 30 0  0 30 0
7 7 0  6 15 0  6 15 0  6 15 0  6 15 0  5 15 0  5 15 0  5 15 0  9 40 0  9 40 0  9 40 0  9 40 0  3 7 0  4 15 0  3 15 0  3 15 0  3 15 0  0 30 0  0 30 0  0 30 0  0 30 0  0 30 0  0 30 0  0 30 0  0 30 0  0 30 0  0 30 0  0 30 0  0 30 0  0 30 0
6 7 0  6 15 0  6 15 0  6 15 0  9 40 0  9 40 0  9 40 0  9 40 0  9 40 0  9 40 0  9 40 0  9 40 0  4 7 0  3 15 0  3 7 0  3 15 0  3 15 0  0 30 0  0 30 0  0 30 0  0 30 0  0 30 0  0 30 0  0 30 0  0 30 0  0 30 0  0 30 0  0 30 0  0 30 0  0 30 0
6 7 0  6 15 0  6 15 0  5 15 0  9 40 0  9 40 0  9 40 0  9 40 0  9 40 0  9 40 0  9 40 0  9 40 0  3 15 0  3 15 0  3 7 0  3 7 0  3 15 0  2 15 0  0 30 0  0 30 0  0 30 0  0 30 0  0 30 0  0 30 0  0 30 0  0 30 0  0 30 0  0 30 0  0 30 0  0 30 0
6 15 0  6 15 0  6 15 0  5 15 0  5 15 0  9 40 0  9 40 0  9 40 0  9 40 0  4 15 0  7 40 0  8 40 0  9 40 0  3 15 0  3 7 0  3 7 0  2 15 0  2 15 0  1 12 0  1 12 0  1 12 0  1 12 0  1 12 0  0 30 0  1 30 0  0 30 0  0 30 0  0 30 0  0 30 0  0 30 0
6 15 0  6 15 0  5 15 0  5 15 0  5 7 0  9 40 0  9 40 0  9 40 0  9 40 0  8 40 0  3 7 0  3 15 0  3 15 0  3 15 0  3 7 0  2 15 0  2 15 0  2 15 0  1 12 0  1 12 0  1 12 0  1 12 0  1 12 0  1 30 0  1 30 0  0 30 0  0 30 0  0 30 0  0 30 0  0 30 0
6 15 0  5 15 0  5 15 0  5 7 0  5 7 0  5 15 0  4 15 0  4 15 0  8 40 0  9 40 0  3 15 0  3 15 0  3 15 0  3 7 0  2 15 0  1 15 0  0 30 0  0 30 0  0 30 0  0 30 0  0 30 0  0 30 0  0 30 0  0 30 0  0 30 0  0 30 0  0 30 0  0 30 0  0 30 0  0 30 0
6 15 0  9 40 0  9 40 0  9 40 0  9 40 0  4 15 0  4 15 0  4 15 0  4 15 0  3 15 0  3 15 0  3 15 0  3 15 0  3 7 0  2 15 0  2 15 0  2 15 0  0 30 0  0 30 0  0 30 0  0 30 0  0 30 0  0 30 0  0 30 0  0 30 0  0 30 0  0 30 0  0 30 0  0 30 0  0 30 0
5 15 0  9 40 0  9 40 0  9 40 0  9 40 0  4 15 0  6 40 0  6 40 0  6 40 0  6 40 0  6 40 0  3 15 0  3 15 0  2 15 0  0 30 0  0 30 0  2 30 0  0 30 0  0 30 0  0 30 0  0 30 0  0 30 0  0 30 0  0 30 0  0 30 0  0 30 0  0 30 0  0 30 0  0 30 0  0 30 0
5 15 0  9 40 0  9 40 0  9 40 0  9 40 0  4 15 0  6 40 0  6 40 0  6 40 0  6 40 0  6 40 0  3 15 0  2 15 0  2 15 0  2 15 0  0 30 0  0 30 0  1 30 0  0 30 0  0 30 0  0 30 0  0 30 0  0 30 0  0 30 0  0 30 0  0 30 0  0 30 0  0 30 0  0 30 0  0 30 0
5 15 0  5 15 0  5 15 0  4 7 0  4 15 0  4 15 0  6 40 0  6 40 0  6 40 0  6 40 0  6 40 0  2 15 0  2 15 0  2 15 0  2 15 0  0 30 0  1 15 0  1 23 0  0 30 0  0 30 0  0 30 0  0 30 0  0 30 0  0 30 0  0 30 0  0 30 0  0 30 0  0 30 0  0 30 0  0 30 0
5 15 0  5 15 0  4 15 0  4 15 0  4 15 0  4 15 0  3 15 0  3 15 0  3 15 0  3 15 0  3 15 0  2 15 0  2 15 0  2 7 0  2 7 0  1 15 0  1 15 0  1 15 0  0 30 0  0 30 0  0 30 0  0 30 0  0 30 0  0 30 0  0 30 0  0 30 0  0 30 0  0 30 0  0 30 0  0 30 0
7 40 0  7 40 0  7 40 0  7 40 0  4 15 0  4 15 0  3 15 0  3 15 0  1 15 0  2 7 0  2 7 0  2 7 0  2 15 0  2 15 0  1 15 0  1 15 0  1 15 0  1 15 0  1 12 0  1 12 0  1 12 0  1 12 0  1 12 0  1 30 0  1 30 0  0 30 0  0 30 0  0 30 0  0 30 0  0 30 0
7 40 0  7 40 0  7 40 0  7 40 0  4 15 0  3 15 0  3 15 0  3 15 0  1 7 0  2 15 0  2 7 0  2 15 0  2 15 0  1 15 0  1 15 0  1 15 0  1 15 0  1 15 0  1 12 0  1 12 0  1 12 0  1 12 0  1 12 0  0 30 0  1 30 0  0 30 0  0 30 0  0 30 0  0 30 0  0 30 0
7 40 0  7 40 0  7 40 0  6 40 0  3 15 0  3 15 0  5 40 0  5 40 0  5 40 0  5 40 0  2 7 0  1 15 0  2 15 0  1 15 0  1 15 0  1 15 0  1 15 0  1 15 0  0 30 0  0 30 0  0 30 0  0 30 0  0 30 0  0 30 0  0 30 0  0 30 0  0 30 0  0 30 0  0 30 0  0 30 0
7 40 0  7 40 0  7 40 0  7 40 0  3 15 0  1 15 0  5 40 0  5 40 0  5 40 0  5 40 0  1 7 0  2 15 0  1 15 0  0 30 0  0 30 0  0 30 0  0 30 0  0 30 0  0 30 0  0 30 0  0 30 0  0 30 0  0 30 0  0 30 0  0 30 0  0 30 0  0 30 0  0 30 0  0 30 0  0 30 0
7 40 0  7 40 0  7 40 0  5 40 0  3 15 0  3 15 0  5 40 0  5 40 0  1 40 0  5 40 0  2 7 0  1 15 0  1 15 0  0 30 0  0 30 0  0 30 0  0 30 0  0 30 0  0 30 0  0 30 0  0 30 0  0 30 0  0 30 0  0 30 0  0 30 0  0 30 0  0 30 0  0 30 0  0 30 0  0 30 0
7 40 0  7 40 0  7 40 0  7 40 0  3 15 0  3 15 0  2 15 0  1 40 0  1 40 0  2 40 0  1 40 0  1 15 0  1 15 0  0 30 0  0 30 0  0 30 0  0 30 0  0 30 0  0 30 0  0 30 0  0 30 0  0 30 0  0 30 0  0 30 0  0 30 0  0 30 0  0 30 0  0 30 0  0 30 0  0 30 0
7 40 0  7 40 0  7 40 0  7 40 0  3 15 0  1 15 0  2 7 0  2 7 0  2 15 0  2 15 0  1 15 0  1 15 0  0 30 0  0 30 0  0 30 0  0 30 0  1 30 0  1 30 0  0 30 0  0 30 0  0 30 0  0 30 0  0 30 0  0 30 0  0 30 0  0 30 0  0 30 0  0 30 0  0 30 0  0 30 0
7 40 0  7 40 0  7 40 0  5 40 0  3 15 0  2 15 0  2 15 0  2 7 0  1 15 0  1 23 0  1 15 0  1 15 0  0 30 0  0 30 0  0 30 0  0 30 0  0 30 0  0 30 0  0 30 0  0 30 0  0 30 0  0 30 0  0 30 0  0 30 0  0 30 0  0 30 0  0 30 0  0 30 0  0 30 0  0 30 0
7 40 0  7 40 0  7 40 0  7 40 0  2 15 0  2 15 0  2 7 0  2 7 0  1 23 0  1 15 0  1 23 0  1 15 0  0 30 0  0 30 0  0 30 0  0 30 0  0 30 0  0 30 0  0 30 0  0 30 0  0 30 0  0 30 0  0 30 0  0 30 0  1 30 0  0 30 0  0 30 0  0 30 0  0 30 0  0 30 0
7 40 0  7 40 0  7 40 0  6 40 0  2 15 0  2 15 0  2 7 0  2 7 0  1 23 0  1 23 0  1 23 0  1 23 0  1 15 0  1 15 0  1 23 0  1 23 0  1 23 0  1 12 0  1 12 0  1 12 0  1 12 0  1 12 0  1 12 0  1 30 0  1 30 0  0 30 0  0 30 0  0 30 0  0 30 0  0 30 0
1 15 0  0 15 0  0 15 0  2 15 0  2 15 0  2 15 0  1 7 0  1 23 0  1 23 0  1 23 0  1 15 0  1 15 0  1 23 0  1 23 0  1 23 0  1 23 0  1 23 0  1 23 0  0 30 0  0 30 0  0 30 0  0 30 0  0 30 0  0 30 0  0 30 0  0 30 0  0 30 0  0 30 0  0 30 0  0 30 0
3 15 0  3 7 0  1 15 0  1 15 0  2 15 0  2 15 0  1 23 0  1 23 0  1 23 0  1 23 0  1 15 0  1 15 0  1 15 0  1 15 0  1 15 0  1 15 0  1 15 0  1 7 0  0 30 0  0 30 0  0 30 0  0 30 0  0 30 0  0 30 0  0 30 0  0 30 0  0 30 0  0 30 0  0 30 0  0 30 0
3 15 0  2 15 0  0 15 0  2 15 0  2 15 0  1 15 0  1 15 0  1 15 0  1 15 0  1 15 0  1 15 0  1 15 0  1 15 0  1 15 0  1 15 0  1 15 0  1 15 0  1 7 0  0 30 0  0 30 0  0 30 0  0 30 0  0 30 0  0 30 0  0 30 0  0 30 0  0 30 0  0 30 0  0 30 0  0 30 0
