P3
10 15
255
1 30 0  1 30 0  3 12 0  3 12 0  1 30 0  1 30 0  1 30 0  1 30 0  1 30 0  1 30 0
1 30 0  1 30 0  3 12 0  3 12 0  1 30 0  1 30 0  1 30 0  1 30 0  1 30 0  1 30 0
1 20 0  1 20 0  3 12 0  3 12 0  1 30 0  1 30 0  1 30 0  1 30 0  1 30 0  1 30 0
6 40 0  6 40 0  3 12 0  3 12 0  2 20 0  2 20 0  1 30 0  1 30 0  1 30 0  1 30 0
13 40 0  11 12 0  9 52 0  3 12 0  2 20 0  2 20 0  2 20 0  3 20 0  3 20 0  1 30 0
13 40 0  13 40 0  9 52 0  8 23 0  8 23 0  7 23 0  6 23 0  6 23 0  4 20 0  1 30 0
13 40 0  13 40 0  8 20 0  8 20 0  8 23 0  7 23 0  7 20 0  6 20 0  4 20 0  2 20 0
15 40 0  15 40 0  8 20 0  8 20 0  9 12 0  11 40 0  11 40 0  6 20 0  4 20 0  2 20 0
15 40 0  15 40 0  9 20 0  9 20 0  9 20 0  11 40 0  11 40 0  6 12 0  7 40 0  2 20 0
16 12 0  15 40 0  11 52 0  9 20 0  9 20 0  12 40 0  12 40 0  7 40 0  7 40 0  2 20 0
16 12 0  15 40 0  9 20 0  9 20 0  9 20 0  13 40 0  13 40 0  7 40 0  7 40 0  3 20 0
15 40 0  15 40 0  9 20 0  9 20 0  9 20 0  13 12 0  12 40 0  8 40 0  3 20 0  3 20 0
14 40 0  14 40 0  9 20 0  9 20 0  11 40 0  11 40 0  9 40 0  9 40 0  3 20 0  3 20 0
14 40 0  14 40 0  11 52 0  9 20 0  11 40 0  11 40 0  8 40 0  8 40 0  6 52 0  3 23 0
13 52 0  13 52 0  11 52 0  9 20 0  11 40 0  11 40 0  7 40 0  7 40 0  7 52 0  5 52 0
