P3
8 11
255
2 23 0  2 23 0  2 23 0  2 23 0  2 23 0  2 20 0  2 20 0  2 20 0
7 4 0  12 12 0  12 12 0  12 12 0  12 12 0  3 20 0  3 4 0  2 20 0
9 4 0  11 20 0  11 20 0  10 23 0  12 12 0  4 20 0  4 4 0  2 20 0
9 40 0  10 23 0  10 20 0  10 20 0  12 12 0  5 20 0  5 4 0  2 20 0
8 40 0  10 23 0  8 20 0  10 23 0  12 12 0  7 20 0  7 23 0  2 20 0
6 40 0  10 4 0  10 23 0  10 20 0  10 23 0  9 20 0  9 4 0  2 20 0
5 4 0  5 4 0  10 23 0  10 4 0  10 20 0  9 20 0  9 23 0  2 20 0
4 4 0  3 4 0  3 4 0  2 23 0  2 20 0  2 20 0  2 20 0  2 20 0
2 4 0  2 4 0  1 4 0  2 4 0  2 4 0  4 12 0  4 12 0  4 12 0
1 23 0  1 23 0  0 20 0  0 20 0  1 23 0  1 23 0  1 23 0  1 23 0
1 23 0  1 23 0  0 20 0  0 20 0  0 20 0  0 23 0  1 23 0  1 23 0
