P3
14 9
32
4 0 0  4 11 0  2 0 0  2 11 0  2 11 0  2 11 0  2 0 0  1 11 0  1 11 0  1 11 0  1 0 0  3 11 0  3 11 0  3 11 0
4 0 0  4 0 0  4 11 0  4 11 0  2 11 0  2 11 0  2 0 0  2 0 0  1 11 0  1 11 0  3 11 0  3 11 0  3 11 0  3 11 0
4 11 0  4 0 0  4 11 0  7 11 1  6 11 0  7 0 0  7 0 0  10 0 0  10 11 0  10 11 0  10 11 0  7 11 0  7 11 0  3 11 0
4 11 0  4 0 0  7 0 0  7 0 0  9 11 0  9 11 0  10 11 0  10 0 0  10 0 0  10 11 0  12 11 0  12 11 0  12 0 0  10 0 0
7 0 0  7 11 0  7 11 0  9 0 0  9 0 0  9 11 0  10 11 0  12 11 1  10 11 0  10 11 0  12 11 0  12 11 0  12 11 0  12 0 0
7 0 0  7 11 0  7 11 0  9 0 0  9 0 0  9 11 0  10 11 0  10 0 0  10 11 0  10 11 0  12 11 0  12 0 0  12 0 0  12 0 0
7 11 0  7 11 0  8 11 1  7 11 0  9 0 0  9 0 0  9 11 0  6 0 0  6 11 0  8 11 0  8 11 0  8 0 0  2 11 0  2 11 0
7 11 0  7 11 0  5 11 0  5 11 0  3 0 0  3 11 0  3 0 0  3 0 0  1 11 0  1 11 0  2 0 0  2 11 0  2 0 0  2 11 0
5 11 0  5 11 0  5 0 0  5 0 0  3 11 0  3 11 0  3 0 0  1 11 0  1 0 0  1 11 0  1 11 0  2 11 0  2 0 0  2 0 0
