P3
# R: nearest whole height (h); G: tile_palette.txt; B: 0
# One pixel per tile. Highest stored surface; half heights round up.
# Source: https://ffhacktics.com/wiki/MAP097_Inside_Castle_Gate_in_Lesalia
# Extracted from the user-supplied saved HTML tile table.
# Columns increase x; rows increase numbered wiki y.
11 13
255
9 16 0	7 16 0	0 8 0	0 8 0	0 11 0	0 11 0	0 11 0	0 8 0	0 8 0	0 8 0	0 8 0
9 16 0	7 16 0	0 8 0	0 11 0	0 11 0	0 8 0	0 8 0	0 8 0	0 8 0	0 11 0	0 11 0
9 16 0	7 16 0	5 16 0	0 11 0	0 8 0	0 8 0	0 8 0	0 8 0	0 8 0	0 8 0	0 8 0
10 16 0	10 16 0	8 16 0	0 11 0	0 11 0	0 8 0	0 8 0	0 8 0	0 8 0	0 8 0	0 11 0
10 16 0	10 16 0	8 16 0	0 11 0	0 8 0	0 8 0	0 11 0	0 8 0	0 8 0	0 8 0	0 8 0
10 16 0	10 16 0	8 16 0	0 11 0	0 8 0	0 8 0	0 11 0	0 8 0	0 11 0	0 11 0	0 8 0
11 4 0	11 4 0	0 11 0	0 11 0	0 8 0	0 8 0	0 8 0	0 11 0	0 11 0	0 11 0	0 8 0
9 4 0	9 4 0	0 11 0	0 8 0	0 8 0	0 8 0	0 11 0	0 11 0	0 11 0	0 11 0	0 8 0
19 4 0	17 4 0	19 4 0	0 4 0	0 4 0	0 8 0	0 8 0	19 4 0	17 4 0	19 4 0	0 11 0
17 4 0	17 4 0	17 4 0	15 4 0	14 4 0	15 4 0	14 4 0	17 4 0	17 4 0	17 4 0	0 11 0
19 4 0	17 4 0	19 4 0	15 4 0	14 4 0	15 4 0	14 4 0	19 4 0	17 4 0	19 4 0	15 4 0
0 4 0	0 4 0	0 4 0	0 4 0	0 4 0	0 4 0	0 4 0	0 4 0	0 4 0	0 4 0	0 4 0
0 4 0	0 4 0	0 4 0	0 4 0	0 4 0	0 4 0	0 4 0	0 4 0	0 4 0	0 4 0	0 4 0
