P3
33 44
255
0 23 0  0 23 0  0 23 0  0 23 0  0 23 0  0 23 0  0 23 0  0 23 0  0 23 0  0 23 0  0 23 0  0 23 0  0 23 0  0 23 0  0 23 0  0 23 0  0 23 0  0 21 0  0 23 0  0 23 0  0 23 0  0 23 0  0 23 0  0 23 0  0 23 0  0 23 0  0 23 0  0 23 0  0 21 0  0 23 0  0 23 0  0 23 0  0 23 0
0 23 0  0 23 0  0 23 0  0 23 0  0 23 0  0 23 0  0 23 0  0 23 0  0 23 0  0 23 0  0 23 0  0 23 0  0 23 0  0 23 0  0 23 0  0 23 0  0 23 0  0 21 0  0 23 0  0 23 0  0 23 0  0 23 0  0 23 0  0 23 0  0 23 0  0 23 0  0 23 0  0 23 0  0 21 0  0 23 0  0 23 0  0 23 0  0 23 0
0 23 0  0 23 0  0 23 0  0 23 0  0 23 0  0 23 0  0 23 0  0 23 0  0 23 0  0 23 0  0 23 0  0 23 0  0 23 0  0 23 0  0 23 0  2 4 0  2 4 0  0 21 0  0 23 0  0 23 0  0 23 0  0 23 0  0 23 0  0 23 0  0 23 0  0 23 0  0 23 0  0 23 0  0 23 0  0 23 0  0 23 0  0 23 0  0 23 0
0 23 0  0 23 0  0 23 0  0 23 0  0 23 0  0 23 0  0 23 0  0 23 0  0 23 0  0 23 0  0 23 0  0 23 0  0 23 0  0 23 0  0 23 0  0 23 0  0 23 0  0 21 0  3 4 0  0 23 0  0 23 0  0 23 0  2 4 0  0 23 0  0 23 0  0 23 0  0 23 0  0 23 0  0 23 0  0 23 0  0 23 0  0 23 0  0 23 0
0 23 0  0 23 0  0 23 0  0 23 0  0 23 0  0 23 0  0 23 0  0 23 0  0 23 0  0 23 0  0 23 0  0 23 0  0 23 0  0 23 0  3 7 0  3 7 0  0 23 0  0 21 0  3 4 0  3 7 0  3 7 0  0 23 0  2 7 0  0 23 0  3 4 0  3 4 0  0 23 0  0 23 0  0 23 0  0 23 0  0 23 0  0 23 0  0 23 0
0 23 0  0 23 0  0 23 0  0 23 0  0 23 0  0 23 0  0 23 0  0 23 0  0 23 0  0 23 0  0 23 0  0 23 0  0 23 0  0 23 0  3 4 0  3 4 0  0 21 0  0 21 0  0 23 0  3 4 0  3 4 0  0 23 0  0 23 0  0 23 0  3 4 0  3 7 0  0 23 0  0 23 0  2 4 0  2 4 0  0 23 0  0 23 0  0 23 0
0 23 0  0 23 0  0 23 0  0 23 0  0 23 0  0 23 0  0 23 0  0 23 0  0 23 0  0 23 0  0 23 0  0 23 0  0 23 0  0 23 0  0 23 0  0 23 0  0 21 0  0 23 0  0 23 0  0 23 0  0 23 0  0 23 0  0 23 0  0 23 0  0 23 0  0 23 0  0 23 0  0 23 0  0 23 0  2 7 0  0 23 0  0 23 0  0 23 0
0 23 0  0 23 0  0 23 0  0 23 0  0 23 0  2 7 0  3 4 0  0 23 0  0 23 0  0 23 0  0 23 0  0 23 0  3 7 0  0 23 0  0 23 0  0 23 0  0 21 0  0 23 0  0 23 0  0 23 0  0 23 0  0 23 0  0 23 0  0 23 0  0 23 0  0 23 0  0 23 0  0 23 0  0 23 0  0 23 0  0 23 0  0 23 0  0 23 0
0 23 0  0 23 0  0 23 0  0 23 0  0 23 0  2 7 0  3 4 0  0 23 0  0 23 0  0 23 0  0 23 0  3 7 0  3 4 0  0 23 0  0 23 0  0 23 0  0 21 0  0 23 0  0 23 0  0 23 0  0 23 0  0 23 0  0 23 0  0 23 0  0 23 0  0 23 0  0 23 0  2 7 0  2 7 0  0 23 0  0 23 0  0 23 0  0 23 0
0 23 0  0 23 0  0 23 0  0 23 0  0 23 0  0 23 0  3 4 0  0 23 0  0 23 0  0 23 0  0 23 0  0 21 0  0 21 0  0 21 0  0 21 0  0 21 0  0 21 0  0 23 0  0 23 0  0 23 0  0 23 0  0 23 0  0 23 0  0 23 0  0 23 0  0 23 0  0 23 0  0 23 0  0 23 0  2 7 0  0 23 0  2 7 0  0 23 0
0 21 0  0 21 0  0 21 0  0 21 0  0 21 0  0 21 0  0 21 0  0 21 0  0 21 0  0 21 0  0 21 0  0 21 0  0 23 0  0 23 0  0 23 0  0 23 0  0 21 0  0 23 0  0 23 0  0 23 0  0 23 0  0 23 0  0 23 0  0 23 0  2 7 0  0 23 0  2 4 0  0 23 0  0 23 0  0 23 0  0 23 0  0 23 0  0 23 0
0 23 0  0 23 0  0 23 0  0 21 0  0 21 0  0 21 0  0 21 0  0 23 0  0 23 0  0 23 0  0 23 0  0 23 0  2 7 0  0 23 0  0 23 0  0 23 0  0 21 0  0 23 0  0 23 0  0 23 0  0 23 0  0 23 0  0 23 0  0 23 0  0 23 0  0 23 0  2 4 0  2 7 0  0 23 0  0 23 0  0 23 0  0 23 0  0 23 0
0 23 0  0 23 0  0 21 0  0 23 0  0 23 0  2 7 0  0 23 0  3 7 0  0 23 0  0 23 0  0 23 0  0 23 0  0 23 0  0 23 0  0 23 0  0 21 0  0 21 0  0 23 0  0 23 0  0 23 0  0 23 0  0 23 0  0 23 0  0 23 0  0 23 0  0 23 0  0 23 0  2 7 0  0 23 0  0 23 0  2 7 0  0 23 0  0 23 0
0 23 0  0 21 0  0 23 0  0 23 0  0 23 0  3 7 0  3 7 0  3 7 0  3 7 0  0 23 0  0 23 0  0 23 0  0 23 0  0 23 0  0 23 0  0 21 0  3 4 0  3 4 0  0 23 0  0 23 0  0 23 0  0 23 0  0 23 0  0 23 0  0 23 0  0 23 0  0 23 0  2 7 0  0 23 0  3 7 0  0 23 0  0 23 0  0 23 0
0 21 0  0 23 0  0 23 0  0 23 0  0 23 0  3 7 0  3 7 0  3 7 0  3 7 0  2 7 0  0 23 0  0 23 0  0 23 0  0 23 0  0 23 0  0 21 0  3 4 0  3 4 0  0 23 0  0 23 0  0 23 0  2 7 0  2 7 0  0 23 0  0 23 0  0 23 0  0 23 0  0 23 0  0 23 0  3 4 0  0 23 0  0 23 0  0 23 0
0 23 0  0 23 0  0 23 0  0 23 0  0 23 0  3 4 0  3 7 0  3 7 0  3 7 0  2 7 0  2 7 0  0 23 0  0 23 0  0 23 0  0 23 0  0 21 0  3 4 0  3 4 0  0 23 0  0 23 0  2 4 0  2 4 0  2 7 0  2 7 0  0 23 0  0 23 0  0 23 0  0 23 0  0 23 0  3 4 0  0 23 0  0 23 0  0 23 0
0 23 0  0 23 0  0 23 0  0 23 0  0 23 0  0 23 0  3 4 0  3 4 0  3 7 0  2 7 0  2 7 0  2 7 0  0 23 0  0 23 0  0 23 0  0 21 0  3 4 0  3 4 0  0 23 0  0 23 0  0 23 0  2 4 0  2 7 0  2 7 0  3 4 0  0 23 0  0 23 0  0 23 0  0 23 0  3 4 0  3 7 0  0 23 0  0 23 0
0 23 0  0 23 0  0 23 0  0 23 0  0 23 0  0 23 0  0 23 0  0 23 0  0 23 0  2 7 0  2 7 0  2 7 0  0 23 0  0 23 0  0 23 0  0 21 0  0 23 0  0 23 0  0 23 0  0 23 0  0 23 0  3 4 0  3 7 0  3 4 0  0 23 0  0 23 0  0 23 0  0 23 0  0 23 0  0 23 0  3 4 0  0 23 0  0 23 0
3 4 0  3 7 0  3 7 0  3 7 0  3 7 0  3 7 0  2 4 0  2 7 0  2 7 0  0 23 0  0 23 0  0 23 0  0 23 0  0 23 0  0 23 0  0 21 0  0 23 0  0 23 0  0 23 0  0 23 0  0 23 0  3 4 0  3 4 0  0 23 0  0 23 0  0 23 0  0 23 0  0 23 0  0 23 0  0 23 0  0 23 0  0 23 0  0 23 0
3 7 0  3 4 0  3 7 0  3 7 0  3 7 0  3 7 0  0 23 0  0 23 0  0 23 0  0 23 0  0 23 0  0 23 0  0 23 0  0 23 0  0 23 0  0 21 0  0 23 0  0 23 0  0 23 0  0 23 0  0 23 0  0 23 0  0 23 0  0 23 0  0 23 0  0 23 0  0 23 0  0 23 0  0 23 0  0 23 0  0 23 0  0 23 0  0 23 0
5 7 0  0 23 0  5 4 0  5 4 0  3 7 0  0 23 0  3 7 0  3 7 0  3 7 0  3 7 0  3 7 0  0 23 0  0 23 0  0 23 0  0 23 0  0 21 0  0 23 0  0 23 0  0 23 0  0 23 0  0 23 0  0 23 0  0 23 0  0 23 0  0 23 0  0 23 0  0 23 0  0 23 0  0 23 0  0 23 0  0 23 0  0 23 0  0 23 0
5 7 0  5 7 0  5 7 0  5 7 0  5 7 0  5 7 0  3 7 0  3 7 0  3 7 0  3 7 0  3 7 0  0 23 0  0 23 0  0 23 0  0 23 0  0 21 0  0 23 0  0 23 0  0 23 0  3 4 0  3 7 0  0 23 0  3 4 0  0 23 0  0 23 0  0 23 0  0 23 0  0 23 0  0 23 0  0 23 0  0 23 0  0 23 0  0 23 0
5 7 0  5 7 0  5 7 0  5 7 0  5 7 0  5 7 0  3 7 0  3 7 0  3 7 0  3 7 0  3 7 0  0 23 0  0 23 0  0 23 0  0 23 0  0 21 0  0 23 0  0 23 0  0 23 0  3 7 0  3 7 0  0 23 0  3 4 0  0 23 0  0 23 0  0 23 0  0 23 0  0 23 0  0 23 0  0 23 0  0 23 0  0 23 0  0 23 0
5 7 0  5 7 0  5 7 0  5 7 0  5 7 0  5 7 0  3 7 0  3 7 0  3 7 0  3 7 0  3 7 0  0 23 0  0 23 0  0 23 0  0 23 0  0 21 0  0 23 0  2 7 0  2 7 0  2 7 0  2 7 0  2 7 0  3 4 0  0 23 0  0 23 0  0 23 0  0 23 0  0 23 0  0 23 0  0 23 0  0 23 0  0 23 0  0 23 0
5 7 0  0 23 0  5 7 0  5 7 0  5 7 0  5 7 0  5 7 0  3 7 0  0 23 0  3 7 0  3 7 0  3 7 0  0 23 0  0 23 0  0 23 0  0 21 0  0 23 0  2 7 0  2 7 0  2 7 0  2 7 0  2 7 0  3 4 0  3 4 0  0 23 0  0 23 0  0 23 0  0 23 0  0 23 0  0 23 0  0 23 0  0 23 0  0 23 0
0 23 0  0 23 0  5 7 0  5 7 0  5 7 0  5 7 0  0 23 0  0 23 0  0 23 0  3 7 0  3 7 0  0 23 0  0 23 0  0 23 0  0 23 0  0 21 0  0 23 0  2 7 0  2 7 0  2 7 0  2 7 0  2 7 0  3 7 0  3 4 0  0 23 0  0 23 0  0 23 0  0 23 0  0 23 0  0 23 0  0 23 0  0 23 0  0 23 0
5 7 0  0 23 0  5 7 0  5 7 0  5 7 0  5 7 0  0 23 0  0 23 0  0 23 0  0 23 0  0 23 0  0 23 0  0 23 0  0 23 0  0 23 0  0 21 0  0 23 0  2 7 0  2 7 0  2 7 0  2 7 0  2 7 0  0 23 0  0 23 0  0 23 0  3 7 0  0 23 0  0 23 0  0 23 0  0 23 0  0 23 0  0 23 0  0 23 0
5 4 0  5 4 0  5 7 0  5 7 0  5 7 0  5 7 0  0 23 0  0 23 0  0 23 0  0 23 0  0 23 0  0 23 0  0 23 0  0 23 0  0 23 0  0 21 0  0 23 0  2 7 0  2 7 0  2 7 0  2 7 0  0 23 0  0 23 0  0 23 0  0 23 0  3 4 0  3 4 0  0 23 0  0 23 0  0 23 0  0 23 0  0 23 0  0 23 0
5 7 0  5 7 0  5 7 0  5 7 0  5 7 0  0 23 0  0 23 0  0 23 0  0 23 0  0 23 0  5 4 0  0 23 0  0 23 0  0 23 0  0 23 0  0 21 0  0 23 0  0 23 0  0 23 0  0 23 0  0 23 0  0 23 0  0 23 0  0 23 0  0 23 0  0 23 0  0 23 0  0 23 0  0 23 0  0 23 0  0 23 0  0 23 0  0 23 0
5 7 0  5 7 0  0 23 0  5 7 0  5 7 0  0 23 0  0 23 0  0 23 0  0 23 0  5 7 0  5 7 0  5 4 0  0 23 0  0 23 0  0 23 0  0 21 0  0 23 0  3 7 0  0 23 0  0 23 0  0 23 0  0 23 0  0 23 0  0 23 0  0 23 0  0 23 0  0 23 0  0 23 0  2 7 0  0 23 0  0 23 0  0 23 0  0 23 0
5 7 0  5 7 0  0 23 0  0 23 0  5 7 0  5 4 0  0 23 0  0 23 0  0 23 0  5 7 0  5 7 0  5 7 0  5 4 0  0 23 0  0 21 0  0 23 0  3 4 0  3 7 0  3 7 0  0 23 0  0 23 0  0 23 0  0 23 0  0 23 0  0 23 0  0 23 0  0 23 0  0 23 0  0 23 0  2 7 0  0 23 0  0 23 0  0 23 0
5 7 0  5 7 0  5 4 0  5 7 0  5 7 0  5 7 0  5 7 0  5 7 0  0 23 0  5 7 0  5 7 0  5 7 0  5 7 0  0 23 0  0 21 0  0 23 0  3 4 0  3 7 0  3 7 0  0 23 0  0 23 0  0 23 0  0 23 0  0 23 0  0 23 0  0 23 0  0 23 0  0 23 0  0 23 0  0 23 0  0 23 0  0 23 0  0 23 0
5 7 0  5 7 0  5 4 0  5 7 0  5 7 0  5 7 0  5 7 0  5 7 0  5 7 0  5 7 0  3 7 0  3 7 0  0 23 0  0 23 0  0 23 0  0 21 0  3 4 0  3 7 0  3 7 0  3 7 0  0 23 0  0 23 0  0 23 0  0 23 0  0 23 0  0 23 0  0 23 0  0 23 0  0 23 0  3 7 0  2 7 0  2 7 0  2 7 0
5 7 0  5 7 0  5 4 0  5 7 0  5 7 0  5 7 0  5 7 0  5 7 0  5 7 0  5 7 0  3 7 0  3 7 0  0 23 0  0 23 0  0 23 0  0 23 0  0 21 0  0 23 0  0 23 0  0 23 0  0 23 0  0 23 0  0 23 0  0 23 0  0 23 0  0 23 0  0 23 0  0 23 0  3 7 0  3 7 0  2 7 0  2 7 0  2 7 0
5 7 0  5 7 0  5 7 0  5 7 0  5 7 0  5 7 0  5 7 0  5 7 0  5 7 0  5 7 0  5 7 0  5 7 0  0 23 0  0 23 0  0 23 0  0 23 0  0 23 0  0 23 0  0 23 0  0 23 0  0 23 0  0 23 0  0 23 0  0 23 0  0 23 0  0 23 0  0 23 0  0 23 0  3 7 0  3 4 0  2 7 0  2 7 0  2 7 0
5 7 0  5 7 0  5 7 0  5 7 0  5 7 0  5 7 0  5 7 0  5 7 0  5 7 0  5 7 0  5 7 0  5 7 0  3 7 0  0 23 0  0 23 0  0 23 0  0 23 0  0 23 0  0 23 0  0 23 0  0 23 0  0 23 0  0 23 0  0 23 0  0 23 0  0 23 0  0 23 0  0 23 0  3 7 0  3 4 0  2 7 0  2 7 0  2 7 0
5 7 0  5 7 0  5 7 0  5 7 0  5 7 0  5 7 0  5 7 0  5 7 0  5 7 0  5 7 0  5 7 0  5 7 0  3 7 0  3 4 0  0 23 0  0 23 0  0 23 0  0 23 0  0 23 0  0 23 0  0 23 0  0 23 0  0 23 0  0 23 0  0 23 0  0 23 0  0 23 0  0 23 0  0 23 0  0 23 0  2 7 0  2 7 0  2 7 0
5 7 0  5 7 0  5 7 0  5 7 0  5 7 0  5 7 0  5 7 0  5 7 0  5 7 0  5 7 0  5 7 0  5 7 0  3 7 0  3 7 0  0 23 0  5 4 0  0 23 0  0 23 0  2 7 0  2 7 0  0 21 0  0 21 0  0 21 0  0 21 0  0 21 0  0 21 0  0 21 0  0 21 0  0 23 0  0 23 0  0 23 0  0 23 0  0 23 0
5 7 0  5 7 0  5 7 0  5 7 0  5 7 0  5 7 0  5 7 0  5 7 0  5 7 0  5 7 0  5 7 0  5 7 0  5 7 0  0 23 0  5 7 0  5 4 0  5 4 0  0 23 0  2 7 0  2 7 0  2 7 0  0 23 0  0 23 0  0 23 0  0 23 0  0 23 0  0 23 0  0 21 0  0 21 0  0 21 0  0 21 0  0 23 0  0 23 0
5 7 0  0 23 0  5 7 0  5 7 0  5 7 0  5 7 0  5 7 0  5 7 0  5 7 0  5 7 0  5 7 0  5 7 0  5 7 0  0 23 0  5 7 0  5 7 0  5 7 0  0 23 0  0 23 0  2 4 0  0 23 0  0 23 0  0 23 0  0 23 0  0 23 0  0 23 0  0 23 0  0 23 0  0 23 0  0 23 0  0 21 0  2 7 0  2 7 0
5 7 0  0 23 0  5 7 0  5 7 0  5 7 0  5 7 0  5 7 0  5 7 0  5 7 0  5 7 0  5 7 0  5 7 0  5 7 0  5 7 0  5 7 0  5 7 0  5 7 0  3 7 0  3 7 0  0 23 0  0 23 0  0 23 0  0 23 0  0 23 0  5 4 0  5 4 0  5 4 0  0 23 0  0 23 0  0 23 0  0 23 0  2 7 0  2 7 0
5 7 0  0 23 0  5 7 0  5 7 0  5 7 0  5 7 0  5 7 0  5 7 0  5 7 0  5 7 0  5 7 0  5 7 0  5 7 0  5 7 0  5 7 0  5 7 0  5 7 0  3 7 0  3 7 0  0 23 0  0 23 0  0 23 0  5 4 0  5 7 0  5 7 0  5 7 0  5 7 0  0 23 0  0 23 0  0 23 0  0 23 0  2 7 0  2 7 0
0 23 0  0 23 0  5 7 0  5 7 0  5 7 0  5 7 0  5 7 0  5 7 0  5 7 0  5 7 0  5 7 0  5 7 0  5 7 0  5 7 0  5 7 0  5 7 0  5 7 0  3 4 0  3 7 0  0 23 0  0 23 0  0 23 0  5 7 0  5 7 0  5 7 0  5 7 0  5 7 0  0 23 0  0 23 0  0 23 0  0 23 0  2 7 0  2 4 0
0 23 0  0 23 0  5 7 0  5 7 0  5 7 0  5 7 0  5 7 0  5 7 0  5 7 0  5 7 0  5 7 0  5 7 0  5 7 0  5 7 0  5 7 0  5 7 0  5 7 0  5 7 0  3 4 0  3 7 0  0 23 0  0 23 0  0 23 0  5 7 0  0 23 0  0 23 0  0 23 0  0 23 0  0 23 0  0 23 0  2 7 0  2 7 0  2 7 0
