P3
# Aerial rock map: visual reconstruction of image(4).png.
# R: nearest whole height unit. G: tile palette index. B: 0.
# Raw numeric samples; no channel normalization. Maxval 255.
# Orientation matches the photograph: columns rightward, rows downward.
# Extent: 33 columns x 44 rows, covering the whole photograph.
# Reference rock with humans: exactly 2 columns x 4 rows, all R=2.
# Reference coordinates (zero-based): x=16..17, y=13..16.
# Reference coordinates (one-based): columns 17..18, rows 14..17.
# Surrounding ground R=0. Other outcrop heights estimated relative to reference.
# Original image: 1638x2048; about 49.64x46.55 source pixels per tile.
# Grid slightly regularizes the irregular outline of the reference rock.
# Only one upper surface per cell. People, shadows and small props excluded.
# Heights outside the reference are visual estimates, not surveyed measurements.
# Tile palette used: 0 rock; 3 grassy-rock; 9 path; 11 grass.
# No additional tile types are required.
33 44
255
0 11 0	0 11 0	0 11 0	0 11 0	0 11 0	0 11 0	0 11 0	0 11 0	0 11 0	0 11 0	0 11 0	0 11 0	0 11 0	0 11 0	0 11 0	0 11 0	0 11 0	0 9 0	0 11 0	0 11 0	0 11 0	0 11 0	0 11 0	0 11 0	0 11 0	0 11 0	0 11 0	0 11 0	0 9 0	0 11 0	0 11 0	0 11 0	0 11 0
0 11 0	0 11 0	0 11 0	0 11 0	0 11 0	0 11 0	0 11 0	0 11 0	0 11 0	0 11 0	0 11 0	0 11 0	0 11 0	0 11 0	0 11 0	0 11 0	0 11 0	0 9 0	0 11 0	0 11 0	0 11 0	0 11 0	0 11 0	0 11 0	0 11 0	0 11 0	0 11 0	0 11 0	0 9 0	0 11 0	0 11 0	0 11 0	0 11 0
0 11 0	0 11 0	0 11 0	0 11 0	0 11 0	0 11 0	0 11 0	0 11 0	0 11 0	0 11 0	0 11 0	0 11 0	0 11 0	0 11 0	0 11 0	1 0 0	1 0 0	0 9 0	0 11 0	0 11 0	0 11 0	0 11 0	0 11 0	0 11 0	0 11 0	0 11 0	0 11 0	0 11 0	0 11 0	0 11 0	0 11 0	0 11 0	0 11 0
0 11 0	0 11 0	0 11 0	0 11 0	0 11 0	0 11 0	0 11 0	0 11 0	0 11 0	0 11 0	0 11 0	0 11 0	0 11 0	0 11 0	0 11 0	0 11 0	0 11 0	0 9 0	2 0 0	0 11 0	0 11 0	0 11 0	1 0 0	0 11 0	0 11 0	0 11 0	0 11 0	0 11 0	0 11 0	0 11 0	0 11 0	0 11 0	0 11 0
0 11 0	0 11 0	0 11 0	0 11 0	0 11 0	0 11 0	0 11 0	0 11 0	0 11 0	0 11 0	0 11 0	0 11 0	0 11 0	0 11 0	2 3 0	2 3 0	0 11 0	0 9 0	2 0 0	2 3 0	2 3 0	0 11 0	1 3 0	0 11 0	2 0 0	2 0 0	0 11 0	0 11 0	0 11 0	0 11 0	0 11 0	0 11 0	0 11 0
0 11 0	0 11 0	0 11 0	0 11 0	0 11 0	0 11 0	0 11 0	0 11 0	0 11 0	0 11 0	0 11 0	0 11 0	0 11 0	0 11 0	2 0 0	2 0 0	0 9 0	0 9 0	0 11 0	2 0 0	2 0 0	0 11 0	0 11 0	0 11 0	2 0 0	2 3 0	0 11 0	0 11 0	1 0 0	1 0 0	0 11 0	0 11 0	0 11 0
0 11 0	0 11 0	0 11 0	0 11 0	0 11 0	0 11 0	0 11 0	0 11 0	0 11 0	0 11 0	0 11 0	0 11 0	0 11 0	0 11 0	0 11 0	0 11 0	0 9 0	0 11 0	0 11 0	0 11 0	0 11 0	0 11 0	0 11 0	0 11 0	0 11 0	0 11 0	0 11 0	0 11 0	0 11 0	1 3 0	0 11 0	0 11 0	0 11 0
0 11 0	0 11 0	0 11 0	0 11 0	0 11 0	1 3 0	2 0 0	0 11 0	0 11 0	0 11 0	0 11 0	0 11 0	2 3 0	0 11 0	0 11 0	0 11 0	0 9 0	0 11 0	0 11 0	0 11 0	0 11 0	0 11 0	0 11 0	0 11 0	0 11 0	0 11 0	0 11 0	0 11 0	0 11 0	0 11 0	0 11 0	0 11 0	0 11 0
0 11 0	0 11 0	0 11 0	0 11 0	0 11 0	1 3 0	2 0 0	0 11 0	0 11 0	0 11 0	0 11 0	2 3 0	2 0 0	0 11 0	0 11 0	0 11 0	0 9 0	0 11 0	0 11 0	0 11 0	0 11 0	0 11 0	0 11 0	0 11 0	0 11 0	0 11 0	0 11 0	1 3 0	1 3 0	0 11 0	0 11 0	0 11 0	0 11 0
0 11 0	0 11 0	0 11 0	0 11 0	0 11 0	0 11 0	2 0 0	0 11 0	0 11 0	0 11 0	0 11 0	0 9 0	0 9 0	0 9 0	0 9 0	0 9 0	0 9 0	0 11 0	0 11 0	0 11 0	0 11 0	0 11 0	0 11 0	0 11 0	0 11 0	0 11 0	0 11 0	0 11 0	0 11 0	1 3 0	0 11 0	1 3 0	0 11 0
0 9 0	0 9 0	0 9 0	0 9 0	0 9 0	0 9 0	0 9 0	0 9 0	0 9 0	0 9 0	0 9 0	0 9 0	0 11 0	0 11 0	0 11 0	0 11 0	0 9 0	0 11 0	0 11 0	0 11 0	0 11 0	0 11 0	0 11 0	0 11 0	1 3 0	0 11 0	1 0 0	0 11 0	0 11 0	0 11 0	0 11 0	0 11 0	0 11 0
0 11 0	0 11 0	0 11 0	0 9 0	0 9 0	0 9 0	0 9 0	0 11 0	0 11 0	0 11 0	0 11 0	0 11 0	1 3 0	0 11 0	0 11 0	0 11 0	0 9 0	0 11 0	0 11 0	0 11 0	0 11 0	0 11 0	0 11 0	0 11 0	0 11 0	0 11 0	1 0 0	1 3 0	0 11 0	0 11 0	0 11 0	0 11 0	0 11 0
0 11 0	0 11 0	0 9 0	0 11 0	0 11 0	1 3 0	0 11 0	2 3 0	0 11 0	0 11 0	0 11 0	0 11 0	0 11 0	0 11 0	0 11 0	0 9 0	0 9 0	0 11 0	0 11 0	0 11 0	0 11 0	0 11 0	0 11 0	0 11 0	0 11 0	0 11 0	0 11 0	1 3 0	0 11 0	0 11 0	1 3 0	0 11 0	0 11 0
0 11 0	0 9 0	0 11 0	0 11 0	0 11 0	2 3 0	2 3 0	2 3 0	2 3 0	0 11 0	0 11 0	0 11 0	0 11 0	0 11 0	0 11 0	0 9 0	2 0 0	2 0 0	0 11 0	0 11 0	0 11 0	0 11 0	0 11 0	0 11 0	0 11 0	0 11 0	0 11 0	1 3 0	0 11 0	2 3 0	0 11 0	0 11 0	0 11 0
0 9 0	0 11 0	0 11 0	0 11 0	0 11 0	2 3 0	2 3 0	2 3 0	2 3 0	1 3 0	0 11 0	0 11 0	0 11 0	0 11 0	0 11 0	0 9 0	2 0 0	2 0 0	0 11 0	0 11 0	0 11 0	1 3 0	1 3 0	0 11 0	0 11 0	0 11 0	0 11 0	0 11 0	0 11 0	2 0 0	0 11 0	0 11 0	0 11 0
0 11 0	0 11 0	0 11 0	0 11 0	0 11 0	2 0 0	2 3 0	2 3 0	2 3 0	1 3 0	1 3 0	0 11 0	0 11 0	0 11 0	0 11 0	0 9 0	2 0 0	2 0 0	0 11 0	0 11 0	1 0 0	1 0 0	1 3 0	1 3 0	0 11 0	0 11 0	0 11 0	0 11 0	0 11 0	2 0 0	0 11 0	0 11 0	0 11 0
0 11 0	0 11 0	0 11 0	0 11 0	0 11 0	0 11 0	2 0 0	2 0 0	2 3 0	1 3 0	1 3 0	1 3 0	0 11 0	0 11 0	0 11 0	0 9 0	2 0 0	2 0 0	0 11 0	0 11 0	0 11 0	1 0 0	1 3 0	1 3 0	2 0 0	0 11 0	0 11 0	0 11 0	0 11 0	2 0 0	2 3 0	0 11 0	0 11 0
0 11 0	0 11 0	0 11 0	0 11 0	0 11 0	0 11 0	0 11 0	0 11 0	0 11 0	1 3 0	1 3 0	1 3 0	0 11 0	0 11 0	0 11 0	0 9 0	0 11 0	0 11 0	0 11 0	0 11 0	0 11 0	2 0 0	2 3 0	2 0 0	0 11 0	0 11 0	0 11 0	0 11 0	0 11 0	0 11 0	2 0 0	0 11 0	0 11 0
2 0 0	2 3 0	2 3 0	2 3 0	2 3 0	2 3 0	1 0 0	1 3 0	1 3 0	0 11 0	0 11 0	0 11 0	0 11 0	0 11 0	0 11 0	0 9 0	0 11 0	0 11 0	0 11 0	0 11 0	0 11 0	2 0 0	2 0 0	0 11 0	0 11 0	0 11 0	0 11 0	0 11 0	0 11 0	0 11 0	0 11 0	0 11 0	0 11 0
2 3 0	2 0 0	2 3 0	2 3 0	2 3 0	2 3 0	0 11 0	0 11 0	0 11 0	0 11 0	0 11 0	0 11 0	0 11 0	0 11 0	0 11 0	0 9 0	0 11 0	0 11 0	0 11 0	0 11 0	0 11 0	0 11 0	0 11 0	0 11 0	0 11 0	0 11 0	0 11 0	0 11 0	0 11 0	0 11 0	0 11 0	0 11 0	0 11 0
3 3 0	0 11 0	3 0 0	3 0 0	2 3 0	0 11 0	2 3 0	2 3 0	2 3 0	2 3 0	2 3 0	0 11 0	0 11 0	0 11 0	0 11 0	0 9 0	0 11 0	0 11 0	0 11 0	0 11 0	0 11 0	0 11 0	0 11 0	0 11 0	0 11 0	0 11 0	0 11 0	0 11 0	0 11 0	0 11 0	0 11 0	0 11 0	0 11 0
3 3 0	3 3 0	3 3 0	3 3 0	3 3 0	3 3 0	2 3 0	2 3 0	2 3 0	2 3 0	2 3 0	0 11 0	0 11 0	0 11 0	0 11 0	0 9 0	0 11 0	0 11 0	0 11 0	2 0 0	2 3 0	0 11 0	2 0 0	0 11 0	0 11 0	0 11 0	0 11 0	0 11 0	0 11 0	0 11 0	0 11 0	0 11 0	0 11 0
3 3 0	3 3 0	3 3 0	3 3 0	3 3 0	3 3 0	2 3 0	2 3 0	2 3 0	2 3 0	2 3 0	0 11 0	0 11 0	0 11 0	0 11 0	0 9 0	0 11 0	0 11 0	0 11 0	2 3 0	2 3 0	0 11 0	2 0 0	0 11 0	0 11 0	0 11 0	0 11 0	0 11 0	0 11 0	0 11 0	0 11 0	0 11 0	0 11 0
3 3 0	3 3 0	3 3 0	3 3 0	3 3 0	3 3 0	2 3 0	2 3 0	2 3 0	2 3 0	2 3 0	0 11 0	0 11 0	0 11 0	0 11 0	0 9 0	0 11 0	1 3 0	1 3 0	1 3 0	1 3 0	1 3 0	2 0 0	0 11 0	0 11 0	0 11 0	0 11 0	0 11 0	0 11 0	0 11 0	0 11 0	0 11 0	0 11 0
3 3 0	0 11 0	3 3 0	3 3 0	3 3 0	3 3 0	3 3 0	2 3 0	0 11 0	2 3 0	2 3 0	2 3 0	0 11 0	0 11 0	0 11 0	0 9 0	0 11 0	1 3 0	1 3 0	1 3 0	1 3 0	1 3 0	2 0 0	2 0 0	0 11 0	0 11 0	0 11 0	0 11 0	0 11 0	0 11 0	0 11 0	0 11 0	0 11 0
0 11 0	0 11 0	3 3 0	3 3 0	3 3 0	3 3 0	0 11 0	0 11 0	0 11 0	2 3 0	2 3 0	0 11 0	0 11 0	0 11 0	0 11 0	0 9 0	0 11 0	1 3 0	1 3 0	1 3 0	1 3 0	1 3 0	2 3 0	2 0 0	0 11 0	0 11 0	0 11 0	0 11 0	0 11 0	0 11 0	0 11 0	0 11 0	0 11 0
3 3 0	0 11 0	3 3 0	3 3 0	3 3 0	3 3 0	0 11 0	0 11 0	0 11 0	0 11 0	0 11 0	0 11 0	0 11 0	0 11 0	0 11 0	0 9 0	0 11 0	1 3 0	1 3 0	1 3 0	1 3 0	1 3 0	0 11 0	0 11 0	0 11 0	2 3 0	0 11 0	0 11 0	0 11 0	0 11 0	0 11 0	0 11 0	0 11 0
3 0 0	3 0 0	3 3 0	3 3 0	3 3 0	3 3 0	0 11 0	0 11 0	0 11 0	0 11 0	0 11 0	0 11 0	0 11 0	0 11 0	0 11 0	0 9 0	0 11 0	1 3 0	1 3 0	1 3 0	1 3 0	0 11 0	0 11 0	0 11 0	0 11 0	2 0 0	2 0 0	0 11 0	0 11 0	0 11 0	0 11 0	0 11 0	0 11 0
3 3 0	3 3 0	3 3 0	3 3 0	3 3 0	0 11 0	0 11 0	0 11 0	0 11 0	0 11 0	3 0 0	0 11 0	0 11 0	0 11 0	0 11 0	0 9 0	0 11 0	0 11 0	0 11 0	0 11 0	0 11 0	0 11 0	0 11 0	0 11 0	0 11 0	0 11 0	0 11 0	0 11 0	0 11 0	0 11 0	0 11 0	0 11 0	0 11 0
3 3 0	3 3 0	0 11 0	3 3 0	3 3 0	0 11 0	0 11 0	0 11 0	0 11 0	3 3 0	3 3 0	3 0 0	0 11 0	0 11 0	0 11 0	0 9 0	0 11 0	2 3 0	0 11 0	0 11 0	0 11 0	0 11 0	0 11 0	0 11 0	0 11 0	0 11 0	0 11 0	0 11 0	1 3 0	0 11 0	0 11 0	0 11 0	0 11 0
3 3 0	3 3 0	0 11 0	0 11 0	3 3 0	3 0 0	0 11 0	0 11 0	0 11 0	3 3 0	3 3 0	3 3 0	3 0 0	0 11 0	0 9 0	0 11 0	2 0 0	2 3 0	2 3 0	0 11 0	0 11 0	0 11 0	0 11 0	0 11 0	0 11 0	0 11 0	0 11 0	0 11 0	0 11 0	1 3 0	0 11 0	0 11 0	0 11 0
3 3 0	3 3 0	3 0 0	3 3 0	3 3 0	3 3 0	3 3 0	3 3 0	0 11 0	3 3 0	3 3 0	3 3 0	3 3 0	0 11 0	0 9 0	0 11 0	2 0 0	2 3 0	2 3 0	0 11 0	0 11 0	0 11 0	0 11 0	0 11 0	0 11 0	0 11 0	0 11 0	0 11 0	0 11 0	0 11 0	0 11 0	0 11 0	0 11 0
3 3 0	3 3 0	3 0 0	3 3 0	3 3 0	3 3 0	3 3 0	3 3 0	3 3 0	3 3 0	2 3 0	2 3 0	0 11 0	0 11 0	0 11 0	0 9 0	2 0 0	2 3 0	2 3 0	2 3 0	0 11 0	0 11 0	0 11 0	0 11 0	0 11 0	0 11 0	0 11 0	0 11 0	0 11 0	2 3 0	1 3 0	1 3 0	1 3 0
3 3 0	3 3 0	3 0 0	3 3 0	3 3 0	3 3 0	3 3 0	3 3 0	3 3 0	3 3 0	2 3 0	2 3 0	0 11 0	0 11 0	0 11 0	0 11 0	0 9 0	0 11 0	0 11 0	0 11 0	0 11 0	0 11 0	0 11 0	0 11 0	0 11 0	0 11 0	0 11 0	0 11 0	2 3 0	2 3 0	1 3 0	1 3 0	1 3 0
3 3 0	3 3 0	3 3 0	3 3 0	3 3 0	3 3 0	3 3 0	3 3 0	3 3 0	3 3 0	3 3 0	3 3 0	0 11 0	0 11 0	0 11 0	0 11 0	0 11 0	0 11 0	0 11 0	0 11 0	0 11 0	0 11 0	0 11 0	0 11 0	0 11 0	0 11 0	0 11 0	0 11 0	2 3 0	2 0 0	1 3 0	1 3 0	1 3 0
3 3 0	3 3 0	3 3 0	3 3 0	3 3 0	3 3 0	3 3 0	3 3 0	3 3 0	3 3 0	3 3 0	3 3 0	2 3 0	0 11 0	0 11 0	0 11 0	0 11 0	0 11 0	0 11 0	0 11 0	0 11 0	0 11 0	0 11 0	0 11 0	0 11 0	0 11 0	0 11 0	0 11 0	2 3 0	2 0 0	1 3 0	1 3 0	1 3 0
3 3 0	3 3 0	3 3 0	3 3 0	3 3 0	3 3 0	3 3 0	3 3 0	3 3 0	3 3 0	3 3 0	3 3 0	2 3 0	2 0 0	0 11 0	0 11 0	0 11 0	0 11 0	0 11 0	0 11 0	0 11 0	0 11 0	0 11 0	0 11 0	0 11 0	0 11 0	0 11 0	0 11 0	0 11 0	0 11 0	1 3 0	1 3 0	1 3 0
3 3 0	3 3 0	3 3 0	3 3 0	3 3 0	3 3 0	3 3 0	3 3 0	3 3 0	3 3 0	3 3 0	3 3 0	2 3 0	2 3 0	0 11 0	3 0 0	0 11 0	0 11 0	1 3 0	1 3 0	0 9 0	0 9 0	0 9 0	0 9 0	0 9 0	0 9 0	0 9 0	0 9 0	0 11 0	0 11 0	0 11 0	0 11 0	0 11 0
3 3 0	3 3 0	3 3 0	3 3 0	3 3 0	3 3 0	3 3 0	3 3 0	3 3 0	3 3 0	3 3 0	3 3 0	3 3 0	0 11 0	3 3 0	3 0 0	3 0 0	0 11 0	1 3 0	1 3 0	1 3 0	0 11 0	0 11 0	0 11 0	0 11 0	0 11 0	0 11 0	0 9 0	0 9 0	0 9 0	0 9 0	0 11 0	0 11 0
3 3 0	0 11 0	3 3 0	3 3 0	3 3 0	3 3 0	3 3 0	3 3 0	3 3 0	3 3 0	3 3 0	3 3 0	3 3 0	0 11 0	3 3 0	3 3 0	3 3 0	0 11 0	0 11 0	1 0 0	0 11 0	0 11 0	0 11 0	0 11 0	0 11 0	0 11 0	0 11 0	0 11 0	0 11 0	0 11 0	0 9 0	1 3 0	1 3 0
3 3 0	0 11 0	3 3 0	3 3 0	3 3 0	3 3 0	3 3 0	3 3 0	3 3 0	3 3 0	3 3 0	3 3 0	3 3 0	3 3 0	3 3 0	3 3 0	3 3 0	2 3 0	2 3 0	0 11 0	0 11 0	0 11 0	0 11 0	0 11 0	3 0 0	3 0 0	3 0 0	0 11 0	0 11 0	0 11 0	0 11 0	1 3 0	1 3 0
3 3 0	0 11 0	3 3 0	3 3 0	3 3 0	3 3 0	3 3 0	3 3 0	3 3 0	3 3 0	3 3 0	3 3 0	3 3 0	3 3 0	3 3 0	3 3 0	3 3 0	2 3 0	2 3 0	0 11 0	0 11 0	0 11 0	3 0 0	3 3 0	3 3 0	3 3 0	3 3 0	0 11 0	0 11 0	0 11 0	0 11 0	1 3 0	1 3 0
0 11 0	0 11 0	3 3 0	3 3 0	3 3 0	3 3 0	3 3 0	3 3 0	3 3 0	3 3 0	3 3 0	3 3 0	3 3 0	3 3 0	3 3 0	3 3 0	3 3 0	2 0 0	2 3 0	0 11 0	0 11 0	0 11 0	3 3 0	3 3 0	3 3 0	3 3 0	3 3 0	0 11 0	0 11 0	0 11 0	0 11 0	1 3 0	1 0 0
0 11 0	0 11 0	3 3 0	3 3 0	3 3 0	3 3 0	3 3 0	3 3 0	3 3 0	3 3 0	3 3 0	3 3 0	3 3 0	3 3 0	3 3 0	3 3 0	3 3 0	3 3 0	2 0 0	2 3 0	0 11 0	0 11 0	0 11 0	3 3 0	0 11 0	0 11 0	0 11 0	0 11 0	0 11 0	0 11 0	1 3 0	1 3 0	1 3 0
