P3
9 13
53
1 12 0  1 12 0  8 33 0  16 53 0  8 33 0  1 12 0  1 12 0  0 12 0  0 12 0
1 12 0  1 12 0  8 33 0  16 53 0  8 33 0  1 12 0  1 12 0  3 48 0  3 48 0
1 12 0  1 12 0  8 33 0  16 53 0  8 33 0  1 12 0  1 12 0  0 12 0  0 12 0
1 12 0  2 12 0  8 33 0  16 53 0  8 33 0  2 12 0  1 12 0  0 12 0  0 12 0
1 12 0  4 12 0  7 12 0  16 53 0  7 12 0  4 12 0  1 12 0  3 48 0  2 51 0
1 12 0  5 12 0  6 12 0  16 53 0  6 12 0  5 12 0  1 12 0  1 12 0  1 12 0
1 12 0  5 12 0  5 12 0  16 53 0  5 12 0  5 12 0  0 12 0  1 12 0  1 12 0
1 12 0  5 12 0  6 12 0  16 53 0  6 12 0  5 12 0  1 12 0  1 12 0  1 12 0
1 12 0  4 12 0  7 12 0  16 53 0  7 12 0  4 12 0  1 12 0  2 51 0  2 51 0
1 12 0  2 12 0  8 33 0  16 53 0  8 33 0  2 12 0  1 12 0  0 12 0  0 12 0
1 12 0  1 12 0  8 33 0  16 53 0  8 33 0  1 12 0  1 12 0  0 12 0  0 12 0
1 12 0  1 12 0  8 33 0  16 53 0  8 33 0  1 12 0  1 12 0  2 51 0  2 51 0
1 12 0  1 12 0  16 53 0  16 53 0  16 53 0  1 12 0  1 12 0  0 12 0  0 12 0
