P3
# R: nearest whole height (h); G: tile_palette.txt; B: 0
# One pixel per tile. Highest stored surface; half heights round up.
# Source: https://fftcompanion.app/maps/storyBattle/gariland
# Original FFHacktics page could not be inspected.
10 15
32
2 11 0	2 11 0	5 18 0	2 11 0	1 14 0	1 14 0	1 14 0	1 14 0	3 11 0	3 11 0
2 11 0	2 11 0	2 4 0	2 4 0	4 4 0	2 4 0	1 14 0	2 11 0	3 11 0	3 11 0
1 14 0	1 14 0	2 4 0	8 17 0	7 16 0	2 17 0	1 14 0	2 4 0	3 11 0	3 11 0
2 4 0	1 14 0	2 4 0	8 16 0	8 16 0	2 4 0	1 14 0	2 4 0	5 18 0	2 11 0
2 4 0	1 14 0	1 14 0	7 16 0	7 16 0	2 4 0	2 23 0	2 4 0	2 4 0	1 14 0
2 4 0	1 14 0	2 4 0	2 4 0	2 4 0	2 4 0	2 23 0	2 4 0	2 4 0	1 14 0
2 4 0	1 14 0	8 4 0	7 16 0	2 17 0	1 14 0	1 14 0	2 4 0	4 21 0	5 4 0
2 4 0	2 4 0	8 16 0	8 16 0	2 4 0	1 14 0	1 14 0	2 4 0	7 16 0	7 16 0
1 14 0	2 17 0	7 16 0	7 16 0	2 17 0	1 14 0	2 4 0	2 4 0	8 16 0	8 16 0
1 14 0	2 4 0	3 4 0	5 17 0	4 21 0	1 14 0	2 4 0	2 4 0	7 16 0	8 4 0
1 14 0	1 14 0	1 14 0	1 14 0	2 23 0	1 14 0	2 4 0	2 4 0	2 4 0	1 4 0
1 14 0	2 4 0	2 11 0	2 11 0	2 11 0	1 14 0	1 14 0	1 14 0	2 4 0	2 11 0
8 16 0	8 16 0	8 16 0	2 11 0	2 11 0	3 23 0	3 23 0	2 4 0	3 11 0	3 11 0
9 16 0	10 4 0	9 16 0	6 21 0	4 21 0	1 14 0	1 14 0	2 4 0	3 11 0	3 11 0
9 16 0	9 16 0	9 16 0	7 17 0	4 21 0	1 14 0	1 14 0	1 14 0	3 11 0	3 11 0
