P3
10 15
52
2 23 0  2 23 0  5 44 0  2 23 0  1 30 0  1 30 0  1 30 0  1 30 0  3 23 0  3 23 0
2 23 0  2 23 0  2 12 0  2 12 0  4 12 0  2 12 0  1 30 0  2 23 0  3 23 0  3 23 0
1 30 0  1 30 0  2 12 0  8 33 0  7 40 0  2 33 0  1 30 0  2 12 0  3 23 0  3 23 0
2 12 0  1 30 0  2 12 0  8 40 0  8 40 0  2 12 0  1 30 0  2 12 0  5 44 0  2 23 0
2 12 0  1 30 0  1 30 0  7 40 0  7 40 0  2 12 0  2 32 0  2 12 0  2 12 0  1 30 0
2 12 0  1 30 0  2 12 0  2 12 0  2 12 0  2 12 0  2 32 0  2 12 0  2 12 0  1 30 0
2 12 0  1 30 0  8 12 0  7 40 0  2 33 0  1 30 0  1 30 0  2 12 0  4 52 0  5 12 0
2 12 0  2 12 0  8 40 0  8 40 0  2 12 0  1 30 0  1 30 0  2 12 0  7 40 0  7 40 0
1 30 0  2 33 0  7 40 0  7 40 0  2 33 0  1 30 0  2 12 0  2 12 0  8 40 0  8 40 0
1 30 0  2 12 0  3 12 0  5 33 0  4 52 0  1 30 0  2 12 0  2 12 0  7 40 0  8 12 0
1 30 0  1 30 0  1 30 0  1 30 0  2 32 0  1 30 0  2 12 0  2 12 0  2 12 0  1 12 0
1 30 0  2 12 0  2 23 0  2 23 0  2 23 0  1 30 0  1 30 0  1 30 0  2 12 0  2 23 0
8 40 0  8 40 0  8 40 0  2 23 0  2 23 0  3 32 0  3 32 0  2 12 0  3 23 0  3 23 0
9 40 0  10 12 0  9 40 0  6 52 0  4 52 0  1 30 0  1 30 0  2 12 0  3 23 0  3 23 0
9 40 0  9 40 0  9 40 0  7 33 0  4 52 0  1 30 0  1 30 0  1 30 0  3 23 0  3 23 0
