P3
12 16
255
8 40 0  6 40 0  0 21 0  0 21 0  0 21 0  0 21 0  0 21 0  0 21 0  0 21 0  0 21 0  0 21 0  0 21 0
8 40 0  6 40 0  0 21 0  0 21 0  0 21 0  0 21 0  0 21 0  0 21 0  0 21 0  0 21 0  0 21 0  0 21 0
4 21 0  3 21 0  2 21 0  1 21 0  0 21 0  0 21 0  0 21 0  0 21 0  0 21 0  0 21 0  0 21 0  0 21 0
4 21 0  3 21 0  2 21 0  1 21 0  0 21 0  0 21 0  0 21 0  0 21 0  0 21 0  0 21 0  0 21 0  0 21 0
8 40 0  13 12 0  12 40 0  12 40 0  12 40 0  0 21 0  0 21 0  0 21 0  0 21 0  0 21 0  0 21 0  0 21 0
8 40 0  13 12 0  12 40 0  14 40 0  12 40 0  0 21 0  0 21 0  0 21 0  0 21 0  0 21 0  0 21 0  0 21 0
8 40 0  8 40 0  12 40 0  12 40 0  12 40 0  0 21 0  0 21 0  0 21 0  0 21 0  0 21 0  0 21 0  0 21 0
8 40 0  8 40 0  11 40 0  10 40 0  6 40 0  0 21 0  0 21 0  0 21 0  0 21 0  0 21 0  0 21 0  0 21 0
0 12 0  0 12 0  11 40 0  10 40 0  6 40 0  0 21 0  0 21 0  0 21 0  0 21 0  0 21 0  0 21 0  0 21 0
0 12 0  0 12 0  10 40 0  8 40 0  6 40 0  0 21 0  0 21 0  0 21 0  0 21 0  0 21 0  0 21 0  0 21 0
10 40 0  8 40 0  10 40 0  8 40 0  0 21 0  0 21 0  0 21 0  0 21 0  0 21 0  0 21 0  0 21 0  0 21 0
10 40 0  8 40 0  10 40 0  8 40 0  0 21 0  0 21 0  0 21 0  0 21 0  0 21 0  0 21 0  0 21 0  0 21 0
10 40 0  8 40 0  10 40 0  8 40 0  6 40 0  0 21 0  0 21 0  0 21 0  0 21 0  0 21 0  0 21 0  0 21 0
0 12 0  0 12 0  12 40 0  12 40 0  12 40 0  0 21 0  0 21 0  0 21 0  0 21 0  0 21 0  0 21 0  0 21 0
0 12 0  0 12 0  12 40 0  14 40 0  12 40 0  0 21 0  0 21 0  0 21 0  0 21 0  0 21 0  0 21 0  0 21 0
0 12 0  0 12 0  12 40 0  12 40 0  12 40 0  0 21 0  0 21 0  0 21 0  0 21 0  0 21 0  0 21 0  0 21 0
