P3
# ESTIMATED from one isometric reference; see README.md.
# R: whole height; G: tile_palette.txt index; B: 0.
# Origin: rear corner. Columns down-right; rows down-left.
21 16
255
1 11 0	1 11 0	1 11 0	0 22 0	0 22 0	0 22 0	0 22 0	0 8 0	0 22 0	0 22 0	0 22 0	0 22 0	0 22 0	0 22 0	0 8 0	0 22 0	0 22 0	1 8 0	1 8 0	1 8 0	1 8 0
1 8 0	1 8 0	1 8 0	0 22 0	0 22 0	0 22 0	0 8 0	0 22 0	0 22 0	1 22 0	1 22 0	0 22 0	0 22 0	0 8 0	0 22 0	0 22 0	0 22 0	1 11 0	1 8 0	1 8 0	1 8 0
1 8 0	1 8 0	1 3 0	0 22 0	0 22 0	0 8 0	1 8 0	1 3 0	1 8 0	2 3 0	2 3 0	1 8 0	0 8 0	0 22 0	0 22 0	1 11 0	1 8 0	1 11 0	1 3 0	1 11 0	1 8 0
0 22 0	0 22 0	0 22 0	1 3 0	1 8 0	1 8 0	1 8 0	1 8 0	2 3 0	1 22 0	1 22 0	1 8 0	1 8 0	1 8 0	1 11 0	1 11 0	1 8 0	1 3 0	0 11 0	0 22 0	0 22 0
0 22 0	0 22 0	0 22 0	1 8 0	1 11 0	1 11 0	1 3 0	2 3 0	2 3 0	1 22 0	1 11 0	1 22 0	2 3 0	1 3 0	1 3 0	1 8 0	1 8 0	1 8 0	0 22 0	0 22 0	0 22 0
0 22 0	0 22 0	0 8 0	1 11 0	1 11 0	1 22 0	1 22 0	1 22 0	1 22 0	2 8 0	2 22 0	1 22 0	1 22 0	1 22 0	1 22 0	1 22 0	0 8 0	1 8 0	0 22 0	0 22 0	0 22 0
1 11 0	1 8 0	1 3 0	1 3 0	2 3 0	1 22 0	1 22 0	1 22 0	2 8 0	2 22 0	2 22 0	2 22 0	1 22 0	1 22 0	1 22 0	1 8 0	1 22 0	0 22 0	1 8 0	1 3 0	1 11 0
1 8 0	1 8 0	1 3 0	1 3 0	2 3 0	2 8 0	1 22 0	1 8 0	2 22 0	3 8 0	3 3 0	2 3 0	2 3 0	2 8 0	2 3 0	1 22 0	1 22 0	0 22 0	1 8 0	1 11 0	1 11 0
1 11 0	1 11 0	1 8 0	1 3 0	1 3 0	1 8 0	1 8 0	1 22 0	1 22 0	2 8 0	2 8 0	2 3 0	2 3 0	2 3 0	1 8 0	1 22 0	0 22 0	0 22 0	1 11 0	1 11 0	1 11 0
1 3 0	1 8 0	1 11 0	0 22 0	0 22 0	0 8 0	1 8 0	2 8 0	2 8 0	2 8 0	2 3 0	2 3 0	1 8 0	1 22 0	0 22 0	1 8 0	1 3 0	1 8 0	1 11 0	1 11 0	1 8 0
1 11 0	1 11 0	1 11 0	0 22 0	0 8 0	0 22 0	0 22 0	1 22 0	1 22 0	1 22 0	1 22 0	1 8 0	1 22 0	0 22 0	0 22 0	0 22 0	0 22 0	1 11 0	1 11 0	1 8 0	1 8 0
1 11 0	1 11 0	1 11 0	0 8 0	0 22 0	0 22 0	0 22 0	0 22 0	1 22 0	1 22 0	1 8 0	1 22 0	0 22 0	0 22 0	0 22 0	0 22 0	0 22 0	1 11 0	1 8 0	1 11 0	1 8 0
0 22 0	0 22 0	0 8 0	1 3 0	0 11 0	1 11 0	1 8 0	1 11 0	1 11 0	1 8 0	1 22 0	0 22 0	1 3 0	1 3 0	1 8 0	1 11 0	1 11 0	1 8 0	0 22 0	0 22 0	0 22 0
0 22 0	0 11 0	0 22 0	0 11 0	1 11 0	1 8 0	1 11 0	1 8 0	1 8 0	0 22 0	0 22 0	0 22 0	1 3 0	1 8 0	1 11 0	1 8 0	1 8 0	1 8 0	0 22 0	0 22 0	0 22 0
0 8 0	0 22 0	0 22 0	1 11 0	1 8 0	1 11 0	1 8 0	1 8 0	1 8 0	0 22 0	0 22 0	0 22 0	1 3 0	1 11 0	1 11 0	1 11 0	1 11 0	1 11 0	0 22 0	0 22 0	0 22 0
1 3 0	0 8 0	1 3 0	1 8 0	1 8 0	0 22 0	0 11 0	0 22 0	0 22 0	0 22 0	0 22 0	0 22 0	0 22 0	0 8 0	0 22 0	0 22 0	0 22 0	0 22 0	1 3 0	1 3 0	1 8 0
