P3
30 30
255
15 7 0  15 12 0  13 12 0  13 12 0  13 12 0  14 12 0  14 12 0  13 12 0  12 12 0  12 12 0  13 12 0  13 12 0  12 12 0  11 12 0  11 12 0  12 12 0  12 12 0  11 12 0  10 12 0  10 12 0  11 12 0  11 12 0  10 7 0  9 12 0  9 7 0  10 12 0  10 12 0  9 12 0  8 12 0  8 12 0
15 12 0  14 12 0  13 12 0  13 12 0  14 12 0  14 12 0  13 12 0  12 12 0  12 12 0  13 12 0  13 12 0  12 12 0  11 12 0  11 12 0  12 12 0  12 12 0  11 7 0  10 12 0  10 12 0  11 12 0  11 12 0  10 12 0  9 12 0  9 12 0  10 12 0  10 7 0  9 7 0  8 12 0  8 12 0  9 12 0
13 12 0  13 12 0  7 7 0  7 15 0  7 30 0  7 30 0  7 30 0  7 30 0  6 7 0  6 7 0  6 7 0  6 7 0  5 7 0  5 7 0  5 7 0  5 7 0  5 7 0  5 7 0  5 7 0  5 7 0  4 7 0  4 7 0  4 7 0  12 7 0  12 7 0  12 7 0  12 7 0  12 7 0  12 7 0  12 7 0
13 7 0  13 12 0  7 7 0  6 15 0  6 15 0  7 30 0  7 30 0  7 30 0  7 30 0  6 7 0  6 7 0  5 7 0  5 7 0  5 7 0  5 7 0  5 7 0  5 7 0  5 7 0  5 7 0  4 7 0  4 7 0  4 7 0  4 7 0  12 7 0  12 7 0  12 7 0  12 7 0  12 7 0  12 7 0  12 7 0
13 12 0  14 7 0  6 7 0  6 15 0  6 15 0  6 7 0  6 30 0  6 30 0  6 30 0  6 30 0  5 7 0  5 7 0  5 7 0  5 7 0  5 7 0  5 7 0  5 7 0  5 7 0  4 7 0  4 7 0  4 7 0  4 7 0  4 7 0  11 7 0  11 7 0  11 7 0  11 7 0  11 7 0  11 7 0  11 7 0
13 12 0  14 12 0  6 7 0  6 15 0  6 15 0  6 7 0  6 7 0  6 30 0  6 30 0  6 30 0  5 30 0  5 7 0  5 7 0  5 7 0  5 7 0  5 7 0  5 7 0  4 7 0  4 7 0  4 7 0  4 7 0  4 7 0  4 7 0  11 7 0  11 7 0  11 7 0  11 7 0  11 7 0  11 7 0  11 7 0
13 12 0  13 7 0  6 7 0  6 15 0  6 7 0  6 7 0  6 7 0  6 7 0  6 30 0  6 30 0  6 30 0  5 7 0  5 7 0  5 7 0  5 7 0  5 7 0  4 7 0  4 7 0  4 7 0  4 7 0  4 7 0  4 7 0  4 7 0  10 7 0  10 7 0  10 7 0  10 7 0  10 7 0  10 7 0  10 7 0
13 12 0  12 12 0  6 7 0  6 15 0  6 15 0  6 7 0  6 15 0  5 15 0  6 30 0  6 30 0  6 30 0  6 30 0  5 15 0  5 7 0  5 15 0  4 15 0  4 7 0  4 7 0  4 7 0  4 15 0  4 15 0  4 15 0  4 15 0  10 7 0  10 7 0  10 7 0  10 7 0  10 7 0  10 7 0  10 7 0
12 12 0  12 12 0  6 15 0  6 15 0  6 7 0  6 7 0  5 15 0  5 15 0  5 15 0  6 15 0  6 15 0  6 15 0  6 15 0  5 15 0  4 7 0  4 7 0  4 15 0  4 15 0  4 15 0  4 15 0  4 15 0  4 15 0  3 15 0  9 15 0  9 7 0  9 7 0  9 7 0  9 7 0  9 7 0  9 7 0
12 7 0  13 12 0  6 7 0  6 15 0  6 15 0  5 7 0  5 7 0  5 7 0  5 7 0  5 7 0  6 12 0  6 12 0  6 12 0  6 12 0  4 7 0  4 7 0  4 7 0  4 7 0  4 7 0  4 7 0  4 7 0  4 7 0  3 7 0  9 7 0  9 7 0  9 7 0  9 7 0  9 7 0  9 7 0  9 7 0
13 12 0  13 12 0  6 7 0  6 15 0  5 7 0  5 7 0  5 7 0  5 7 0  5 7 0  5 30 0  5 30 0  5 30 0  5 30 0  5 30 0  5 30 0  4 7 0  4 7 0  4 7 0  4 7 0  4 7 0  4 7 0  3 7 0  3 7 0  8 7 0  8 7 0  8 7 0  8 7 0  8 7 0  7 7 0  8 7 0
13 12 0  12 12 0  6 7 0  5 15 0  5 15 0  5 7 0  5 7 0  5 7 0  5 7 0  5 7 0  5 30 0  4 30 0  5 30 0  5 30 0  5 30 0  4 7 0  4 7 0  4 7 0  4 7 0  4 7 0  3 7 0  3 7 0  3 7 0  8 7 0  8 7 0  8 7 0  8 7 0  7 7 0  8 7 0  8 7 0
11 12 0  11 12 0  5 7 0  5 15 0  5 15 0  5 7 0  5 7 0  5 7 0  5 7 0  5 7 0  4 7 0  4 30 0  4 7 0  4 30 0  4 30 0  4 30 0  4 7 0  4 7 0  4 7 0  3 7 0  3 7 0  2 7 0  3 7 0  7 7 0  7 7 0  7 7 0  7 7 0  7 7 0  7 7 0  5 7 0
11 12 0  11 12 0  5 7 0  5 15 0  5 7 0  5 7 0  5 7 0  5 7 0  5 7 0  4 7 0  4 7 0  4 30 0  4 30 0  4 30 0  4 30 0  4 30 0  4 30 0  4 7 0  3 7 0  3 7 0  3 7 0  3 7 0  3 7 0  7 7 0  7 7 0  7 7 0  7 7 0  7 7 0  7 7 0  6 7 0
11 12 0  12 12 0  5 15 0  5 15 0  5 15 0  5 15 0  5 15 0  5 15 0  4 15 0  4 15 0  4 15 0  4 30 0  4 15 0  4 7 0  4 30 0  4 30 0  4 30 0  4 30 0  3 15 0  3 15 0  3 15 0  3 30 0  3 30 0  6 15 0  6 7 0  6 7 0  6 7 0  5 7 0  6 7 0  6 7 0
12 12 0  12 7 0  5 15 0  5 15 0  5 15 0  5 15 0  5 15 0  4 7 0  4 15 0  4 15 0  4 15 0  4 30 0  4 30 0  4 15 0  4 15 0  4 30 0  4 30 0  4 30 0  4 30 0  3 15 0  3 15 0  3 7 0  3 7 0  6 15 0  6 7 0  5 7 0  5 7 0  6 7 0  6 7 0  6 7 0
11 7 0  11 7 0  5 7 0  5 15 0  5 15 0  5 7 0  4 7 0  4 7 0  4 7 0  4 7 0  4 7 0  4 30 0  4 7 0  4 30 0  4 7 0  3 7 0  3 12 0  2 12 0  2 12 0  3 12 0  3 7 0  3 7 0  3 7 0  5 30 0  5 30 0  5 30 0  5 7 0  5 7 0  5 7 0  5 7 0
11 12 0  10 7 0  5 7 0  5 15 0  5 15 0  4 7 0  4 7 0  4 7 0  4 7 0  4 7 0  4 7 0  4 30 0  4 30 0  4 30 0  3 30 0  3 30 0  3 30 0  3 12 0  3 7 0  3 12 0  3 7 0  3 7 0  2 7 0  5 7 0  5 7 0  5 7 0  5 7 0  5 7 0  5 7 0  5 7 0
10 12 0  10 7 0  5 7 0  5 15 0  4 7 0  4 7 0  4 7 0  4 7 0  4 7 0  4 7 0  4 7 0  4 7 0  4 30 0  3 30 0  2 7 0  3 30 0  3 30 0  3 7 0  2 30 0  2 30 0  2 30 0  2 7 0  2 7 0  4 7 0  4 7 0  4 7 0  4 7 0  4 7 0  4 7 0  4 7 0
10 12 0  11 12 0  5 7 0  4 15 0  4 7 0  4 7 0  4 7 0  4 7 0  4 7 0  4 7 0  4 7 0  4 7 0  2 7 0  3 30 0  3 7 0  3 7 0  3 30 0  3 7 0  3 7 0  2 30 0  2 30 0  2 30 0  2 7 0  4 7 0  4 7 0  4 30 0  4 30 0  4 7 0  4 7 0  4 7 0
11 12 0  11 12 0  4 7 0  4 7 0  4 7 0  4 7 0  4 7 0  4 7 0  4 7 0  4 7 0  4 7 0  3 7 0  3 7 0  3 7 0  3 30 0  3 30 0  3 30 0  3 7 0  3 7 0  1 30 0  1 30 0  1 30 0  1 30 0  3 7 0  3 7 0  3 30 0  3 30 0  3 7 0  3 7 0  3 7 0
11 12 0  10 12 0  4 15 0  4 7 0  4 7 0  4 7 0  4 15 0  4 15 0  4 15 0  4 15 0  3 15 0  3 30 0  3 7 0  3 15 0  3 30 0  3 30 0  3 30 0  3 7 0  2 15 0  2 15 0  1 30 0  1 30 0  1 30 0  1 30 0  3 7 0  3 7 0  3 30 0  3 30 0  3 7 0  3 7 0
10 12 0  9 12 0  4 15 0  4 7 0  4 7 0  4 15 0  4 15 0  3 15 0  4 15 0  3 15 0  3 7 0  3 15 0  3 7 0  3 15 0  3 30 0  3 7 0  3 7 0  2 15 0  2 15 0  2 15 0  2 30 0  1 30 0  1 30 0  1 30 0  1 30 0  2 30 0  2 30 0  2 7 0  2 30 0  2 30 0
9 12 0  9 12 0  4 7 0  4 15 0  4 15 0  4 7 0  4 7 0  3 7 0  3 7 0  1 7 0  3 7 0  3 7 0  3 7 0  3 7 0  3 7 0  3 7 0  2 7 0  2 7 0  2 7 0  2 7 0  2 7 0  2 30 0  1 30 0  1 30 0  1 30 0  1 30 0  2 7 0  2 30 0  2 30 0  2 7 0
9 12 0  10 12 0  4 7 0  4 15 0  4 15 0  4 7 0  4 7 0  3 7 0  3 7 0  1 7 0  3 7 0  3 7 0  3 7 0  3 7 0  3 7 0  2 7 0  2 7 0  2 7 0  2 7 0  2 7 0  2 7 0  2 30 0  2 30 0  1 30 0  1 30 0  1 12 0  1 7 0  1 7 0  1 7 0  1 7 0
10 12 0  10 7 0  4 7 0  4 15 0  4 7 0  4 7 0  3 7 0  3 7 0  2 7 0  3 7 0  3 7 0  3 7 0  3 7 0  3 7 0  2 30 0  2 7 0  2 7 0  2 7 0  2 7 0  2 7 0  2 7 0  2 7 0  1 30 0  1 30 0  1 30 0  1 30 0  1 12 0  1 7 0  1 7 0  1 7 0
10 12 0  9 12 0  4 7 0  4 15 0  3 15 0  3 7 0  3 7 0  3 7 0  3 7 0  3 7 0  3 7 0  3 7 0  3 7 0  2 30 0  2 30 0  2 7 0  2 7 0  2 7 0  2 7 0  2 7 0  2 7 0  1 7 0  1 7 0  1 7 0  1 30 0  0 30 0  0 30 0  0 30 0  1 30 0  1 30 0
9 12 0  8 12 0  4 7 0  4 15 0  3 15 0  1 7 0  3 7 0  3 7 0  3 7 0  3 7 0  3 7 0  3 7 0  2 7 0  2 7 0  2 30 0  2 7 0  2 7 0  2 7 0  2 7 0  2 7 0  1 23 0  1 7 0  1 7 0  1 7 0  1 30 0  0 30 0  0 30 0  0 30 0  0 30 0  1 30 0
8 12 0  8 12 0  2 15 0  3 7 0  3 7 0  2 15 0  3 15 0  3 15 0  3 15 0  3 15 0  3 15 0  2 15 0  2 7 0  2 15 0  2 30 0  2 15 0  2 15 0  2 15 0  2 15 0  1 23 0  1 23 0  1 15 0  1 23 0  1 15 0  1 30 0  1 7 0  0 30 0  0 30 0  0 30 0  0 30 0
8 12 0  9 12 0  3 15 0  3 15 0  2 15 0  3 15 0  2 15 0  3 15 0  3 15 0  3 15 0  2 15 0  2 7 0  2 7 0  2 7 0  2 15 0  2 30 0  2 30 0  2 30 0  1 15 0  1 15 0  1 15 0  1 15 0  1 23 0  1 23 0  1 7 0  1 7 0  1 30 0  0 30 0  0 30 0  0 30 0
