P3
# ESTIMATED from one isometric reference; see README.md.
# R: whole height; G: tile_palette.txt index; B: 0.
# Origin: rear corner. Columns down-right; rows down-left.
23 17
255
14 4 0	14 4 0	5 3 0	5 3 0	5 3 0	4 3 0	4 3 0	4 3 0	4 3 0	4 3 0	4 3 0	3 3 0	0 14 0	0 14 0	0 14 0	0 14 0	0 14 0	0 14 0	0 14 0	0 14 0	0 14 0	0 14 0	0 14 0
14 4 0	14 4 0	5 3 0	5 3 0	4 3 0	4 3 0	4 3 0	4 3 0	4 3 0	4 3 0	4 3 0	3 3 0	0 14 0	0 14 0	0 14 0	0 14 0	0 14 0	0 14 0	0 14 0	0 14 0	0 14 0	0 14 0	0 14 0
14 4 0	14 4 0	5 3 0	4 3 0	4 3 0	4 3 0	4 3 0	4 3 0	4 3 0	4 3 0	3 3 0	3 3 0	0 14 0	0 14 0	0 14 0	0 14 0	0 14 0	0 14 0	0 14 0	0 14 0	0 14 0	0 14 0	0 14 0
13 4 0	13 4 0	5 3 0	4 3 0	4 3 0	4 3 0	4 3 0	4 3 0	3 4 0	3 4 0	3 4 0	3 3 0	0 14 0	0 14 0	0 14 0	0 14 0	0 14 0	2 14 0	2 14 0	2 14 0	0 14 0	0 14 0	0 14 0
13 4 0	13 4 0	4 3 0	4 3 0	4 3 0	4 3 0	4 3 0	4 3 0	3 3 0	3 4 0	3 4 0	3 3 0	0 14 0	0 14 0	0 14 0	0 14 0	0 14 0	2 14 0	2 14 0	2 4 0	0 14 0	0 14 0	0 14 0
12 4 0	13 4 0	4 3 0	4 3 0	4 3 0	4 3 0	4 3 0	4 3 0	3 3 0	3 3 0	3 3 0	3 3 0	0 14 0	0 14 0	0 14 0	0 14 0	0 14 0	0 14 0	0 14 0	0 14 0	0 14 0	0 14 0	0 14 0
13 3 0	13 3 0	4 3 0	4 3 0	4 3 0	4 3 0	4 3 0	4 3 0	3 3 0	3 3 0	3 3 0	3 3 0	0 14 0	0 14 0	0 14 0	0 14 0	0 14 0	0 14 0	0 14 0	0 14 0	0 14 0	0 14 0	0 14 0
13 4 0	12 4 0	12 4 0	4 3 0	4 7 0	4 7 0	4 7 0	3 7 0	3 7 0	3 3 0	3 7 0	3 7 0	3 7 0	2 7 0	2 3 0	2 7 0	2 7 0	2 7 0	2 7 0	1 11 0	1 7 0	1 7 0	1 7 0
13 3 0	12 4 0	12 3 0	4 3 0	4 7 0	4 7 0	4 7 0	3 7 0	3 7 0	3 7 0	3 7 0	3 7 0	3 7 0	2 7 0	2 7 0	2 7 0	2 7 0	2 3 0	2 3 0	1 7 0	1 11 0	1 7 0	1 7 0
13 4 0	12 4 0	12 4 0	4 3 0	4 7 0	4 3 0	4 7 0	3 7 0	3 7 0	3 7 0	3 3 0	3 7 0	3 3 0	2 7 0	2 3 0	2 3 0	2 7 0	2 3 0	2 3 0	1 11 0	1 7 0	1 7 0	1 7 0
12 4 0	13 4 0	4 3 0	4 3 0	4 3 0	3 3 0	3 3 0	3 3 0	3 3 0	3 3 0	3 3 0	3 3 0	0 14 0	0 14 0	0 14 0	0 14 0	0 14 0	0 14 0	0 14 0	0 14 0	0 14 0	0 14 0	0 14 0
13 4 0	13 4 0	4 3 0	4 3 0	4 3 0	3 3 0	3 3 0	3 3 0	3 3 0	3 3 0	3 3 0	2 4 0	2 4 0	2 4 0	0 14 0	0 14 0	0 14 0	0 14 0	0 14 0	0 14 0	0 14 0	0 14 0	0 14 0
13 4 0	13 3 0	4 3 0	4 3 0	3 3 0	3 3 0	3 3 0	3 3 0	3 3 0	3 3 0	3 3 0	2 3 0	2 4 0	2 4 0	0 14 0	0 14 0	2 4 0	2 14 0	2 14 0	0 14 0	0 14 0	0 14 0	0 14 0
14 4 0	14 4 0	4 3 0	4 3 0	3 3 0	3 3 0	3 3 0	3 3 0	3 3 0	3 3 0	2 3 0	2 4 0	2 4 0	2 4 0	0 14 0	0 14 0	2 4 0	2 14 0	2 14 0	0 14 0	0 14 0	0 14 0	0 14 0
14 4 0	14 4 0	4 3 0	3 3 0	3 3 0	3 3 0	3 3 0	3 3 0	3 3 0	3 3 0	2 3 0	2 3 0	0 14 0	0 14 0	0 14 0	0 14 0	2 14 0	2 14 0	2 4 0	0 14 0	0 14 0	0 14 0	0 14 0
14 4 0	14 4 0	3 3 0	3 3 0	3 3 0	3 3 0	3 3 0	3 3 0	3 3 0	2 3 0	2 3 0	2 3 0	0 14 0	0 14 0	0 14 0	0 14 0	0 14 0	0 14 0	0 14 0	0 14 0	0 14 0	0 14 0	0 14 0
5 3 0	14 4 0	3 3 0	3 3 0	3 3 0	3 3 0	3 3 0	3 3 0	2 3 0	2 3 0	2 3 0	2 3 0	0 14 0	0 14 0	0 14 0	0 14 0	0 14 0	0 14 0	0 14 0	0 14 0	0 14 0	0 14 0	0 14 0
