P3
10 14
255
4 30 0  4 30 0  4 30 0  6 23 0  6 33 0  7 33 0  8 33 0  9 33 0  9 23 0  9 23 0
4 30 0  4 30 0  4 30 0  6 23 0  6 33 0  9 33 0  10 33 0  10 33 0  10 33 0  9 23 0
4 30 0  7 4 0  7 23 0  7 23 0  7 23 0  11 12 0  11 12 0  10 33 0  10 33 0  9 23 0
5 4 0  7 23 0  7 23 0  7 23 0  8 23 0  11 12 0  11 12 0  10 33 0  10 23 0  8 23 0
8 23 0  8 23 0  7 23 0  8 23 0  8 23 0  11 12 0  11 12 0  9 23 0  8 23 0  8 23 0
9 23 0  9 23 0  9 23 0  9 23 0  9 23 0  11 12 0  11 12 0  9 23 0  7 23 0  7 23 0
9 23 0  9 23 0  10 23 0  10 23 0  10 23 0  11 12 0  11 12 0  7 23 0  7 23 0  7 23 0
8 23 0  10 23 0  10 23 0  10 23 0  10 23 0  11 12 0  11 12 0  9 23 0  8 23 0  7 23 0
8 23 0  10 23 0  10 23 0  10 23 0  11 23 0  11 12 0  11 23 0  11 23 0  9 23 0  8 23 0
7 23 0  8 23 0  8 23 0  10 23 0  11 23 0  27 40 0  27 40 0  27 40 0  8 23 0  8 23 0
4 30 0  6 23 0  6 23 0  8 23 0  17 40 0  27 40 0  31 40 0  27 40 0  17 40 0  6 23 0
4 30 0  4 30 0  4 30 0  4 30 0  9 23 0  27 40 0  27 40 0  27 40 0  11 33 0  6 23 0
4 30 0  4 30 0  4 30 0  4 30 0  7 33 0  17 40 0  13 23 0  17 40 0  11 33 0  4 30 0
4 30 0  4 30 0  7 33 0  7 33 0  7 33 0  7 33 0  8 33 0  9 33 0  10 33 0  4 30 0
