P3
10 8
32
1 23 0  1 23 0  1 23 0  1 23 0  0 23 0  1 23 0  1 23 0  1 23 0  2 23 0  2 23 0
1 4 0  1 4 0  3 4 0  4 4 0  0 23 0  1 23 0  1 23 0  6 4 0  5 4 0  3 4 0
8 23 0  8 23 0  8 4 0  6 4 0  6 4 0  7 4 0  7 4 0  7 4 0  5 23 0  4 4 0
8 4 0  8 23 0  8 4 0  8 4 0  7 23 0  7 23 0  7 23 0  7 23 0  5 23 0  7 4 0
6 23 0  7 4 0  9 4 0  11 4 0  7 23 0  7 23 0  9 4 0  8 4 0  6 23 0  8 4 0
8 4 0  10 4 0  10 4 0  11 23 0  12 4 0  12 4 0  13 4 0  13 4 0  7 23 0  7 23 0
10 4 0  11 4 0  11 23 0  11 23 0  12 23 0  12 23 0  13 23 0  13 23 0  13 23 0  13 4 0
10 4 0  11 4 0  14 4 0  14 4 0  12 4 0  12 23 0  13 23 0  13 23 0  13 4 0  13 4 0
