P3
# R: nearest whole height (h); G: tile_palette.txt; B: 0
# One pixel per tile. Highest stored surface; half heights round up.
# Source: https://fftcompanion.app/maps/location/mountGerminas
# Original FFHacktics page could not be inspected.
10 12
255
2 11 0	3 11 0	4 17 0	5 17 0	6 17 0	7 11 0	7 11 0	0 11 0	0 8 0	0 11 0
2 11 0	3 11 0	4 8 0	5 17 0	6 17 0	7 11 0	7 11 0	3 0 0	0 11 0	0 11 0
7 0 0	7 0 0	4 11 0	5 11 0	6 8 0	6 8 0	6 8 0	6 11 0	1 11 0	1 11 0
10 0 0	10 0 0	10 0 0	6 17 0	6 11 0	7 11 0	7 8 0	9 0 0	9 0 0	1 11 0
10 0 0	9 17 0	8 17 0	7 17 0	12 0 0	12 0 0	8 11 0	8 11 0	9 0 0	5 0 0
9 11 0	9 17 0	12 0 0	15 0 0	15 0 0	15 0 0	8 11 0	7 11 0	9 0 0	5 0 0
9 11 0	9 11 0	12 0 0	15 0 0	15 0 0	15 0 0	6 11 0	6 17 0	8 0 0	5 0 0
8 0 0	8 0 0	8 0 0	15 0 0	15 0 0	12 0 0	5 17 0	4 17 0	1 11 0	0 11 0
4 0 0	4 0 0	4 0 0	3 11 0	4 17 0	5 17 0	5 17 0	4 8 0	1 8 0	0 11 0
1 11 0	1 11 0	2 11 0	3 8 0	4 8 0	5 8 0	6 0 0	6 0 0	0 11 0	0 8 0
0 11 0	1 8 0	2 8 0	4 0 0	5 0 0	6 0 0	6 0 0	0 11 0	1 8 0	1 8 0
0 8 0	1 8 0	1 11 0	1 11 0	1 11 0	0 11 0	0 11 0	0 11 0	1 11 0	1 11 0
