P3
# R: nearest whole height (h); G: tile_palette.txt; B: 0
# One pixel per tile. Highest stored surface; half heights round up.
# Source: https://ffhacktics.com/wiki/MAP098_Outside_Castle_Gate_in_Lesalia
# Extracted from the user-supplied saved HTML tile table.
# Columns increase x; rows increase numbered wiki y.
12 11
255
22 4 0	6 11 0	4 11 0	2 11 0	1 8 0	0 8 0	1 8 0	2 11 0	4 11 0	6 11 0	6 11 0	6 11 0
25 4 0	23 4 0	25 4 0	2 11 0	1 8 0	0 8 0	1 11 0	2 11 0	4 11 0	6 11 0	6 11 0	6 11 0
23 4 0	23 4 0	23 4 0	1 11 0	1 8 0	0 8 0	1 11 0	2 11 0	4 11 0	6 11 0	6 11 0	6 11 0
25 4 0	23 4 0	25 4 0	6 4 0	6 4 0	6 4 0	6 4 0	6 4 0	6 4 0	6 4 0	6 4 0	6 4 0
20 4 0	20 4 0	19 4 0	4 4 0	4 4 0	4 4 0	4 4 0	4 4 0	4 4 0	4 4 0	4 4 0	4 4 0
21 4 0	21 4 0	19 4 0	4 4 0	4 4 0	4 4 0	4 4 0	4 4 0	4 4 0	4 4 0	4 4 0	4 4 0
20 4 0	20 4 0	19 4 0	4 4 0	4 4 0	4 4 0	4 4 0	4 4 0	4 4 0	4 4 0	4 4 0	4 4 0
21 4 0	21 4 0	19 4 0	4 4 0	4 4 0	4 4 0	4 4 0	4 4 0	4 4 0	4 4 0	4 4 0	4 4 0
25 4 0	23 4 0	25 4 0	6 4 0	6 4 0	6 4 0	6 4 0	6 4 0	6 4 0	6 4 0	6 4 0	6 4 0
23 4 0	23 4 0	23 4 0	1 11 0	0 8 0	0 11 0	1 11 0	2 11 0	4 11 0	6 11 0	6 11 0	6 11 0
25 4 0	23 4 0	25 4 0	1 11 0	0 8 0	0 11 0	1 11 0	2 11 0	4 11 0	6 11 0	6 11 0	6 11 0
