P3
9 8
255
11 53 0  11 53 0  11 53 0  11 53 0  11 53 0  11 53 0  11 53 0  11 53 0  11 53 0
2 52 0  1 52 0  3 51 0  0 12 0  0 12 0  0 12 0  0 12 0  3 51 0  1 51 0
1 52 0  0 12 0  10 33 0  0 12 0  0 12 0  0 12 0  0 12 0  0 12 0  1 51 0
10 33 0  10 33 0  11 33 0  10 33 0  1 51 0  1 51 0  1 51 0  0 12 0  1 51 0
5 33 0  0 20 0  10 33 0  0 12 0  0 12 0  0 12 0  0 12 0  0 12 0  0 12 0
5 33 0  0 20 0  10 33 0  0 12 0  0 12 0  0 12 0  0 12 0  10 33 0  0 12 0
0 20 0  0 20 0  10 33 0  10 33 0  10 33 0  10 33 0  10 33 0  11 33 0  10 33 0
5 33 0  5 33 0  10 33 0  4 51 0  0 12 0  1 51 0  0 12 0  10 33 0  0 12 0
