P3
22 30
255
7 13 0  7 7 0  6 7 0  4 7 0  4 7 0  4 13 0  4 7 0  4 7 0  4 7 0  4 13 0  4 7 0  3 13 0  3 13 0  3 13 0  2 30 0  2 30 0  2 30 0  2 30 0  1 30 0  1 30 0  1 30 0  1 30 0
7 13 0  7 13 0  7 13 0  7 13 0  5 7 0  4 30 0  4 13 0  4 7 0  4 13 0  4 13 0  4 13 0  3 13 0  3 13 0  3 13 0  2 30 0  2 30 0  2 30 0  1 30 0  1 30 0  1 30 0  1 30 0  1 30 0
7 13 0  7 13 0  7 13 0  7 13 0  4 7 0  4 30 0  4 7 0  4 7 0  4 13 0  4 13 0  4 13 0  3 13 0  3 13 0  4 13 0  4 13 0  4 13 0  4 13 0  1 30 0  1 30 0  1 30 0  1 30 0  1 30 0
7 13 0  7 13 0  7 13 0  7 13 0  4 7 0  4 30 0  4 7 0  4 13 0  4 13 0  4 13 0  4 13 0  3 13 0  3 13 0  4 13 0  4 13 0  4 13 0  4 13 0  1 30 0  1 30 0  1 30 0  1 30 0  0 30 0
7 13 0  7 13 0  7 13 0  7 13 0  4 13 0  4 13 0  4 13 0  4 13 0  4 13 0  4 13 0  3 13 0  3 30 0  3 13 0  4 13 0  4 13 0  4 13 0  4 13 0  1 30 0  2 13 0  2 7 0  2 7 0  0 30 0
5 13 0  5 13 0  4 13 0  4 7 0  3 30 0  3 30 0  2 30 0  4 13 0  4 13 0  3 13 0  3 13 0  3 30 0  3 30 0  4 13 0  4 13 0  4 13 0  4 13 0  1 30 0  2 7 0  2 13 0  2 13 0  0 30 0
5 13 0  4 13 0  4 13 0  4 7 0  3 30 0  2 30 0  2 30 0  4 7 0  3 13 0  3 13 0  3 13 0  3 30 0  3 30 0  3 13 0  1 30 0  1 30 0  1 30 0  1 30 0  2 7 0  2 13 0  2 30 0  0 30 0
4 7 0  4 13 0  4 13 0  4 7 0  2 30 0  2 30 0  2 30 0  4 13 0  3 13 0  3 13 0  3 7 0  3 13 0  3 30 0  3 13 0  1 30 0  1 30 0  1 30 0  0 30 0  0 30 0  0 30 0  0 30 0  0 30 0
4 13 0  4 13 0  4 13 0  4 7 0  2 30 0  2 30 0  2 30 0  3 7 0  3 13 0  3 13 0  3 13 0  3 7 0  3 13 0  3 13 0  1 30 0  1 30 0  0 30 0  0 30 0  0 30 0  0 30 0  0 30 0  0 30 0
4 13 0  4 13 0  4 13 0  4 7 0  2 30 0  2 30 0  2 30 0  3 13 0  3 13 0  3 13 0  3 13 0  3 7 0  3 13 0  3 13 0  1 30 0  0 30 0  0 30 0  0 30 0  0 30 0  0 30 0  0 30 0  0 30 0
4 13 0  4 13 0  4 13 0  4 7 0  2 30 0  2 30 0  2 30 0  3 13 0  4 13 0  4 13 0  4 13 0  3 13 0  3 13 0  2 13 0  0 30 0  0 30 0  0 30 0  0 30 0  0 30 0  0 30 0  0 30 0  0 30 0
4 13 0  4 13 0  4 13 0  4 13 0  2 30 0  2 30 0  1 30 0  3 13 0  4 13 0  4 13 0  4 13 0  3 13 0  3 13 0  2 13 0  0 30 0  0 30 0  0 30 0  0 30 0  0 30 0  0 30 0  0 30 0  0 30 0
4 13 0  4 13 0  4 13 0  4 13 0  2 30 0  1 30 0  1 30 0  3 13 0  4 13 0  4 13 0  4 13 0  3 13 0  3 13 0  2 13 0  0 30 0  0 30 0  0 30 0  0 30 0  0 30 0  0 30 0  0 30 0  0 30 0
4 13 0  4 7 0  4 13 0  3 7 0  1 30 0  1 30 0  1 30 0  3 13 0  4 13 0  4 13 0  4 13 0  3 13 0  3 13 0  2 7 0  0 30 0  0 30 0  0 30 0  0 30 0  0 30 0  0 30 0  0 30 0  0 30 0
4 13 0  4 13 0  3 7 0  3 7 0  1 30 0  1 30 0  1 30 0  3 13 0  3 13 0  3 13 0  2 13 0  3 13 0  3 13 0  2 13 0  0 30 0  0 30 0  0 30 0  0 30 0  0 30 0  0 30 0  0 30 0  0 30 0
4 13 0  4 13 0  3 7 0  3 7 0  1 30 0  1 30 0  1 30 0  3 13 0  3 13 0  2 13 0  2 13 0  3 13 0  3 13 0  2 13 0  0 30 0  0 30 0  0 30 0  0 30 0  0 30 0  0 30 0  0 30 0  0 30 0
2 30 0  2 30 0  2 30 0  2 13 0  2 13 0  2 13 0  2 13 0  2 13 0  2 13 0  2 13 0  2 13 0  3 13 0  3 13 0  2 30 0  2 13 0  2 13 0  2 13 0  0 30 0  0 30 0  0 30 0  0 30 0  0 30 0
2 30 0  2 30 0  2 30 0  2 30 0  2 30 0  2 13 0  2 13 0  2 13 0  2 13 0  2 13 0  2 13 0  3 13 0  3 13 0  2 13 0  2 30 0  2 30 0  2 30 0  0 30 0  0 30 0  0 30 0  0 30 0  0 30 0
3 30 0  3 30 0  3 30 0  3 30 0  1 30 0  0 30 0  0 30 0  0 30 0  0 30 0  0 30 0  0 30 0  0 30 0  0 30 0  0 30 0  0 30 0  0 30 0  0 30 0  0 30 0  0 30 0  0 30 0  0 30 0  0 30 0
3 30 0  3 30 0  3 30 0  3 30 0  0 30 0  0 30 0  0 30 0  0 30 0  0 30 0  0 30 0  0 30 0  0 30 0  0 30 0  0 30 0  0 30 0  0 30 0  0 30 0  0 30 0  0 30 0  0 30 0  0 30 0  0 30 0
3 7 0  3 13 0  3 13 0  3 13 0  0 30 0  0 30 0  0 30 0  0 30 0  0 30 0  3 13 0  3 13 0  3 13 0  3 30 0  0 30 0  0 30 0  0 30 0  0 30 0  0 30 0  0 30 0  0 30 0  0 30 0  0 30 0
3 7 0  3 7 0  3 13 0  3 7 0  0 30 0  0 30 0  0 30 0  0 30 0  0 30 0  3 13 0  3 13 0  3 13 0  3 30 0  0 30 0  0 30 0  0 30 0  0 30 0  0 30 0  0 30 0  0 30 0  0 30 0  0 30 0
3 7 0  3 7 0  3 7 0  3 7 0  0 30 0  0 30 0  0 30 0  0 30 0  0 30 0  3 13 0  3 13 0  3 13 0  3 30 0  0 30 0  0 30 0  0 30 0  0 30 0  0 30 0  0 30 0  0 30 0  0 30 0  0 30 0
3 13 0  3 13 0  4 7 0  4 7 0  4 7 0  4 7 0  0 30 0  0 30 0  0 30 0  3 13 0  3 13 0  3 13 0  3 13 0  0 30 0  0 30 0  0 30 0  0 30 0  0 30 0  0 30 0  0 30 0  0 30 0  0 30 0
3 13 0  3 13 0  4 13 0  4 13 0  4 7 0  4 7 0  0 30 0  0 30 0  0 30 0  0 30 0  0 30 0  0 30 0  0 30 0  0 30 0  0 30 0  0 30 0  0 30 0  0 30 0  0 30 0  0 30 0  0 30 0  0 30 0
3 13 0  3 13 0  4 13 0  4 13 0  4 7 0  4 13 0  0 30 0  0 30 0  0 30 0  0 30 0  0 30 0  0 30 0  0 30 0  0 30 0  0 30 0  0 30 0  0 30 0  0 30 0  0 30 0  0 30 0  0 30 0  0 30 0
3 13 0  2 13 0  4 13 0  4 13 0  4 13 0  4 13 0  0 30 0  0 30 0  0 30 0  0 30 0  0 30 0  0 30 0  0 30 0  0 30 0  0 30 0  0 30 0  0 30 0  0 30 0  0 30 0  0 30 0  0 30 0  0 30 0
2 13 0  2 13 0  4 13 0  4 13 0  4 13 0  4 13 0  0 30 0  0 30 0  0 30 0  0 30 0  0 30 0  0 30 0  0 30 0  0 30 0  0 30 0  0 30 0  0 30 0  0 30 0  0 30 0  0 30 0  0 30 0  0 30 0
2 13 0  2 7 0  2 13 0  2 13 0  0 30 0  0 30 0  0 30 0  0 30 0  0 30 0  0 30 0  0 30 0  0 30 0  0 30 0  0 30 0  0 30 0  0 30 0  0 30 0  0 30 0  0 30 0  0 30 0  0 30 0  0 30 0
2 13 0  2 13 0  2 13 0  2 13 0  0 30 0  0 30 0  0 30 0  0 30 0  0 30 0  0 30 0  0 30 0  0 30 0  0 30 0  0 30 0  0 30 0  0 30 0  0 30 0  0 30 0  0 30 0  0 30 0  0 30 0  0 30 0
