P3
21 27
255
13 13 0  13 13 0  13 13 0  13 7 0  10 13 0  10 13 0  9 13 0  9 13 0  9 13 0  9 15 0  9 13 0  8 13 0  8 7 0  8 7 0  7 7 0  6 15 0  6 13 0  6 13 0  6 13 0  6 13 0  6 13 0
13 13 0  13 13 0  13 13 0  13 15 0  10 13 0  9 13 0  9 13 0  9 13 0  9 13 0  9 15 0  10 13 0  10 13 0  10 13 0  7 13 0  7 13 0  7 7 0  6 13 0  6 13 0  6 13 0  6 13 0  6 13 0
13 13 0  13 13 0  13 13 0  13 15 0  9 13 0  9 13 0  9 13 0  9 13 0  9 13 0  8 15 0  10 13 0  10 13 0  10 13 0  7 13 0  6 13 0  6 15 0  6 7 0  6 7 0  6 13 0  6 13 0  5 13 0
13 13 0  13 13 0  13 13 0  13 7 0  9 13 0  10 13 0  10 13 0  10 13 0  10 13 0  8 15 0  10 13 0  10 13 0  10 13 0  6 13 0  6 13 0  6 15 0  6 7 0  6 7 0  6 13 0  5 13 0  5 13 0
13 15 0  13 15 0  13 15 0  13 15 0  9 15 0  10 15 0  10 15 0  10 15 0  10 15 0  7 15 0  7 7 0  7 7 0  6 15 0  6 15 0  6 15 0  6 15 0  6 15 0  5 15 0  5 15 0  5 15 0  4 7 0
9 13 0  9 13 0  9 13 0  9 15 0  9 13 0  10 13 0  10 13 0  10 13 0  10 13 0  7 15 0  7 7 0  6 13 0  8 7 0  8 13 0  8 13 0  8 15 0  5 13 0  5 13 0  5 13 0  4 13 0  4 13 0
9 13 0  9 13 0  9 13 0  9 15 0  8 13 0  10 13 0  10 13 0  10 13 0  10 13 0  7 15 0  6 13 0  6 13 0  8 13 0  8 13 0  8 13 0  8 15 0  5 13 0  5 13 0  4 13 0  4 13 0  4 13 0
9 13 0  9 13 0  10 13 0  10 15 0  10 13 0  8 13 0  7 13 0  7 13 0  6 13 0  6 15 0  6 13 0  6 13 0  8 13 0  8 13 0  8 13 0  8 15 0  5 13 0  4 13 0  4 13 0  3 13 0  3 13 0
9 13 0  9 13 0  10 13 0  10 15 0  10 13 0  7 13 0  7 13 0  6 13 0  6 13 0  6 15 0  6 13 0  6 13 0  8 13 0  8 13 0  8 13 0  8 15 0  4 13 0  4 7 0  3 13 0  3 13 0  3 13 0
8 13 0  8 13 0  10 13 0  10 15 0  10 13 0  7 13 0  6 13 0  6 13 0  6 13 0  6 15 0  6 13 0  5 13 0  5 13 0  5 13 0  4 13 0  4 15 0  4 13 0  3 13 0  3 13 0  3 7 0  3 7 0
8 15 0  8 15 0  10 15 0  10 15 0  10 15 0  6 15 0  6 15 0  6 15 0  6 15 0  6 15 0  5 15 0  5 15 0  5 15 0  4 15 0  4 15 0  4 15 0  5 15 0  5 15 0  5 15 0  5 15 0  3 15 0
8 13 0  7 13 0  7 13 0  6 15 0  6 13 0  6 13 0  6 13 0  6 13 0  6 13 0  5 15 0  5 13 0  5 13 0  4 13 0  4 13 0  3 13 0  3 15 0  5 13 0  5 13 0  5 13 0  5 13 0  2 13 0
7 13 0  7 13 0  6 13 0  6 15 0  6 7 0  6 13 0  6 13 0  6 13 0  5 7 0  5 15 0  4 13 0  4 13 0  4 13 0  3 13 0  3 13 0  3 15 0  5 13 0  5 13 0  5 13 0  5 13 0  2 13 0
7 7 0  6 13 0  6 13 0  6 15 0  7 13 0  7 7 0  7 13 0  7 13 0  5 7 0  4 15 0  5 13 0  5 13 0  5 13 0  5 13 0  3 13 0  3 15 0  5 13 0  5 13 0  5 13 0  5 13 0  1 13 0
6 13 0  6 13 0  6 13 0  6 15 0  7 13 0  7 13 0  7 13 0  7 13 0  4 13 0  4 15 0  5 13 0  5 13 0  5 13 0  5 13 0  3 13 0  3 15 0  2 13 0  2 13 0  2 13 0  1 13 0  1 13 0
6 13 0  6 13 0  6 13 0  6 15 0  7 13 0  7 13 0  7 13 0  7 7 0  4 13 0  4 15 0  5 13 0  5 13 0  5 13 0  5 7 0  3 13 0  2 15 0  2 13 0  2 7 0  1 13 0  1 13 0  1 13 0
6 15 0  6 15 0  6 15 0  5 15 0  7 15 0  7 15 0  7 15 0  7 15 0  3 15 0  3 15 0  5 15 0  5 15 0  5 15 0  5 15 0  2 15 0  2 15 0  2 15 0  1 15 0  1 15 0  0 15 0  0 15 0
6 13 0  6 7 0  5 13 0  5 15 0  4 13 0  4 13 0  4 13 0  3 13 0  3 13 0  2 15 0  3 13 0  3 13 0  3 13 0  2 13 0  2 13 0  1 23 0  1 13 0  1 13 0  0 13 0  0 13 0  0 13 0
6 13 0  6 13 0  6 7 0  4 15 0  4 13 0  4 13 0  3 13 0  3 13 0  3 13 0  3 15 0  3 13 0  2 13 0  2 13 0  2 13 0  1 13 0  1 15 0  1 13 0  0 23 0  0 13 0  0 13 0  0 23 0
6 13 0  6 13 0  6 7 0  4 15 0  4 13 0  3 13 0  3 13 0  3 13 0  3 13 0  3 15 0  2 13 0  2 13 0  2 13 0  2 13 0  2 13 0  2 15 0  2 13 0  0 23 0  0 13 0  0 13 0  0 23 0
6 13 0  6 13 0  6 13 0  4 15 0  3 13 0  3 13 0  3 13 0  3 13 0  3 13 0  2 15 0  2 13 0  2 13 0  1 13 0  2 13 0  2 13 0  2 15 0  2 13 0  0 23 0  2 7 0  2 7 0  2 13 0
6 13 0  6 13 0  6 13 0  3 15 0  3 13 0  3 13 0  3 7 0  3 13 0  2 13 0  2 15 0  2 13 0  1 13 0  1 23 0  2 13 0  2 13 0  2 15 0  2 13 0  0 23 0  2 13 0  2 7 0  2 13 0
4 15 0  3 15 0  3 15 0  3 15 0  3 15 0  4 15 0  4 15 0  4 7 0  4 15 0  1 15 0  1 15 0  1 15 0  0 15 0  2 7 0  2 15 0  2 15 0  2 15 0  0 23 0  2 15 0  2 7 0  2 7 0
3 13 0  3 13 0  3 13 0  2 7 0  3 13 0  4 13 0  4 13 0  4 13 0  4 13 0  1 15 0  1 13 0  0 13 0  0 13 0  0 13 0  0 13 0  0 15 0  0 13 0  0 13 0  0 13 0  0 13 0  0 13 0
3 13 0  2 13 0  3 13 0  3 15 0  2 13 0  4 13 0  4 13 0  4 13 0  4 13 0  1 15 0  0 13 0  0 23 0  0 13 0  0 23 0  0 23 0  0 23 0  0 13 0  0 23 0  0 23 0  0 13 0  0 13 0
2 13 0  2 13 0  3 13 0  2 15 0  2 13 0  4 13 0  4 13 0  4 13 0  4 13 0  0 15 0  0 13 0  0 13 0  0 23 0  0 23 0  0 23 0  0 15 0  0 13 0  0 23 0  0 13 0  0 13 0  0 13 0
2 13 0  3 13 0  2 13 0  2 15 0  1 13 0  1 13 0  1 13 0  0 13 0  0 13 0  0 15 0  0 13 0  0 13 0  0 13 0  0 13 0  0 13 0  0 23 0  0 13 0  0 13 0  0 13 0  0 13 0  0 13 0
