P3
10 17
44
2 20 0  3 23 0  3 23 0  3 23 0  2 30 0  2 4 0  3 23 0  2 23 0  2 23 0  1 30 0
2 20 0  3 23 0  3 23 0  3 23 0  2 30 0  2 4 0  3 23 0  3 20 0  3 23 0  1 30 0
3 20 0  3 23 0  9 44 0  3 4 0  3 30 0  3 20 0  3 4 0  3 30 0  3 30 0  3 30 0
3 20 0  3 20 0  3 23 0  3 30 0  3 30 0  4 23 0  3 4 0  3 30 0  3 30 0  3 4 0
3 20 0  3 20 0  3 4 0  3 30 0  4 23 0  4 23 0  3 30 0  3 30 0  4 4 0  4 23 0
4 23 0  4 23 0  3 4 0  3 30 0  4 23 0  4 23 0  3 30 0  3 30 0  4 4 0  10 44 0
4 23 0  10 44 0  4 23 0  3 30 0  4 23 0  3 4 0  3 30 0  3 4 0  4 23 0  4 23 0
6 23 0  5 23 0  5 23 0  3 30 0  3 4 0  3 30 0  3 30 0  3 4 0  3 23 0  4 23 0
6 23 0  6 23 0  5 23 0  3 30 0  3 30 0  3 30 0  3 30 0  4 4 0  3 20 0  4 20 0
6 23 0  6 23 0  3 30 0  3 30 0  3 30 0  3 30 0  4 23 0  4 23 0  3 23 0  3 20 0
8 7 0  7 23 0  3 30 0  3 30 0  7 23 0  3 30 0  4 23 0  4 23 0  4 23 0  4 23 0
8 23 0  7 23 0  7 23 0  6 30 0  7 23 0  6 30 0  7 23 0  5 23 0  4 23 0  4 23 0
8 23 0  8 23 0  7 23 0  6 30 0  7 4 0  6 30 0  7 20 0  6 4 0  7 23 0  5 23 0
10 23 0  8 23 0  7 23 0  6 30 0  6 30 0  6 30 0  6 30 0  6 30 0  7 23 0  5 23 0
11 23 0  9 23 0  9 23 0  8 23 0  6 30 0  6 30 0  6 30 0  6 30 0  7 23 0  7 23 0
11 23 0  11 23 0  11 23 0  10 23 0  10 23 0  9 30 0  9 30 0  9 30 0  10 23 0  7 23 0
11 23 0  11 23 0  11 23 0  10 23 0  10 23 0  9 30 0  10 23 0  9 30 0  10 23 0  8 23 0
