P3
# R: nearest whole height (h); G: tile_palette.txt; B: 0
# One pixel per tile. Highest stored surface; half heights round up.
# Source: https://fftcompanion.app/maps/location/baliasSwale
# Original FFHacktics page could not be inspected.
12 12
255
8 11 0	8 11 0	7 11 0	7 11 0	6 14 0	8 11 0	11 11 0	8 11 0	6 14 0	6 14 0	11 11 0	12 11 0
9 11 0	9 11 0	7 11 0	7 11 0	6 14 0	10 11 0	11 11 0	9 11 0	6 14 0	6 14 0	10 11 0	12 11 0
18 18 0	10 11 0	9 11 0	5 14 0	6 14 0	9 11 0	11 11 0	7 11 0	6 14 0	7 11 0	10 11 0	11 11 0
11 4 0	11 11 0	10 4 0	5 14 0	5 14 0	9 11 0	10 11 0	4 14 0	4 14 0	7 11 0	8 11 0	9 11 0
11 4 0	11 11 0	8 11 0	5 14 0	5 14 0	4 14 0	8 11 0	4 14 0	4 14 0	6 11 0	8 11 0	8 11 0
12 4 0	11 11 0	9 11 0	8 4 0	4 14 0	4 14 0	4 14 0	4 14 0	4 14 0	4 14 0	6 11 0	7 11 0
9 11 0	9 11 0	8 11 0	8 4 0	8 4 0	4 14 0	4 14 0	4 14 0	4 14 0	4 14 0	7 11 0	7 11 0
9 8 0	9 11 0	8 11 0	8 4 0	8 4 0	7 11 0	4 14 0	4 14 0	4 14 0	6 11 0	12 18 0	8 11 0
9 8 0	9 11 0	9 11 0	9 11 0	8 4 0	6 11 0	4 14 0	6 4 0	4 14 0	6 11 0	8 11 0	8 11 0
11 4 0	10 11 0	9 11 0	16 18 0	10 11 0	7 11 0	4 14 0	4 14 0	4 14 0	7 11 0	9 4 0	9 11 0
12 11 0	15 11 0	13 11 0	12 11 0	11 11 0	7 11 0	3 14 0	3 14 0	6 11 0	8 11 0	9 4 0	17 18 0
16 11 0	15 11 0	11 11 0	10 11 0	10 11 0	2 14 0	2 14 0	3 14 0	6 11 0	8 11 0	9 11 0	9 11 0
