P3
10 16
52
1 30 0  1 30 0  1 30 0  1 30 0  1 30 0  1 30 0  1 30 0  1 30 0  1 30 0  1 30 0
2 20 0  2 20 0  2 20 0  1 30 0  1 30 0  1 30 0  2 20 0  2 20 0  2 20 0  1 30 0
2 20 0  2 20 0  2 20 0  2 20 0  1 30 0  2 20 0  2 20 0  2 23 0  2 23 0  2 12 0
3 12 0  2 20 0  2 20 0  4 23 0  4 23 0  8 40 0  8 40 0  10 40 0  4 23 0  4 23 0
3 12 0  3 20 0  3 20 0  10 40 0  9 40 0  9 40 0  8 40 0  8 40 0  7 40 0  6 52 0
3 12 0  3 20 0  3 12 0  8 40 0  9 40 0  9 40 0  8 40 0  8 40 0  9 40 0  9 40 0
3 23 0  3 23 0  3 20 0  8 40 0  9 40 0  9 40 0  9 40 0  10 40 0  8 40 0  8 40 0
3 20 0  3 23 0  3 20 0  7 40 0  7 40 0  6 40 0  5 52 0  5 52 0  3 20 0  3 20 0
3 23 0  3 20 0  3 20 0  3 20 0  3 20 0  3 20 0  3 20 0  3 20 0  3 20 0  3 20 0
6 40 0  7 40 0  3 20 0  3 20 0  3 20 0  3 20 0  3 20 0  3 20 0  3 20 0  3 20 0
6 40 0  5 40 0  3 20 0  3 20 0  3 20 0  3 20 0  5 52 0  8 40 0  8 40 0  10 40 0
1 20 0  1 20 0  3 20 0  3 20 0  8 40 0  9 40 0  7 40 0  9 40 0  9 40 0  10 40 0
1 30 0  1 20 0  3 20 0  3 20 0  11 40 0  9 40 0  9 40 0  14 40 0  15 40 0  16 40 0
1 30 0  2 23 0  2 23 0  2 20 0  8 40 0  9 40 0  9 40 0  14 40 0  15 40 0  16 40 0
2 20 0  2 23 0  2 23 0  3 20 0  8 40 0  9 40 0  9 40 0  13 40 0  14 40 0  17 40 0
2 20 0  2 20 0  3 20 0  3 20 0  5 52 0  9 40 0  9 40 0  11 40 0  14 40 0  16 40 0
