P3
18 23
255
4 20 0  3 7 0  3 7 0  2 20 0  2 7 0  0 30 0  0 30 0  1 20 0  1 30 0  1 30 0  1 7 0  2 7 0  2 7 0  2 7 0  2 20 0  2 7 0  3 7 0  3 7 0
4 7 0  4 20 0  3 7 0  3 7 0  2 20 0  0 30 0  0 30 0  0 30 0  1 20 0  1 30 0  1 30 0  1 20 0  2 7 0  2 7 0  2 7 0  3 7 0  3 7 0  3 7 0
4 7 0  4 20 0  3 7 0  3 7 0  2 7 0  0 30 0  0 30 0  0 30 0  1 20 0  1 30 0  1 30 0  1 20 0  2 7 0  2 7 0  2 20 0  2 7 0  3 7 0  3 7 0
4 7 0  4 7 0  3 7 0  3 7 0  2 7 0  1 20 0  0 30 0  0 30 0  1 30 0  1 30 0  1 30 0  1 20 0  2 7 0  2 20 0  2 20 0  2 7 0  3 7 0  3 7 0
4 7 0  4 7 0  3 7 0  3 7 0  2 7 0  1 23 0  0 30 0  0 30 0  1 30 0  1 30 0  1 20 0  1 23 0  2 7 0  2 20 0  2 20 0  2 7 0  3 7 0  3 7 0
4 20 0  4 7 0  4 7 0  3 20 0  3 7 0  1 20 0  0 30 0  0 30 0  1 20 0  1 20 0  1 23 0  1 23 0  1 23 0  2 7 0  2 20 0  2 20 0  3 20 0  3 7 0
4 7 0  4 7 0  4 7 0  3 7 0  3 20 0  1 20 0  0 30 0  0 30 0  0 30 0  1 23 0  1 23 0  1 23 0  1 20 0  2 20 0  2 7 0  2 7 0  3 7 0  3 7 0
4 20 0  3 7 0  3 20 0  2 7 0  2 20 0  1 20 0  0 30 0  0 30 0  0 30 0  1 20 0  1 20 0  1 20 0  1 20 0  2 20 0  2 7 0  2 7 0  2 7 0  3 7 0
4 20 0  3 20 0  3 20 0  2 7 0  2 20 0  1 20 0  0 30 0  0 30 0  0 30 0  1 23 0  1 20 0  1 20 0  1 23 0  2 20 0  2 7 0  2 7 0  2 7 0  3 7 0
4 7 0  3 20 0  3 20 0  2 7 0  2 7 0  1 20 0  0 30 0  0 30 0  0 30 0  1 20 0  1 23 0  1 23 0  1 23 0  2 7 0  2 7 0  2 7 0  2 7 0  3 7 0
4 7 0  3 20 0  3 7 0  2 20 0  2 7 0  1 20 0  0 30 0  0 30 0  0 30 0  1 23 0  1 23 0  1 23 0  1 23 0  2 7 0  2 7 0  2 20 0  2 7 0  3 7 0
3 7 0  3 20 0  3 20 0  2 20 0  2 7 0  1 20 0  0 30 0  0 30 0  0 30 0  1 23 0  1 20 0  1 7 0  1 7 0  2 7 0  2 7 0  2 7 0  2 7 0  3 7 0
3 7 0  3 7 0  3 7 0  2 20 0  2 20 0  1 20 0  0 30 0  0 30 0  0 30 0  1 20 0  1 23 0  1 23 0  1 20 0  2 20 0  2 7 0  2 7 0  2 7 0  3 7 0
3 7 0  3 7 0  3 20 0  2 20 0  2 20 0  1 20 0  0 30 0  0 30 0  0 30 0  1 23 0  1 23 0  1 23 0  1 20 0  2 7 0  2 7 0  2 20 0  3 7 0  3 7 0
3 7 0  3 7 0  2 7 0  2 7 0  2 20 0  1 20 0  0 30 0  0 30 0  1 23 0  1 23 0  1 20 0  1 23 0  1 23 0  2 7 0  2 7 0  2 7 0  3 7 0  3 7 0
3 7 0  3 7 0  2 7 0  2 7 0  1 20 0  1 20 0  0 30 0  0 30 0  1 23 0  1 20 0  1 20 0  1 20 0  2 7 0  2 7 0  2 7 0  2 7 0  3 7 0  3 7 0
2 7 0  3 7 0  2 20 0  2 20 0  1 20 0  0 30 0  0 30 0  0 30 0  1 23 0  1 23 0  1 20 0  1 20 0  2 7 0  2 7 0  2 7 0  2 7 0  3 7 0  3 7 0
3 7 0  3 7 0  2 7 0  2 20 0  1 20 0  0 30 0  0 30 0  0 30 0  1 20 0  1 7 0  1 23 0  1 20 0  2 20 0  2 7 0  2 7 0  3 7 0  3 7 0  3 20 0
3 7 0  3 20 0  2 7 0  2 7 0  1 20 0  0 30 0  0 30 0  1 20 0  1 23 0  1 23 0  1 23 0  1 20 0  2 20 0  2 20 0  2 7 0  3 7 0  3 7 0  3 20 0
3 7 0  2 7 0  2 7 0  1 23 0  1 20 0  0 30 0  0 30 0  1 23 0  1 23 0  1 20 0  1 23 0  2 7 0  2 20 0  2 20 0  2 7 0  3 7 0  3 7 0  3 7 0
3 7 0  2 7 0  2 7 0  1 20 0  0 30 0  0 30 0  0 30 0  1 20 0  1 23 0  1 23 0  1 23 0  2 7 0  2 7 0  2 20 0  2 20 0  3 7 0  3 7 0  3 7 0
3 7 0  2 7 0  2 7 0  1 23 0  0 30 0  0 30 0  0 30 0  1 20 0  1 20 0  1 23 0  1 23 0  2 7 0  2 7 0  2 7 0  2 20 0  3 20 0  3 7 0  3 7 0
3 7 0  2 7 0  2 7 0  1 23 0  0 30 0  0 30 0  0 30 0  1 20 0  1 20 0  1 20 0  1 20 0  2 7 0  2 7 0  2 7 0  3 20 0  3 20 0  3 20 0  3 20 0
