P3
10 11
255
11 53 0  0 12 0  0 12 0  0 12 0  0 12 0  0 12 0  0 12 0  0 12 0  0 12 0  11 53 0
0 12 0  0 12 0  0 12 0  0 54 0  0 54 0  0 54 0  0 54 0  0 12 0  0 12 0  0 12 0
0 12 0  0 12 0  1 51 0  0 54 0  0 54 0  0 54 0  0 54 0  1 51 0  0 12 0  0 12 0
0 12 0  0 12 0  3 51 0  0 54 0  0 54 0  0 54 0  0 54 0  3 51 0  0 12 0  0 12 0
0 12 0  0 12 0  1 51 0  0 54 0  0 54 0  0 54 0  0 54 0  1 51 0  0 12 0  0 12 0
0 12 0  0 12 0  0 12 0  0 54 0  0 54 0  0 54 0  0 54 0  0 12 0  0 12 0  0 12 0
0 12 0  0 12 0  0 12 0  5 12 0  1 12 0  1 12 0  5 12 0  0 12 0  0 12 0  0 12 0
0 12 0  0 12 0  0 12 0  2 12 0  2 12 0  2 12 0  2 12 0  0 12 0  0 12 0  0 12 0
0 12 0  0 12 0  0 12 0  2 12 0  2 54 0  2 54 0  2 12 0  0 12 0  0 12 0  0 12 0
11 53 0  0 12 0  0 12 0  2 12 0  2 12 0  4 51 0  1 12 0  0 12 0  0 12 0  11 53 0
11 53 0  11 53 0  11 53 0  4 12 0  3 51 0  3 51 0  4 12 0  11 53 0  11 53 0  11 53 0
