P3
# R: nearest whole height (h); G: tile_palette.txt; B: 0
# One pixel per tile. Highest stored surface; half heights round up.
# Source: https://fftcompanion.app/maps/storyBattle/mullondeCathedral
# Original FFHacktics page could not be inspected.
8 16
255
0 11 0	1 11 0	1 11 0	1 11 0	1 11 0	1 11 0	0 11 0	0 11 0
1 11 0	1 11 0	1 11 0	1 11 0	1 11 0	1 11 0	1 11 0	1 11 0
2 11 0	2 11 0	1 4 0	1 11 0	2 11 0	2 11 0	2 11 0	2 11 0
2 11 0	2 11 0	1 4 0	1 4 0	2 11 0	2 11 0	2 11 0	2 11 0
16 4 0	16 4 0	14 4 0	14 4 0	16 4 0	16 4 0	2 11 0	2 11 0
16 4 0	16 4 0	12 4 0	12 4 0	16 4 0	16 4 0	2 11 0	2 11 0
6 4 0	9 16 0	10 16 0	10 16 0	9 16 0	6 4 0	4 4 0	2 11 0
7 16 0	9 16 0	10 16 0	10 16 0	9 16 0	7 16 0	4 4 0	1 11 0
9 16 0	9 16 0	14 16 0	14 16 0	9 16 0	9 16 0	9 16 0	0 11 0
9 16 0	9 16 0	14 16 0	14 16 0	9 16 0	9 16 0	9 16 0	0 11 0
7 16 0	9 16 0	9 16 0	9 16 0	9 16 0	7 16 0	0 11 0	0 11 0
16 16 0	7 16 0	6 4 0	6 4 0	7 16 0	16 16 0	0 8 0	0 11 0
4 16 0	5 16 0	6 4 0	6 4 0	0 11 0	0 11 0	0 8 0	0 11 0
2 4 0	0 11 0	6 4 0	6 4 0	0 11 0	0 11 0	0 8 0	1 11 0
1 11 0	1 11 0	0 11 0	0 11 0	0 11 0	6 18 0	1 11 0	1 11 0
1 11 0	1 11 0	0 11 0	0 11 0	0 11 0	0 11 0	1 11 0	7 18 0
