P3
8 16
44
0 23 0  1 23 0  1 23 0  1 23 0  1 23 0  1 23 0  0 23 0  0 23 0
1 23 0  1 23 0  1 23 0  1 23 0  1 23 0  1 23 0  1 23 0  1 23 0
2 23 0  2 23 0  1 12 0  1 23 0  2 23 0  2 23 0  2 23 0  2 23 0
2 23 0  2 23 0  1 12 0  1 12 0  2 23 0  2 23 0  2 23 0  2 23 0
16 12 0  16 12 0  14 12 0  14 12 0  16 12 0  16 12 0  2 23 0  2 23 0
16 12 0  16 12 0  12 12 0  12 12 0  16 12 0  16 12 0  2 23 0  2 23 0
6 12 0  9 40 0  10 40 0  10 40 0  9 40 0  6 12 0  4 12 0  2 23 0
7 40 0  9 40 0  10 40 0  10 40 0  9 40 0  7 40 0  4 12 0  1 23 0
9 40 0  9 40 0  14 40 0  14 40 0  9 40 0  9 40 0  9 40 0  0 23 0
9 40 0  9 40 0  14 40 0  14 40 0  9 40 0  9 40 0  9 40 0  0 23 0
7 40 0  9 40 0  9 40 0  9 40 0  9 40 0  7 40 0  0 23 0  0 23 0
16 40 0  7 40 0  6 12 0  6 12 0  7 40 0  16 40 0  0 20 0  0 23 0
4 40 0  5 40 0  6 12 0  6 12 0  0 23 0  0 23 0  0 20 0  0 23 0
2 12 0  0 23 0  6 12 0  6 12 0  0 23 0  0 23 0  0 20 0  1 23 0
1 23 0  1 23 0  0 23 0  0 23 0  0 23 0  6 44 0  1 23 0  1 23 0
1 23 0  1 23 0  0 23 0  0 23 0  0 23 0  0 23 0  1 23 0  7 44 0
