P3
9 11
44
0 23 0  0 23 0  0 23 0  0 12 0  0 12 0  0 12 0  0 12 0  0 23 0  0 23 0
9 12 0  7 40 0  7 40 0  1 12 0  1 12 0  1 12 0  1 12 0  1 23 0  1 23 0
9 40 0  9 40 0  9 40 0  2 12 0  2 12 0  2 12 0  2 12 0  5 23 0  5 23 0
7 40 0  7 40 0  7 40 0  3 23 0  3 12 0  3 12 0  3 12 0  5 23 0  14 44 0
14 40 0  17 12 0  13 40 0  4 23 0  4 12 0  4 12 0  4 12 0  5 23 0  5 23 0
14 40 0  15 40 0  13 40 0  5 12 0  5 12 0  5 12 0  5 12 0  5 12 0  5 12 0
14 40 0  16 40 0  9 40 0  6 23 0  6 23 0  6 12 0  6 12 0  12 40 0  5 12 0
14 40 0  15 40 0  9 40 0  7 23 0  7 23 0  7 12 0  7 12 0  12 40 0  5 12 0
19 12 0  16 40 0  8 12 0  8 12 0  8 12 0  8 12 0  8 12 0  12 40 0  6 12 0
16 40 0  16 40 0  12 40 0  8 23 0  8 23 0  8 23 0  8 23 0  14 40 0  14 40 0
18 40 0  18 40 0  12 40 0  8 23 0  8 23 0  8 23 0  8 23 0  14 40 0  16 12 0
