P3
# ESTIMATED from one isometric reference; see README.md.
# R: whole height; G: tile_palette.txt index; B: 0.
# Origin: rear corner. Columns down-right; rows down-left.
24 21
255
8 7 0	8 7 0	7 7 0	7 7 0	7 3 0	7 3 0	6 7 0	6 3 0	6 3 0	6 3 0	5 14 0	5 7 0	5 16 0	5 16 0	5 16 0	4 7 0	4 7 0	3 7 0	3 7 0	3 3 0	2 7 0	2 7 0	2 7 0	2 7 0
11 16 0	11 16 0	11 16 0	11 16 0	7 7 0	6 7 0	6 7 0	6 3 0	6 7 0	5 7 0	5 14 0	5 7 0	5 16 0	5 16 0	5 16 0	4 7 0	3 3 0	3 7 0	3 3 0	2 7 0	2 7 0	1 7 0	2 7 0	2 7 0
11 16 0	11 16 0	11 16 0	11 16 0	6 7 0	6 7 0	6 7 0	6 7 0	5 7 0	5 7 0	5 14 0	5 7 0	5 16 0	5 16 0	5 16 0	5 16 0	3 3 0	3 7 0	2 7 0	2 7 0	2 7 0	2 7 0	2 7 0	1 7 0
11 16 0	11 16 0	11 16 0	11 16 0	8 16 0	8 16 0	8 16 0	8 16 0	8 16 0	8 16 0	5 7 0	4 7 0	4 7 0	4 7 0	4 7 0	3 7 0	3 7 0	3 7 0	2 7 0	2 7 0	2 7 0	1 3 0	1 7 0	1 7 0
11 16 0	11 16 0	11 16 0	11 16 0	8 16 0	8 16 0	8 16 0	8 16 0	8 16 0	8 16 0	4 7 0	4 7 0	4 7 0	4 7 0	3 3 0	3 3 0	3 7 0	2 7 0	4 16 0	3 16 0	4 16 0	4 16 0	1 7 0	1 7 0
7 7 0	7 7 0	6 7 0	6 7 0	8 16 0	8 16 0	8 16 0	8 16 0	8 16 0	8 16 0	4 7 0	4 7 0	4 7 0	3 7 0	3 7 0	2 7 0	2 7 0	2 7 0	4 16 0	4 16 0	3 16 0	2 16 0	1 7 0	1 7 0
7 7 0	6 7 0	6 7 0	6 7 0	8 16 0	8 16 0	8 16 0	8 16 0	8 16 0	8 16 0	4 7 0	4 7 0	3 7 0	3 7 0	0 7 0	1 7 0	2 7 0	2 7 0	4 16 0	4 16 0	4 16 0	4 16 0	1 7 0	1 7 0
6 7 0	6 7 0	6 7 0	6 7 0	8 16 0	8 16 0	8 16 0	8 16 0	8 16 0	8 16 0	4 3 0	3 7 0	3 7 0	3 14 0	3 14 0	2 7 0	2 7 0	4 16 0	4 16 0	4 16 0	3 16 0	4 16 0	4 16 0	1 7 0
8 16 0	8 16 0	8 16 0	8 16 0	5 7 0	5 3 0	5 3 0	4 7 0	4 7 0	4 7 0	3 7 0	3 7 0	3 7 0	3 14 0	2 7 0	2 7 0	2 14 0	2 7 0	1 7 0	1 7 0	1 7 0	1 7 0	1 7 0	1 11 0
8 16 0	8 16 0	8 16 0	8 16 0	3 14 0	4 4 0	4 7 0	4 7 0	4 7 0	5 16 0	5 16 0	5 16 0	2 14 0	2 14 0	2 14 0	2 14 0	2 14 0	1 14 0	1 14 0	1 14 0	1 14 0	1 7 0	1 7 0	1 7 0
8 16 0	8 16 0	8 16 0	8 16 0	3 14 0	4 4 0	3 14 0	2 14 0	2 14 0	5 16 0	5 16 0	5 16 0	1 14 0	1 14 0	1 14 0	1 14 0	1 7 0	1 7 0	1 7 0	1 14 0	1 14 0	1 14 0	1 7 0	1 14 0
8 16 0	8 16 0	8 16 0	8 16 0	3 14 0	4 4 0	3 14 0	2 14 0	1 14 0	5 16 0	5 16 0	5 16 0	5 16 0	1 14 0	1 14 0	1 14 0	1 14 0	1 14 0	0 14 0	0 14 0	1 14 0	0 14 0	0 14 0	0 14 0
5 7 0	5 7 0	5 7 0	4 7 0	4 7 0	4 7 0	4 7 0	3 7 0	3 3 0	2 7 0	1 14 0	2 7 0	1 14 0	1 14 0	1 14 0	1 14 0	1 14 0	1 14 0	0 14 0	0 14 0	1 4 0	0 14 0	0 14 0	0 14 0
5 14 0	5 14 0	4 7 0	4 14 0	4 7 0	4 7 0	3 7 0	3 7 0	3 14 0	3 7 0	1 14 0	2 7 0	1 14 0	1 14 0	1 14 0	1 7 0	1 11 0	1 11 0	1 7 0	1 7 0	1 7 0	1 7 0	1 7 0	1 7 0
5 7 0	5 7 0	4 7 0	4 7 0	4 7 0	3 3 0	3 7 0	3 7 0	3 14 0	2 7 0	1 3 0	2 14 0	2 14 0	2 14 0	2 14 0	1 11 0	1 11 0	1 11 0	1 7 0	1 11 0	1 7 0	1 11 0	1 7 0	1 11 0
5 7 0	4 7 0	4 7 0	4 7 0	3 7 0	3 7 0	3 7 0	3 7 0	2 7 0	2 7 0	2 7 0	2 3 0	1 14 0	1 14 0	1 14 0	1 7 0	1 11 0	1 11 0	1 7 0	1 7 0	1 7 0	1 7 0	1 7 0	1 7 0
4 7 0	6 16 0	6 16 0	6 16 0	6 16 0	2 3 0	0 3 0	2 14 0	2 14 0	2 14 0	2 14 0	3 4 0	1 14 0	1 14 0	1 14 0	1 7 0	1 11 0	1 11 0	1 7 0	1 7 0	1 7 0	1 7 0	1 7 0	1 7 0
4 7 0	6 16 0	6 16 0	6 16 0	6 16 0	3 3 0	1 7 0	1 14 0	2 14 0	2 14 0	2 14 0	3 3 0	1 14 0	1 14 0	1 14 0	1 11 0	1 11 0	1 7 0	1 7 0	1 7 0	3 16 0	3 16 0	3 16 0	3 16 0
4 7 0	6 16 0	6 16 0	6 16 0	6 16 0	1 14 0	2 7 0	2 14 0	2 14 0	2 14 0	2 14 0	3 3 0	1 14 0	1 14 0	1 14 0	1 11 0	1 11 0	1 7 0	1 7 0	1 7 0	3 16 0	3 16 0	3 16 0	3 16 0
4 7 0	5 16 0	6 16 0	6 16 0	6 16 0	6 16 0	2 7 0	2 14 0	2 14 0	2 14 0	2 14 0	3 4 0	1 14 0	1 14 0	1 14 0	1 7 0	1 7 0	1 7 0	1 7 0	1 7 0	3 16 0	3 16 0	3 16 0	3 16 0
3 3 0	3 7 0	1 7 0	2 7 0	2 7 0	2 7 0	2 7 0	2 14 0	2 14 0	2 14 0	2 14 0	3 4 0	1 14 0	1 14 0	1 14 0	1 7 0	1 7 0	1 7 0	1 11 0	1 7 0	3 16 0	3 16 0	3 16 0	3 16 0
