P3
28 30
255
14 7 0  14 7 0  14 7 0  14 7 0  14 7 0  14 7 0  14 7 0  14 7 0  14 7 0  14 7 0  14 7 0  14 7 0  14 7 0  14 7 0  11 7 0  10 7 0  13 7 0  2 7 0  6 15 0  3 15 0  4 15 0  4 15 0  6 15 0  3 15 0  6 15 0  6 15 0  6 15 0  6 15 0
14 7 0  14 7 0  14 7 0  14 7 0  14 7 0  14 7 0  14 7 0  14 7 0  14 7 0  14 7 0  14 7 0  14 7 0  14 7 0  14 7 0  14 7 0  13 7 0  11 7 0  2 7 0  3 15 0  1 15 0  4 15 0  5 15 0  5 40 0  7 40 0  8 40 0  9 40 0  6 15 0  6 15 0
14 7 0  14 7 0  14 7 0  14 7 0  14 7 0  14 7 0  14 7 0  14 7 0  14 7 0  14 7 0  14 7 0  14 7 0  14 7 0  14 7 0  11 7 0  10 7 0  14 7 0  4 7 0  6 15 0  6 15 0  2 15 0  5 15 0  6 40 0  6 40 0  8 40 0  9 40 0  5 15 0  5 15 0
14 7 0  14 7 0  14 7 0  14 7 0  14 7 0  14 7 0  14 7 0  14 7 0  14 7 0  14 7 0  14 7 0  13 7 0  14 7 0  14 7 0  14 7 0  13 7 0  11 7 0  1 7 0  6 15 0  6 15 0  5 15 0  6 15 0  6 40 0  7 40 0  7 40 0  9 40 0  5 15 0  5 15 0
14 7 0  14 7 0  14 7 0  14 7 0  14 7 0  14 7 0  14 7 0  14 7 0  14 7 0  14 7 0  14 7 0  14 7 0  14 7 0  14 7 0  11 7 0  10 7 0  14 7 0  4 7 0  6 15 0  4 15 0  5 15 0  5 15 0  4 40 0  7 40 0  8 40 0  8 40 0  9 40 0  5 15 0
14 7 0  14 7 0  14 7 0  14 7 0  14 7 0  14 7 0  14 7 0  14 7 0  14 7 0  14 7 0  14 7 0  14 7 0  14 7 0  14 7 0  14 7 0  13 7 0  11 7 0  1 7 0  5 15 0  5 15 0  5 15 0  5 15 0  5 15 0  5 15 0  5 15 0  5 15 0  5 15 0  5 15 0
14 7 0  14 7 0  14 7 0  14 7 0  14 7 0  14 7 0  14 7 0  14 7 0  14 7 0  14 7 0  14 7 0  14 7 0  14 7 0  14 7 0  11 7 0  10 7 0  14 7 0  4 7 0  5 15 0  5 15 0  5 15 0  5 15 0  5 15 0  4 15 0  5 15 0  4 15 0  5 15 0  5 15 0
14 7 0  14 7 0  14 7 0  14 7 0  14 7 0  14 7 0  14 7 0  14 7 0  14 7 0  14 7 0  14 7 0  14 7 0  14 7 0  14 7 0  14 7 0  13 7 0  11 7 0  1 7 0  5 15 0  5 15 0  4 15 0  5 15 0  5 15 0  5 15 0  5 15 0  5 15 0  5 15 0  5 15 0
14 7 0  14 7 0  14 7 0  14 7 0  14 7 0  14 7 0  14 7 0  14 7 0  14 7 0  14 7 0  14 7 0  14 7 0  14 7 0  14 7 0  11 7 0  10 7 0  14 7 0  3 7 0  5 15 0  5 15 0  5 15 0  5 15 0  4 15 0  5 15 0  5 15 0  5 15 0  5 15 0  4 15 0
14 7 0  14 7 0  14 7 0  14 7 0  14 7 0  14 7 0  14 7 0  14 7 0  14 7 0  14 7 0  14 7 0  14 7 0  14 7 0  14 7 0  14 7 0  13 7 0  11 7 0  6 40 0  7 40 0  8 40 0  8 40 0  8 40 0  4 7 0  5 15 0  5 15 0  5 15 0  5 15 0  3 15 0
14 7 0  14 7 0  14 7 0  14 7 0  14 7 0  14 7 0  14 7 0  14 7 0  14 7 0  14 7 0  14 7 0  14 7 0  14 7 0  14 7 0  4 7 0  10 7 0  14 7 0  6 40 0  7 40 0  8 40 0  8 40 0  8 40 0  3 15 0  5 15 0  5 15 0  7 40 0  7 40 0  3 15 0
14 7 0  14 7 0  14 7 0  14 7 0  14 7 0  14 7 0  14 7 0  14 7 0  14 7 0  14 7 0  14 7 0  14 7 0  14 7 0  14 7 0  14 7 0  13 7 0  11 7 0  7 40 0  8 40 0  8 40 0  8 40 0  8 40 0  4 15 0  4 15 0  4 15 0  7 40 0  7 40 0  3 15 0
14 7 0  14 7 0  14 7 0  14 7 0  14 7 0  14 7 0  14 7 0  14 7 0  14 7 0  14 7 0  14 7 0  14 7 0  14 7 0  14 7 0  11 7 0  10 7 0  14 7 0  3 7 0  8 40 0  8 40 0  8 40 0  7 40 0  8 40 0  4 7 0  3 7 0  7 40 0  7 40 0  3 15 0
14 7 0  14 7 0  14 7 0  14 7 0  14 7 0  14 7 0  14 7 0  14 7 0  14 7 0  14 7 0  14 7 0  14 7 0  14 7 0  14 7 0  14 7 0  13 7 0  7 40 0  7 40 0  7 40 0  7 40 0  4 15 0  4 15 0  4 15 0  4 15 0  4 7 0  4 7 0  4 7 0  3 15 0
14 7 0  14 7 0  14 7 0  14 7 0  14 7 0  14 7 0  14 7 0  14 7 0  14 7 0  14 7 0  14 7 0  14 7 0  14 7 0  14 7 0  11 7 0  10 7 0  7 40 0  7 40 0  7 40 0  7 40 0  4 15 0  4 7 0  4 15 0  4 15 0  4 7 0  4 7 0  4 7 0  3 15 0
14 7 0  14 7 0  14 7 0  14 7 0  14 7 0  14 7 0  14 7 0  14 7 0  14 7 0  14 7 0  14 7 0  14 7 0  14 7 0  14 7 0  14 7 0  13 7 0  7 40 0  7 40 0  7 40 0  7 40 0  4 15 0  4 15 0  4 15 0  4 15 0  4 15 0  4 15 0  4 15 0  3 15 0
14 7 0  14 7 0  14 7 0  14 7 0  14 7 0  14 7 0  14 7 0  14 7 0  14 7 0  14 7 0  14 7 0  14 7 0  14 7 0  14 7 0  11 7 0  9 7 0  7 40 0  7 40 0  7 40 0  7 40 0  7 40 0  4 7 0  4 7 0  4 15 0  4 15 0  7 40 0  7 40 0  3 15 0
14 7 0  14 7 0  14 7 0  14 7 0  14 7 0  14 7 0  14 7 0  14 7 0  14 7 0  14 7 0  14 7 0  14 7 0  11 7 0  14 7 0  14 7 0  13 7 0  11 7 0  0 7 0  4 15 0  3 15 0  4 15 0  4 15 0  4 7 0  4 15 0  4 15 0  7 40 0  7 40 0  3 15 0
14 7 0  14 7 0  14 7 0  14 7 0  14 7 0  14 7 0  14 7 0  14 7 0  14 7 0  14 7 0  14 7 0  8 7 0  12 7 0  14 7 0  11 7 0  10 7 0  14 7 0  2 7 0  4 7 0  4 15 0  4 15 0  7 40 0  7 40 0  3 15 0  3 15 0  7 40 0  7 40 0  3 15 0
14 7 0  14 7 0  14 7 0  14 7 0  14 7 0  14 7 0  14 7 0  14 7 0  14 7 0  13 7 0  14 7 0  13 7 0  9 7 0  13 7 0  13 7 0  13 7 0  11 7 0  0 7 0  4 15 0  4 15 0  4 15 0  7 40 0  7 40 0  7 40 0  3 15 0  3 15 0  3 15 0  3 15 0
14 7 0  14 7 0  14 7 0  14 7 0  14 7 0  14 7 0  14 7 0  14 7 0  14 7 0  14 7 0  14 7 0  12 7 0  14 7 0  14 7 0  11 7 0  10 7 0  14 7 0  2 7 0  4 15 0  3 15 0  7 40 0  7 40 0  7 40 0  7 40 0  3 7 0  3 7 0  3 15 0  3 7 0
14 7 0  14 7 0  14 7 0  14 7 0  14 7 0  14 7 0  14 7 0  14 7 0  14 7 0  13 7 0  12 7 0  14 7 0  13 7 0  11 7 0  11 7 0  13 7 0  11 7 0  0 30 0  3 15 0  3 15 0  3 15 0  3 15 0  3 15 0  3 7 0  3 7 0  3 7 0  3 15 0  3 15 0
13 30 0  13 30 0  13 30 0  12 30 0  11 30 0  7 30 0  7 30 0  7 30 0  7 30 0  6 30 0  3 30 0  3 30 0  2 30 0  1 30 0  1 30 0  0 30 0  0 30 0  0 30 0  0 30 0  0 30 0  0 30 0  0 30 0  0 30 0  0 30 0  0 30 0  0 30 0  0 30 0  0 30 0
13 30 0  13 30 0  13 30 0  12 30 0  11 30 0  7 30 0  8 30 0  7 30 0  6 30 0  6 30 0  1 30 0  3 30 0  2 30 0  1 30 0  1 30 0  0 30 0  0 30 0  0 30 0  0 30 0  0 30 0  0 30 0  0 30 0  0 30 0  0 30 0  0 30 0  0 30 0  0 30 0  0 30 0
13 30 0  13 30 0  13 30 0  8 30 0  7 30 0  7 30 0  8 30 0  7 30 0  6 30 0  6 30 0  3 30 0  3 30 0  2 30 0  1 30 0  1 30 0  0 30 0  0 30 0  0 30 0  0 30 0  0 30 0  0 30 0  0 30 0  0 30 0  0 30 0  0 30 0  0 30 0  0 30 0  0 30 0
14 7 0  13 7 0  13 7 0  12 7 0  9 7 0  11 7 0  8 7 0  9 7 0  9 7 0  8 7 0  7 7 0  7 7 0  6 7 0  5 7 0  5 7 0  4 7 0  4 7 0  3 7 0  3 15 0  3 15 0  3 15 0  3 15 0  3 30 0  0 30 0  0 30 0  0 30 0  0 30 0  0 30 0
14 7 0  13 7 0  13 7 0  12 7 0  11 7 0  11 7 0  9 7 0  9 7 0  9 7 0  8 7 0  7 7 0  7 7 0  6 7 0  4 7 0  5 7 0  4 7 0  4 7 0  3 7 0  3 15 0  3 15 0  3 15 0  3 15 0  3 30 0  0 30 0  0 30 0  0 30 0  0 30 0  0 30 0
14 7 0  13 7 0  13 7 0  12 7 0  8 7 0  11 7 0  9 7 0  9 7 0  8 7 0  8 7 0  7 7 0  7 7 0  6 7 0  5 7 0  5 7 0  4 7 0  4 7 0  3 7 0  3 15 0  3 15 0  2 15 0  2 7 0  2 30 0  0 30 0  0 30 0  0 30 0  0 30 0  0 30 0
14 7 0  7 7 0  8 7 0  8 7 0  9 7 0  9 7 0  10 7 0  9 7 0  9 7 0  8 7 0  7 7 0  7 7 0  6 7 0  5 7 0  5 7 0  4 7 0  4 7 0  1 7 0  2 15 0  2 7 0  2 7 0  2 7 0  2 15 0  0 30 0  0 30 0  0 30 0  0 30 0  0 30 0
7 7 0  8 7 0  8 7 0  9 7 0  9 7 0  11 7 0  10 7 0  9 7 0  9 7 0  8 7 0  7 7 0  7 7 0  6 7 0  5 7 0  5 7 0  4 7 0  4 7 0  2 7 0  2 7 0  2 7 0  2 15 0  2 7 0  2 15 0  0 30 0  0 30 0  0 30 0  0 30 0  0 30 0
