P3
13 19
255
5 3 0  4 3 0  4 7 0  4 7 0  4 3 0  3 7 0  3 3 0  3 7 0  3 7 0  0 14 0  0 14 0  0 14 0  0 14 0
4 7 0  4 7 0  4 7 0  4 7 0  3 7 0  3 7 0  3 7 0  3 7 0  3 3 0  0 14 0  0 14 0  0 14 0  0 14 0
4 7 0  4 7 0  4 7 0  3 7 0  3 7 0  3 7 0  3 7 0  3 7 0  2 7 0  0 14 0  0 14 0  0 14 0  0 14 0
4 7 0  4 7 0  4 7 0  3 7 0  3 7 0  3 7 0  3 7 0  5 16 0  5 16 0  5 16 0  5 16 0  5 16 0  0 14 0
4 7 0  4 7 0  3 7 0  3 7 0  3 7 0  3 7 0  2 7 0  2 7 0  5 16 0  5 16 0  5 16 0  5 16 0  0 14 0
4 7 0  7 16 0  7 16 0  7 16 0  7 16 0  2 7 0  5 16 0  5 16 0  5 16 0  5 16 0  5 16 0  5 16 0  0 14 0
3 7 0  7 16 0  7 16 0  7 16 0  7 16 0  2 7 0  5 16 0  5 16 0  5 16 0  5 16 0  5 16 0  5 16 0  0 14 0
3 7 0  7 16 0  7 16 0  7 16 0  7 16 0  2 7 0  5 16 0  5 16 0  5 16 0  5 16 0  5 16 0  0 14 0  0 14 0
3 3 0  7 16 0  7 16 0  7 16 0  7 16 0  7 16 0  5 16 0  5 16 0  5 16 0  5 16 0  5 16 0  0 14 0  0 14 0
3 3 0  3 3 0  2 3 0  2 7 0  2 7 0  2 7 0  5 16 0  1 11 0  1 7 0  1 7 0  1 7 0  0 14 0  0 14 0
3 3 0  3 7 0  2 7 0  2 7 0  2 7 0  2 7 0  1 7 0  1 7 0  0 14 0  0 14 0  0 14 0  0 14 0  0 14 0
3 7 0  2 7 0  2 7 0  2 7 0  2 7 0  1 7 0  1 11 0  1 7 0  0 14 0  0 14 0  0 14 0  0 14 0  0 14 0
0 14 0  0 14 0  0 14 0  0 14 0  0 14 0  0 14 0  0 14 0  1 11 0  1 11 0  0 14 0  0 14 0  0 14 0  0 14 0
0 14 0  0 14 0  0 14 0  0 14 0  0 14 0  0 14 0  0 14 0  1 7 0  1 7 0  0 14 0  0 14 0  0 14 0  0 14 0
2 7 0  2 7 0  2 14 0  1 14 0  1 14 0  1 14 0  1 7 0  1 7 0  0 14 0  0 14 0  0 14 0  0 14 0  0 14 0
2 7 0  2 3 0  1 7 0  0 14 0  0 14 0  1 14 0  1 7 0  1 7 0  0 14 0  0 14 0  0 14 0  0 14 0  0 14 0
2 7 0  1 7 0  1 7 0  0 14 0  0 14 0  1 7 0  1 7 0  0 14 0  0 14 0  0 14 0  0 14 0  0 14 0  0 14 0
1 7 0  1 7 0  1 11 0  0 14 0  0 14 0  0 14 0  0 14 0  0 14 0  0 14 0  0 14 0  0 14 0  0 14 0  0 14 0
1 7 0  1 7 0  1 7 0  0 14 0  0 14 0  0 14 0  0 14 0  0 14 0  0 14 0  0 14 0  0 14 0  0 14 0  0 14 0
