P3
# R: nearest whole height (h); G: tile_palette.txt; B: 0
# One pixel per tile. Highest stored surface; half heights round up.
# Source: https://fftcompanion.app/maps/location/zeircheleFalls
# Original FFHacktics page could not be inspected.
11 10
255
4 11 0	7 11 0	8 0 0	10 0 0	11 0 0	12 11 0	17 11 0	19 0 0	21 0 0	22 11 0	22 0 0
3 0 0	5 0 0	8 11 0	10 0 0	11 0 0	11 11 0	14 0 0	17 0 0	20 0 0	22 11 0	22 11 0
2 14 0	4 0 0	8 11 0	10 11 0	10 0 0	10 11 0	11 0 0	15 0 0	17 0 0	22 0 0	22 11 0
2 0 0	2 14 0	2 14 0	2 14 0	10 23 0	6 14 0	10 14 0	14 14 0	17 14 0	21 14 0	21 14 0
2 0 0	2 14 0	2 0 0	2 14 0	9 23 0	2 14 0	8 14 0	11 14 0	16 14 0	21 14 0	21 0 0
2 14 0	2 14 0	2 14 0	2 14 0	9 23 0	2 14 0	5 14 0	9 14 0	14 14 0	21 14 0	21 14 0
4 11 0	4 11 0	3 0 0	2 14 0	10 23 0	4 14 0	7 14 0	13 14 0	17 14 0	21 14 0	21 14 0
5 11 0	4 11 0	10 11 0	10 0 0	10 0 0	10 11 0	9 11 0	15 0 0	20 0 0	22 0 0	22 11 0
6 11 0	5 11 0	10 11 0	10 0 0	10 11 0	11 11 0	14 0 0	17 11 0	20 0 0	22 11 0	22 11 0
7 0 0	8 11 0	10 11 0	10 0 0	11 11 0	11 11 0	17 0 0	20 0 0	22 0 0	22 0 0	22 11 0
