P3
11 10
32
4 23 0  7 23 0  8 4 0  10 4 0  11 4 0  12 23 0  17 23 0  19 4 0  21 4 0  22 23 0  22 4 0
3 4 0  5 4 0  8 23 0  10 4 0  11 4 0  11 23 0  14 4 0  17 4 0  20 4 0  22 23 0  22 23 0
2 30 0  4 4 0  8 23 0  10 23 0  10 4 0  10 23 0  11 4 0  15 4 0  17 4 0  22 4 0  22 23 0
2 4 0  2 30 0  2 30 0  2 30 0  10 32 0  6 30 0  10 30 0  14 30 0  17 30 0  21 30 0  21 30 0
2 4 0  2 30 0  2 4 0  2 30 0  9 32 0  2 30 0  8 30 0  11 30 0  16 30 0  21 30 0  21 4 0
2 30 0  2 30 0  2 30 0  2 30 0  9 32 0  2 30 0  5 30 0  9 30 0  14 30 0  21 30 0  21 30 0
4 23 0  4 23 0  3 4 0  2 30 0  10 32 0  4 30 0  7 30 0  13 30 0  17 30 0  21 30 0  21 30 0
5 23 0  4 23 0  10 23 0  10 4 0  10 4 0  10 23 0  9 23 0  15 4 0  20 4 0  22 4 0  22 23 0
6 23 0  5 23 0  10 23 0  10 4 0  10 23 0  11 23 0  14 4 0  17 23 0  20 4 0  22 23 0  22 23 0
7 4 0  8 23 0  10 23 0  10 4 0  11 23 0  11 23 0  17 4 0  20 4 0  22 4 0  22 4 0  22 23 0
