P3
14 25
255
13 13 0  13 7 0  10 7 0  7 15 0  6 15 0  6 15 0  6 7 0  6 7 0  5 15 0  2 7 0  2 7 0  1 15 0  0 30 0  0 30 0
13 13 0  13 13 0  12 15 0  10 15 0  8 15 0  7 15 0  7 15 0  7 7 0  7 7 0  6 15 0  3 7 0  3 7 0  0 30 0  0 30 0
12 7 0  12 13 0  12 15 0  10 15 0  10 15 0  9 15 0  8 15 0  8 15 0  8 7 0  6 15 0  6 15 0  4 7 0  0 30 0  0 30 0
12 7 0  12 13 0  12 15 0  10 15 0  10 15 0  10 15 0  8 15 0  8 15 0  8 7 0  6 15 0  6 15 0  6 15 0  0 30 0  0 30 0
11 7 0  11 13 0  12 15 0  10 15 0  10 15 0  10 15 0  8 15 0  8 15 0  8 7 0  6 7 0  6 15 0  6 15 0  0 30 0  0 30 0
11 13 0  11 13 0  12 15 0  10 15 0  10 15 0  10 15 0  8 15 0  8 7 0  8 7 0  6 15 0  6 15 0  6 15 0  0 30 0  0 30 0
11 13 0  11 13 0  10 15 0  8 7 0  8 15 0  8 15 0  6 7 0  6 15 0  6 15 0  4 15 0  4 7 0  4 15 0  0 30 0  0 30 0
10 7 0  10 13 0  10 15 0  8 15 0  8 15 0  8 15 0  6 15 0  6 15 0  4 30 0  4 30 0  4 15 0  4 15 0  0 30 0  0 30 0
10 13 0  10 13 0  10 15 0  8 15 0  8 15 0  8 15 0  6 15 0  6 7 0  4 30 0  4 30 0  4 15 0  4 15 0  0 30 0  0 30 0
9 7 0  9 13 0  10 15 0  8 15 0  8 15 0  8 15 0  6 7 0  6 7 0  3 30 0  3 30 0  4 15 0  4 15 0  0 30 0  0 30 0
9 7 0  9 13 0  10 15 0  8 15 0  8 7 0  8 15 0  6 7 0  6 7 0  3 30 0  3 30 0  4 15 0  4 7 0  0 30 0  0 30 0
9 13 0  9 13 0  10 15 0  8 7 0  8 7 0  8 15 0  6 15 0  6 15 0  3 30 0  3 30 0  4 15 0  4 15 0  0 30 0  0 30 0
8 13 0  8 13 0  8 15 0  6 15 0  6 15 0  6 15 0  4 7 0  4 15 0  2 30 0  2 30 0  2 15 0  2 15 0  0 30 0  0 30 0
8 7 0  8 13 0  8 15 0  6 7 0  6 7 0  6 15 0  4 15 0  4 15 0  2 30 0  2 30 0  2 7 0  2 15 0  0 30 0  0 30 0
7 13 0  7 7 0  8 15 0  6 15 0  6 7 0  6 15 0  4 7 0  4 15 0  2 30 0  2 30 0  2 15 0  2 15 0  0 30 0  0 30 0
7 13 0  7 13 0  8 7 0  6 15 0  6 7 0  6 15 0  4 7 0  4 7 0  1 30 0  1 30 0  2 15 0  2 15 0  0 30 0  0 30 0
7 13 0  7 13 0  8 15 0  6 15 0  6 7 0  6 15 0  4 7 0  4 15 0  1 30 0  1 30 0  2 15 0  2 15 0  0 30 0  0 30 0
6 13 0  6 13 0  8 15 0  6 7 0  6 7 0  6 15 0  4 7 0  4 15 0  1 30 0  1 30 0  2 7 0  2 15 0  0 30 0  0 30 0
6 13 0  6 13 0  6 15 0  4 15 0  4 7 0  4 15 0  2 15 0  2 15 0  0 30 0  0 30 0  0 15 0  0 15 0  0 30 0  0 30 0
5 13 0  5 13 0  6 15 0  4 7 0  4 7 0  4 15 0  2 15 0  2 15 0  0 30 0  0 30 0  0 15 0  0 15 0  0 30 0  0 30 0
5 13 0  5 13 0  6 15 0  4 15 0  4 15 0  4 15 0  2 15 0  2 15 0  0 30 0  0 30 0  0 15 0  0 15 0  0 30 0  0 30 0
5 13 0  5 13 0  6 15 0  4 7 0  4 15 0  4 7 0  2 7 0  2 15 0  0 30 0  0 30 0  0 15 0  0 15 0  0 30 0  0 30 0
4 13 0  4 13 0  6 15 0  4 15 0  4 15 0  4 7 0  2 15 0  2 15 0  0 30 0  0 30 0  0 15 0  0 15 0  0 30 0  0 30 0
0 30 0  0 30 0  0 30 0  0 30 0  0 30 0  0 30 0  0 30 0  0 30 0  0 30 0  0 30 0  0 30 0  0 30 0  0 30 0  0 30 0
0 30 0  0 30 0  0 30 0  0 30 0  0 30 0  0 30 0  0 30 0  0 30 0  0 30 0  0 30 0  0 30 0  0 30 0  0 30 0  0 30 0
