P3
8 10
32
4 11 0  4 11 0  4 11 0  3 8 0  3 8 0  4 11 0  4 11 0  4 0 0
4 11 0  4 11 0  3 11 0  3 8 0  20 16 0  20 16 0  20 16 0  4 0 0
4 11 0  3 11 0  3 8 0  4 3 0  20 16 0  20 16 0  20 16 0  4 0 0
3 11 0  2 11 0  2 8 0  5 3 0  20 16 0  20 16 0  20 16 0  4 0 0
3 8 0  2 8 0  2 8 0  6 3 0  12 16 0  12 16 0  12 16 0  7 0 0
2 8 0  2 8 0  3 11 0  7 3 0  7 11 0  7 4 0  7 11 0  7 3 0
2 11 0  2 8 0  6 3 0  7 3 0  7 11 0  7 11 0  7 11 0  5 0 0
2 11 0  2 8 0  5 3 0  6 4 0  7 4 0  7 4 0  5 11 0  5 11 0
1 11 0  1 11 0  5 3 0  5 4 0  1 4 0  1 11 0  5 0 0  3 0 0
1 11 0  1 11 0  1 11 0  0 8 0  0 11 0  0 8 0  0 8 0  0 8 0
