P3
8 14
30
9 15 0  10 12 0  9 15 0  8 7 0  8 15 0  8 7 0  8 7 0  8 12 0
9 15 0  10 12 0  7 15 0  7 15 0  7 15 0  7 15 0  7 15 0  6 7 0
9 15 0  4 15 0  6 12 0  3 30 0  3 30 0  3 30 0  6 12 0  5 15 0
5 15 0  4 15 0  6 12 0  3 30 0  3 30 0  3 30 0  6 12 0  3 7 0
4 15 0  4 7 0  6 12 0  3 30 0  3 30 0  3 30 0  6 12 0  2 7 0
2 30 0  2 30 0  5 30 0  1 30 0  1 30 0  1 30 0  5 30 0  2 7 0
2 30 0  3 15 0  1 30 0  1 30 0  1 30 0  1 30 0  1 30 0  1 30 0
2 30 0  3 15 0  1 30 0  1 30 0  5 15 0  1 30 0  1 30 0  1 30 0
2 30 0  2 30 0  4 30 0  1 30 0  1 30 0  1 30 0  3 30 0  2 7 0
3 15 0  5 7 0  5 12 0  1 30 0  1 30 0  1 30 0  4 12 0  2 15 0
4 15 0  4 15 0  5 12 0  1 30 0  1 30 0  1 30 0  4 12 0  4 7 0
3 15 0  5 15 0  6 12 0  6 12 0  6 12 0  6 12 0  5 12 0  4 15 0
2 15 0  4 15 0  4 15 0  1 30 0  1 30 0  1 30 0  4 12 0  3 15 0
5 12 0  5 12 0  4 15 0  1 30 0  1 30 0  1 30 0  4 12 0  2 15 0
